;FLAVOR:Marlin
;TIME:6180
;Filament used: 3.37553m
;Layer height: 0.2
;MINX:47.649
;MINY:68.214
;MINZ:0.2
;MAXX:188.583
;MAXY:165.871
;MAXZ:12
;Generated with Cura_SteamEngine 4.6.2
M140 S50
M105
M190 S50
M104 S200
M105
M109 S200
M82 ;absolute extrusion mode
; Ender 3 Custom Start G-code
G92 E0 ; Reset Extruder
G28 ; Home all axes
G1 Z2.0 F3000 ; Move Z Axis up little to prevent scratching of Heat Bed
G1 X0.1 Y20 Z0.3 F5000.0 ; Move to start position
G1 X0.1 Y200.0 Z0.3 F1500.0 E15 ; Draw the first line
G1 X0.4 Y200.0 Z0.3 F5000.0 ; Move to side a little
G1 X0.4 Y20 Z0.3 F1500.0 E30 ; Draw the second line
G92 E0 ; Reset Extruder
G1 Z2.0 F3000 ; Move Z Axis up little to prevent scratching of Heat Bed
G1 X5 Y20 Z0.3 F5000.0 ; Move over to prevent blob squish
G92 E0
G92 E0
G1 F2700 E-5
;LAYER_COUNT:60
;LAYER:0
M107
G0 F6000 X155.044 Y69.201 Z0.2
;TYPE:SKIRT
G1 F2700 E0
G1 F1200 X155.922 Y69.412 E0.03003
G1 X156.778 Y69.7 E0.06007
G1 X157.879 Y70.202 E0.10032
G1 X158.028 Y70.281 E0.10593
G1 X158.806 Y70.739 E0.13596
G1 X159.541 Y71.264 E0.166
G1 X160.227 Y71.852 E0.19605
G1 X160.858 Y72.498 E0.22608
G1 X161.429 Y73.198 E0.25613
G1 X161.936 Y73.945 E0.28616
G1 X162.375 Y74.735 E0.31622
G1 X162.7 Y75.455 E0.34249
G1 X162.78 Y75.652 E0.34956
G1 X162.915 Y76.002 E0.36204
G1 X180.382 Y123.998 E2.06082
G1 X181.311 Y126.441 E2.14775
G1 X182.275 Y128.776 E2.23177
G1 X183.322 Y131.124 E2.31728
G1 X184.408 Y133.383 E2.40064
G1 X185.591 Y135.678 E2.48652
G1 X186.462 Y137.271 E2.54691
G1 X186.854 Y138.049 E2.57588
G1 X187.188 Y138.888 E2.60592
G1 X187.447 Y139.754 E2.63598
G1 X187.628 Y140.638 E2.66599
G1 X187.722 Y141.434 E2.69265
G1 X187.739 Y141.649 E2.69983
G1 X187.77 Y142.285 E2.721
G1 X187.783 Y143.183 E2.75087
G1 X187.782 Y154.275 E3.1198
G1 X187.772 Y155.002 E3.14398
G1 X187.72 Y155.904 E3.17403
G1 X187.588 Y156.797 E3.20405
G1 X187.377 Y157.676 E3.23412
G1 X187.09 Y158.532 E3.26415
G1 X186.728 Y159.359 E3.29417
G1 X186.294 Y160.151 E3.32421
G1 X185.792 Y160.902 E3.35426
G1 X185.226 Y161.605 E3.38427
G1 X184.599 Y162.256 E3.41434
G1 X183.918 Y162.848 E3.44435
G1 X183.187 Y163.378 E3.47438
G1 X182.411 Y163.841 E3.50443
G1 X181.598 Y164.234 E3.53447
G1 X180.753 Y164.554 E3.56452
G1 X179.884 Y164.797 E3.59453
G1 X178.996 Y164.962 E3.62457
G1 X177.859 Y165.058 E3.66252
G1 X177.253 Y165.071 E3.68268
G1 X168.151 Y165.071 E3.98542
G1 X167.441 Y165.061 E4.00904
G1 X166.54 Y165.008 E4.03905
G1 X165.646 Y164.876 E4.06911
G1 X164.768 Y164.665 E4.09915
G1 X163.508 Y164.212 E4.14368
G1 X162.757 Y163.883 E4.17095
G1 X161.575 Y163.35 E4.21408
G1 X159.228 Y162.369 E4.29868
G1 X156.827 Y161.443 E4.38427
G1 X154.466 Y160.613 E4.46751
G1 X152.02 Y159.827 E4.55296
G1 X149.604 Y159.125 E4.63664
G1 X147.128 Y158.482 E4.72173
G1 X144.664 Y157.915 E4.80582
G1 X142.148 Y157.409 E4.89118
G1 X139.678 Y156.988 E4.97452
G1 X137.145 Y156.627 E5.05961
G1 X134.662 Y156.346 E5.14273
G1 X132.095 Y156.129 E5.22841
G1 X129.598 Y155.987 E5.31159
G1 X125.654 Y155.904 E5.4428
G1 X119.462 Y155.904 E5.64875
G1 X116.856 Y155.941 E5.73543
G1 X114.288 Y156.05 E5.82092
G1 X111.786 Y156.227 E5.90435
G1 X109.274 Y156.476 E5.98831
G1 X106.711 Y156.804 E6.07425
G1 X104.226 Y157.195 E6.15792
G1 X101.743 Y157.656 E6.24191
G1 X99.262 Y158.19 E6.32632
G1 X96.784 Y158.797 E6.41117
G1 X94.297 Y159.482 E6.49697
G1 X91.925 Y160.208 E6.57948
G1 X89.48 Y161.033 E6.6653
G1 X87.1 Y161.911 E6.74968
G1 X84.749 Y162.854 E6.83393
G1 X82.297 Y163.922 E6.92288
G1 X81.822 Y164.139 E6.94025
G1 X80.985 Y164.477 E6.97027
G1 X80.121 Y164.739 E7.0003
G1 X79.237 Y164.924 E7.03034
G1 X77.982 Y165.051 E7.0723
G1 X77.643 Y165.064 E7.08358
G1 X77.253 Y165.071 E7.09655
G1 X68.147 Y165.071 E7.39942
G1 X67.457 Y165.061 E7.42237
G1 X66.556 Y165.008 E7.45239
G1 X65.662 Y164.875 E7.48245
G1 X64.784 Y164.664 E7.51249
G1 X63.928 Y164.376 E7.54253
G1 X63.101 Y164.014 E7.57255
G1 X62.309 Y163.58 E7.60259
G1 X61.559 Y163.077 E7.63263
G1 X60.856 Y162.51 E7.66267
G1 X60.206 Y161.883 E7.6927
G1 X59.614 Y161.201 E7.72274
G1 X59.085 Y160.469 E7.75278
G1 X58.622 Y159.694 E7.78281
G1 X58.23 Y158.88 E7.81285
G1 X57.911 Y158.035 E7.8429
G1 X57.668 Y157.165 E7.87294
G1 X57.504 Y156.277 E7.90297
G1 X57.412 Y155.248 E7.93734
G1 X57.355 Y153.711 E7.98849
G1 X57.329 Y152.635 E8.02429
G1 X57.197 Y150.063 E8.10995
G1 X56.996 Y147.543 E8.19403
G1 X56.725 Y145.034 E8.27796
G1 X56.375 Y142.476 E8.36384
G1 X55.967 Y140.022 E8.44658
G1 X55.477 Y137.505 E8.53186
G1 X54.918 Y135.02 E8.61658
G1 X54.302 Y132.597 E8.69973
G1 X53.59 Y130.098 E8.78616
G1 X52.839 Y127.717 E8.8692
G1 X51.936 Y125.117 E8.96074
G1 X49.214 Y117.64 E9.22539
G1 X49.013 Y117.061 E9.24578
G1 X48.755 Y116.196 E9.2758
G1 X48.574 Y115.311 E9.30585
G1 X48.473 Y114.413 E9.3359
G1 X48.451 Y113.511 E9.36591
G1 X48.509 Y112.609 E9.39597
G1 X48.647 Y111.717 E9.42599
G1 X48.863 Y110.84 E9.45604
G1 X49.156 Y109.986 E9.48606
G1 X49.586 Y109.036 E9.52075
G1 X49.665 Y108.883 E9.52648
G1 X50.114 Y108.1 E9.5565
G1 X50.631 Y107.36 E9.58652
G1 X51.212 Y106.668 E9.61657
G1 X51.851 Y106.03 E9.64661
G1 X52.544 Y105.451 E9.67664
G1 X53.286 Y104.936 E9.70668
G1 X54.071 Y104.488 E9.73674
G1 X55.137 Y104.016 E9.77552
G1 X56.112 Y103.65 E9.81016
G1 X59.839 Y102.295 E9.94206
G1 X60.509 Y102.064 E9.96563
G1 X61.375 Y101.808 E9.99566
G1 X62.261 Y101.629 E10.02573
G1 X63.158 Y101.529 E10.05575
G1 X64.061 Y101.51 E10.08579
G1 X64.77 Y101.55 E10.10941
G1 X65.424 Y101.612 E10.13126
G1 X66.964 Y101.778 E10.18277
G1 X69.548 Y101.981 E10.26898
G1 X72.087 Y102.11 E10.35354
G1 X74.584 Y102.165 E10.43661
G1 X77.147 Y102.15 E10.52186
G1 X79.686 Y102.062 E10.60635
G1 X82.215 Y101.903 E10.69064
G1 X84.744 Y101.673 E10.7751
G1 X87.288 Y101.368 E10.86032
G1 X89.788 Y100.997 E10.94438
G1 X92.254 Y100.558 E11.02769
G1 X94.771 Y100.037 E11.11318
G1 X97.223 Y99.458 E11.19697
G1 X99.717 Y98.793 E11.28282
G1 X102.133 Y98.075 E11.36665
G1 X104.536 Y97.286 E11.45077
G1 X106.947 Y96.418 E11.536
G1 X109.267 Y95.508 E11.61889
G1 X111.668 Y94.486 E11.70568
G1 X113.936 Y93.445 E11.78868
G1 X116.225 Y92.315 E11.87359
G1 X118.472 Y91.126 E11.95814
G1 X120.677 Y89.877 E12.04243
G1 X122.831 Y88.576 E12.12612
G1 X124.997 Y87.182 E12.21179
G1 X127.076 Y85.76 E12.29557
G1 X129.14 Y84.26 E12.38043
G1 X131.157 Y82.705 E12.46514
G1 X133.105 Y81.113 E12.54882
G1 X135.03 Y79.448 E12.63347
G1 X136.9 Y77.737 E12.71777
G1 X138.738 Y75.955 E12.80292
G1 X140.671 Y73.97 E12.89507
G1 X141.329 Y73.352 E12.9251
G1 X142.04 Y72.794 E12.95516
G1 X142.796 Y72.302 E12.98516
G1 X143.594 Y71.878 E13.01521
G1 X144.168 Y71.626 E13.03606
G1 X144.645 Y71.434 E13.05317
G1 X144.97 Y71.309 E13.06475
G1 X149.023 Y69.837 E13.20817
G1 X149.702 Y69.597 E13.23212
G1 X150.566 Y69.334 E13.26216
G1 X151.45 Y69.149 E13.2922
G1 X152.346 Y69.042 E13.32221
G1 X153.249 Y69.015 E13.35226
G1 X154.151 Y69.068 E13.38231
G1 X155.044 Y69.201 E13.41234
G0 F6000 X155.015 Y68.788
G1 F1200 X155.912 Y68.994 E13.44295
G1 X156.788 Y69.276 E13.47356
G1 X157.637 Y69.633 E13.50419
G1 X158.215 Y69.928 E13.52577
G1 X159.009 Y70.394 E13.55639
G1 X159.76 Y70.927 E13.58702
G1 X160.461 Y71.524 E13.61765
G1 X161.108 Y72.179 E13.64827
G1 X161.696 Y72.888 E13.67891
G1 X162.22 Y73.645 E13.70953
G1 X162.676 Y74.444 E13.74013
G1 X163.071 Y75.305 E13.77163
G1 X163.151 Y75.502 E13.7787
G1 X163.291 Y75.865 E13.79164
G1 X180.76 Y123.867 E15.49063
G1 X181.678 Y126.283 E15.5766
G1 X182.651 Y128.639 E15.66138
G1 X183.677 Y130.938 E15.74511
G1 X184.766 Y133.205 E15.82876
G1 X185.948 Y135.497 E15.91453
G1 X186.813 Y137.079 E15.9745
G1 X187.212 Y137.869 E16.00394
G1 X187.554 Y138.723 E16.03454
G1 X187.822 Y139.604 E16.06516
G1 X188.011 Y140.505 E16.09578
G1 X188.121 Y141.402 E16.12584
G1 X188.138 Y141.617 E16.13301
G1 X188.17 Y142.279 E16.15506
G1 X188.183 Y143.183 E16.18513
G1 X188.182 Y154.281 E16.55425
G1 X188.172 Y155.008 E16.57843
G1 X188.119 Y155.927 E16.60905
G1 X187.987 Y156.838 E16.63967
G1 X187.776 Y157.734 E16.67028
G1 X187.489 Y158.609 E16.70091
G1 X187.126 Y159.455 E16.73153
G1 X186.692 Y160.267 E16.76215
G1 X186.188 Y161.038 E16.79279
G1 X185.62 Y161.762 E16.82339
G1 X184.991 Y162.434 E16.85401
G1 X184.306 Y163.049 E16.88463
G1 X183.57 Y163.602 E16.91525
G1 X182.789 Y164.09 E16.94588
G1 X181.969 Y164.508 E16.97649
G1 X181.115 Y164.853 E17.00712
G1 X180.235 Y165.122 E17.03773
G1 X179.334 Y165.315 E17.06838
G1 X178.421 Y165.428 E17.09897
G1 X177.87 Y165.458 E17.11733
G1 X177.253 Y165.471 E17.13785
G1 X168.146 Y165.471 E17.44075
G1 X167.436 Y165.461 E17.46437
G1 X166.517 Y165.408 E17.49499
G1 X165.606 Y165.276 E17.5256
G1 X164.709 Y165.064 E17.55626
G1 X163.835 Y164.776 E17.58687
G1 X163.348 Y164.579 E17.60434
G1 X162.592 Y164.248 E17.63179
G1 X161.393 Y163.707 E17.67554
G1 X159.078 Y162.74 E17.75898
G1 X156.677 Y161.813 E17.84459
G1 X154.327 Y160.987 E17.92744
G1 X151.933 Y160.218 E18.01107
G1 X149.489 Y159.507 E18.09573
G1 X147.044 Y158.873 E18.17974
G1 X144.574 Y158.304 E18.26404
G1 X142.067 Y157.801 E18.34909
G1 X139.627 Y157.385 E18.43141
G1 X137.115 Y157.027 E18.5158
G1 X134.584 Y156.741 E18.60052
G1 X132.074 Y156.528 E18.6843
G1 X129.594 Y156.387 E18.76692
G1 X125.646 Y156.304 E18.89826
G1 X119.468 Y156.304 E19.10374
G1 X116.843 Y156.341 E19.19106
G1 X114.335 Y156.448 E19.27455
G1 X111.818 Y156.626 E19.35848
G1 X109.294 Y156.876 E19.44284
G1 X106.786 Y157.197 E19.52693
G1 X104.324 Y157.584 E19.60983
G1 X101.802 Y158.053 E19.69515
G1 X99.328 Y158.585 E19.77931
G1 X96.88 Y159.185 E19.86314
G1 X94.457 Y159.852 E19.94673
G1 X92.023 Y160.597 E20.03139
G1 X89.598 Y161.415 E20.11651
G1 X87.281 Y162.27 E20.19866
G1 X84.892 Y163.229 E20.28428
G1 X82.444 Y164.295 E20.37308
G1 X81.988 Y164.503 E20.38975
G1 X81.135 Y164.848 E20.42036
G1 X80.254 Y165.118 E20.451
G1 X79.354 Y165.31 E20.48161
G1 X77.997 Y165.45 E20.52699
G1 X77.658 Y165.463 E20.53827
G1 X77.253 Y165.471 E20.55174
G1 X68.141 Y165.471 E20.85481
G1 X67.451 Y165.461 E20.87776
G1 X66.532 Y165.408 E20.90838
G1 X65.621 Y165.275 E20.939
G1 X64.725 Y165.063 E20.96962
G1 X63.851 Y164.775 E21.00023
G1 X63.005 Y164.412 E21.03085
G1 X62.194 Y163.977 E21.06146
G1 X61.423 Y163.473 E21.09209
G1 X60.699 Y162.904 E21.12272
G1 X60.027 Y162.274 E21.15336
G1 X59.413 Y161.589 E21.18395
G1 X58.86 Y160.853 E21.21457
G1 X58.373 Y160.071 E21.24521
G1 X57.956 Y159.25 E21.27584
G1 X57.612 Y158.397 E21.30643
G1 X57.343 Y157.516 E21.33707
G1 X57.151 Y156.616 E21.36768
G1 X57.013 Y155.263 E21.41291
G1 X56.955 Y153.721 E21.46424
G1 X56.928 Y152.627 E21.50063
G1 X56.799 Y150.117 E21.58423
G1 X56.598 Y147.582 E21.66881
G1 X56.325 Y145.06 E21.75318
G1 X55.983 Y142.559 E21.83714
G1 X55.569 Y140.064 E21.92125
G1 X55.088 Y137.598 E22.00482
G1 X54.534 Y135.135 E22.08879
G1 X53.907 Y132.668 E22.17345
G1 X53.22 Y130.256 E22.25686
G1 X52.452 Y127.821 E22.34178
G1 X51.561 Y125.259 E22.432
G1 X48.836 Y117.771 E22.69703
G1 X48.635 Y117.192 E22.71742
G1 X48.371 Y116.31 E22.74804
G1 X48.185 Y115.409 E22.77864
G1 X48.078 Y114.494 E22.80928
G1 X48.05 Y113.574 E22.83989
G1 X48.102 Y112.655 E22.87051
G1 X48.234 Y111.744 E22.90112
G1 X48.445 Y110.847 E22.93177
G1 X48.732 Y109.973 E22.96237
G1 X49.23 Y108.853 E23.00314
G1 X49.309 Y108.7 E23.00886
G1 X49.767 Y107.901 E23.03949
G1 X50.292 Y107.145 E23.07011
G1 X50.881 Y106.437 E23.10074
G1 X51.529 Y105.783 E23.13136
G1 X52.231 Y105.187 E23.16199
G1 X52.982 Y104.655 E23.1926
G1 X53.777 Y104.19 E23.22323
G1 X54.996 Y103.642 E23.26768
G1 X55.975 Y103.274 E23.30247
G1 X59.709 Y101.917 E23.43461
G1 X60.379 Y101.686 E23.45818
G1 X61.262 Y101.424 E23.48882
G1 X62.164 Y101.239 E23.51944
G1 X63.078 Y101.134 E23.55004
G1 X63.998 Y101.108 E23.58065
G1 X64.807 Y101.152 E23.6076
G1 X65.467 Y101.214 E23.62965
G1 X67.04 Y101.383 E23.68227
G1 X69.561 Y101.582 E23.76638
G1 X72.082 Y101.709 E23.85033
G1 X74.59 Y101.765 E23.93377
G1 X77.131 Y101.75 E24.01829
G1 X79.683 Y101.661 E24.10322
G1 X82.187 Y101.504 E24.18666
G1 X84.696 Y101.276 E24.27046
G1 X87.218 Y100.974 E24.35494
G1 X89.73 Y100.6 E24.43941
G1 X92.209 Y100.16 E24.52315
G1 X94.67 Y99.651 E24.60674
G1 X97.134 Y99.068 E24.69095
G1 X99.573 Y98.418 E24.7749
G1 X102.031 Y97.687 E24.8602
G1 X104.412 Y96.906 E24.94354
G1 X106.783 Y96.052 E25.02736
G1 X109.144 Y95.126 E25.11171
G1 X111.48 Y94.132 E25.19615
G1 X113.771 Y93.08 E25.28
G1 X116.04 Y91.96 E25.36416
G1 X118.278 Y90.776 E25.44837
G1 X120.467 Y89.535 E25.53206
G1 X122.654 Y88.214 E25.61704
G1 X124.76 Y86.859 E25.70033
G1 X126.837 Y85.439 E25.78401
G1 X128.906 Y83.935 E25.86909
G1 X130.888 Y82.407 E25.95233
G1 X132.853 Y80.801 E26.03673
G1 X134.781 Y79.134 E26.12151
G1 X136.635 Y77.438 E26.20508
G1 X138.456 Y75.671 E26.28947
G1 X140.385 Y73.691 E26.38141
G1 X141.055 Y73.06 E26.41203
G1 X141.778 Y72.49 E26.44265
G1 X142.547 Y71.984 E26.47327
G1 X143.358 Y71.548 E26.50389
G1 X144.019 Y71.255 E26.52794
G1 X144.496 Y71.063 E26.54504
G1 X144.834 Y70.933 E26.55708
G1 X148.889 Y69.46 E26.70058
G1 X149.568 Y69.22 E26.72453
G1 X150.449 Y68.951 E26.75517
G1 X151.35 Y68.76 E26.7858
G1 X152.263 Y68.647 E26.8164
G1 X153.183 Y68.614 E26.84702
G1 X154.103 Y68.661 E26.87766
G1 X155.015 Y68.788 E26.90828
G0 F6000 X154.983 Y68.376
G1 F1200 X155.9 Y68.576 E26.9395
G1 X156.796 Y68.853 E26.97069
G1 X157.665 Y69.205 E27.00188
G1 X158.403 Y69.575 E27.02934
G1 X159.212 Y70.049 E27.06052
G1 X159.978 Y70.59 E27.09171
G1 X160.695 Y71.195 E27.12291
G1 X161.357 Y71.859 E27.1541
G1 X161.961 Y72.576 E27.18528
G1 X162.502 Y73.343 E27.2165
G1 X162.975 Y74.152 E27.24767
G1 X163.442 Y75.154 E27.28444
G1 X163.522 Y75.351 E27.29151
G1 X163.667 Y75.728 E27.30494
G1 X181.13 Y123.713 E29.00333
G1 X182.051 Y126.136 E29.08955
G1 X183.028 Y128.503 E29.17472
G1 X184.025 Y130.738 E29.25612
G1 X185.146 Y133.07 E29.34217
G1 X186.288 Y135.285 E29.42506
G1 X187.145 Y136.851 E29.48444
G1 X187.569 Y137.688 E29.51564
G1 X187.92 Y138.558 E29.54684
G1 X188.196 Y139.454 E29.57803
G1 X188.394 Y140.371 E29.60923
G1 X188.52 Y141.371 E29.64275
G1 X188.537 Y141.586 E29.64993
G1 X188.57 Y142.272 E29.67277
G1 X188.583 Y143.183 E29.70307
G1 X188.582 Y154.286 E30.07236
G1 X188.572 Y155.013 E30.09654
G1 X188.519 Y155.95 E30.12776
G1 X188.387 Y156.878 E30.15893
G1 X188.176 Y157.792 E30.19013
G1 X187.887 Y158.684 E30.22132
G1 X187.524 Y159.549 E30.25252
G1 X187.089 Y160.38 E30.28372
G1 X186.584 Y161.17 E30.3149
G1 X186.014 Y161.915 E30.3461
G1 X185.383 Y162.609 E30.3773
G1 X184.694 Y163.246 E30.40851
G1 X183.954 Y163.822 E30.4397
G1 X183.168 Y164.333 E30.47088
G1 X182.341 Y164.775 E30.50207
G1 X181.479 Y165.145 E30.53327
G1 X180.589 Y165.44 E30.56445
G1 X179.677 Y165.659 E30.59565
G1 X178.75 Y165.799 E30.62683
G1 X177.881 Y165.858 E30.6558
G1 X177.253 Y165.871 E30.67669
G1 X168.14 Y165.871 E30.97979
G1 X167.43 Y165.861 E31.00341
G1 X166.494 Y165.808 E31.03459
G1 X165.565 Y165.675 E31.0658
G1 X164.652 Y165.464 E31.09697
G1 X163.759 Y165.175 E31.12819
G1 X163.189 Y164.945 E31.14863
G1 X162.428 Y164.612 E31.17626
G1 X161.253 Y164.082 E31.21913
G1 X158.928 Y163.111 E31.30293
G1 X156.565 Y162.199 E31.38718
G1 X154.176 Y161.359 E31.47141
G1 X151.814 Y160.6 E31.55392
G1 X149.381 Y159.893 E31.63819
G1 X146.959 Y159.264 E31.72142
G1 X144.477 Y158.693 E31.80613
G1 X142.02 Y158.199 E31.88948
G1 X139.544 Y157.777 E31.97302
G1 X137.046 Y157.421 E32.05695
G1 X134.576 Y157.142 E32.13962
G1 X132.016 Y156.925 E32.22507
G1 X129.593 Y156.787 E32.30579
G1 X125.637 Y156.704 E32.4374
G1 X119.474 Y156.704 E32.64238
G1 X116.866 Y156.741 E32.72913
G1 X114.344 Y156.848 E32.81309
G1 X111.849 Y157.025 E32.89628
G1 X109.351 Y157.273 E32.97977
G1 X106.862 Y157.591 E33.06323
