;FLAVOR:Marlin
;TIME:6148
;Filament used: 3.37061m
;Layer height: 0.2
;MINX:47.655
;MINY:69.128
;MINZ:0.2
;MAXX:188.583
;MAXY:166.785
;MAXZ:12
;Generated with Cura_SteamEngine 4.6.2
M140 S50
M105
M190 S50
M104 S200
M105
M109 S200
M82 ;absolute extrusion mode
; Ender 3 Custom Start G-code
G92 E0 ; Reset Extruder
G28 ; Home all axes
G1 Z2.0 F3000 ; Move Z Axis up little to prevent scratching of Heat Bed
G1 X0.1 Y20 Z0.3 F5000.0 ; Move to start position
G1 X0.1 Y200.0 Z0.3 F1500.0 E15 ; Draw the first line
G1 X0.4 Y200.0 Z0.3 F5000.0 ; Move to side a little
G1 X0.4 Y20 Z0.3 F1500.0 E30 ; Draw the second line
G92 E0 ; Reset Extruder
G1 Z2.0 F3000 ; Move Z Axis up little to prevent scratching of Heat Bed
G1 X5 Y20 Z0.3 F5000.0 ; Move over to prevent blob squish
G92 E0
G92 E0
G1 F2700 E-5
;LAYER_COUNT:60
;LAYER:0
M107
G0 F6000 X177.72 Y69.94 Z0.2
;TYPE:SKIRT
G1 F2700 E0
G1 F1200 X178.622 Y69.993 E0.03005
G1 X179.515 Y70.126 E0.06008
G1 X180.393 Y70.337 E0.09012
G1 X181.249 Y70.625 E0.12015
G1 X182.077 Y70.987 E0.15021
G1 X182.868 Y71.421 E0.18022
G1 X183.619 Y71.924 E0.21028
G1 X184.322 Y72.491 E0.24032
G1 X184.972 Y73.118 E0.27036
G1 X185.564 Y73.8 E0.3004
G1 X186.093 Y74.531 E0.33041
G1 X186.556 Y75.307 E0.36046
G1 X186.948 Y76.12 E0.39048
G1 X187.267 Y76.965 E0.42052
G1 X187.509 Y77.835 E0.45056
G1 X187.674 Y78.723 E0.4806
G1 X187.768 Y79.821 E0.51725
G1 X187.783 Y80.46 E0.53851
G1 X187.782 Y92.183 E0.92842
G1 X187.772 Y92.881 E0.95164
G1 X187.719 Y93.783 E0.98169
G1 X187.587 Y94.676 E1.01171
G1 X187.376 Y95.554 E1.04175
G1 X187.088 Y96.41 E1.07179
G1 X186.563 Y97.554 E1.11365
G1 X185.898 Y98.792 E1.16039
G1 X185.668 Y99.206 E1.17614
G1 X184.498 Y101.458 E1.26055
G1 X183.377 Y103.776 E1.34619
G1 X182.347 Y106.065 E1.42968
G1 X181.361 Y108.432 E1.51496
G1 X180.36 Y111.066 E1.60868
G1 X163.016 Y158.723 E3.29547
G1 X162.783 Y159.334 E3.31722
G1 X162.424 Y160.163 E3.34726
G1 X161.993 Y160.957 E3.37731
G1 X161.494 Y161.709 E3.40733
G1 X160.93 Y162.415 E3.43738
G1 X160.026 Y163.326 E3.48007
G1 X159.328 Y163.899 E3.51011
G1 X158.581 Y164.408 E3.54017
G1 X157.793 Y164.849 E3.5702
G1 X157.259 Y165.099 E3.58982
G1 X156.419 Y165.43 E3.61984
G1 X155.553 Y165.686 E3.64988
G1 X154.667 Y165.864 E3.67994
G1 X153.77 Y165.963 E3.70995
G1 X152.867 Y165.982 E3.73999
G1 X151.966 Y165.922 E3.77003
G1 X151.074 Y165.781 E3.80006
G1 X149.807 Y165.439 E3.84371
G1 X149.1 Y165.195 E3.86859
G1 X146.226 Y164.148 E3.97032
G1 X145.788 Y163.996 E3.98574
G1 X145.464 Y163.877 E3.99722
G1 X145.133 Y163.749 E4.00903
G1 X144.382 Y163.466 E4.03572
G1 X143.552 Y163.109 E4.06577
G1 X142.757 Y162.681 E4.0958
G1 X142.003 Y162.183 E4.12586
G1 X141.296 Y161.621 E4.1559
G1 X140.872 Y161.231 E4.17506
G1 X140.463 Y160.826 E4.1942
G1 X138.976 Y159.288 E4.26535
G1 X137.152 Y157.506 E4.35017
G1 X135.301 Y155.798 E4.43394
G1 X133.387 Y154.13 E4.51838
G1 X131.414 Y152.506 E4.60337
G1 X129.417 Y150.954 E4.68749
G1 X127.356 Y149.445 E4.77245
G1 X125.271 Y148.007 E4.85669
G1 X123.131 Y146.617 E4.94157
G1 X120.974 Y145.304 E5.02555
G1 X118.793 Y144.058 E5.1091
G1 X116.508 Y142.836 E5.19528
G1 X114.253 Y141.712 E5.27908
G1 X111.971 Y140.654 E5.36274
G1 X109.597 Y139.634 E5.44868
G1 X107.281 Y138.715 E5.53156
G1 X104.847 Y137.828 E5.61772
G1 X102.463 Y137.036 E5.70127
G1 X100.047 Y136.307 E5.78521
G1 X97.572 Y135.637 E5.87049
G1 X95.094 Y135.039 E5.95528
G1 X92.604 Y134.516 E6.0399
G1 X90.14 Y134.069 E6.12319
G1 X87.603 Y133.682 E6.20855
G1 X85.089 Y133.371 E6.2928
G1 X82.549 Y133.129 E6.37766
G1 X80.06 Y132.964 E6.46063
G1 X77.493 Y132.866 E6.54607
G1 X74.925 Y132.84 E6.63149
G1 X72.426 Y132.886 E6.71462
G1 X69.915 Y133.003 E6.79823
G1 X65.971 Y133.327 E6.92985
G1 X64.918 Y133.436 E6.96506
G1 X64.016 Y133.489 E6.99511
G1 X63.113 Y133.462 E7.02516
G1 X62.216 Y133.355 E7.0552
G1 X61.05 Y133.092 E7.09496
G1 X60.692 Y132.989 E7.10735
G1 X60.024 Y132.772 E7.13071
G1 X55.572 Y131.15 E7.2883
G1 X55.04 Y130.944 E7.30728
G1 X54.213 Y130.581 E7.33732
G1 X53.421 Y130.146 E7.36737
G1 X52.671 Y129.643 E7.39741
G1 X51.969 Y129.075 E7.42744
G1 X51.319 Y128.448 E7.45748
G1 X50.728 Y127.766 E7.48749
G1 X50.199 Y127.034 E7.51753
G1 X49.563 Y125.92 E7.5602
G1 X49.49 Y125.771 E7.56572
G1 X49.129 Y124.943 E7.59576
G1 X48.843 Y124.086 E7.62581
G1 X48.633 Y123.208 E7.65583
G1 X48.502 Y122.314 E7.68589
G1 X48.451 Y121.413 E7.7159
G1 X48.479 Y120.51 E7.74595
G1 X48.588 Y119.613 E7.776
G1 X48.775 Y118.73 E7.80602
G1 X49.003 Y117.969 E7.83245
G1 X49.245 Y117.272 E7.85699
G1 X51.941 Y109.867 E8.11909
G1 X52.817 Y107.353 E8.20764
G1 X53.583 Y104.934 E8.29203
G1 X54.27 Y102.531 E8.37516
G1 X54.914 Y100.012 E8.46164
G1 X55.473 Y97.541 E8.5459
G1 X55.955 Y95.074 E8.6295
G1 X56.37 Y92.581 E8.71356
G1 X56.719 Y90.054 E8.79841
G1 X56.996 Y87.514 E8.88339
G1 X57.2 Y84.994 E8.96748
G1 X57.332 Y82.46 E9.05188
G1 X57.397 Y79.894 E9.13725
G1 X57.46 Y78.993 E9.16729
G1 X57.602 Y78.101 E9.19733
G1 X57.823 Y77.225 E9.22738
G1 X58.12 Y76.372 E9.25742
G1 X58.491 Y75.549 E9.28745
G1 X58.934 Y74.762 E9.31748
G1 X59.445 Y74.017 E9.34753
G1 X60.019 Y73.32 E9.37756
G1 X60.653 Y72.677 E9.4076
G1 X61.341 Y72.092 E9.43763
G1 X62.079 Y71.571 E9.46768
G1 X62.859 Y71.117 E9.4977
G1 X63.677 Y70.733 E9.52775
G1 X64.525 Y70.424 E9.55777
G1 X65.398 Y70.19 E9.58783
G1 X66.287 Y70.035 E9.61785
G1 X67.364 Y69.954 E9.65377
G1 X68.616 Y69.928 E9.69542
G1 X77.03 Y69.93 E9.97527
G1 X77.715 Y69.94 E9.99806
G1 X78.616 Y69.993 E10.02808
G1 X79.51 Y70.126 E10.05814
G1 X80.388 Y70.337 E10.08817
G1 X81.557 Y70.752 E10.12943
G1 X82.419 Y71.121 E10.16062
G1 X83.632 Y71.668 E10.20487
G1 X85.965 Y72.642 E10.28896
G1 X88.376 Y73.572 E10.37491
G1 X90.705 Y74.39 E10.45701
G1 X93.153 Y75.175 E10.54252
G1 X95.588 Y75.882 E10.62685
G1 X98.057 Y76.523 E10.71169
G1 X100.519 Y77.089 E10.79571
G1 X103.048 Y77.596 E10.8815
G1 X105.509 Y78.015 E10.96453
G1 X108.043 Y78.374 E11.04966
G1 X110.539 Y78.657 E11.1332
G1 X113.088 Y78.872 E11.21829
G1 X115.585 Y79.013 E11.30147
G1 X119.507 Y79.095 E11.43194
G1 X125.706 Y79.095 E11.63812
G1 X128.312 Y79.058 E11.72481
G1 X130.88 Y78.949 E11.8103
G1 X133.382 Y78.772 E11.89372
G1 X135.894 Y78.523 E11.97768
G1 X138.457 Y78.195 E12.06362
G1 X140.942 Y77.804 E12.14729
G1 X143.425 Y77.343 E12.23129
G1 X145.906 Y76.809 E12.31569
G1 X148.384 Y76.202 E12.40055
G1 X150.871 Y75.517 E12.48635
G1 X153.243 Y74.791 E12.56885
G1 X155.688 Y73.966 E12.65468
G1 X158.068 Y73.088 E12.73905
G1 X160.402 Y72.151 E12.8227
G1 X162.89 Y71.068 E12.91296
G1 X163.344 Y70.862 E12.92954
G1 X164.182 Y70.526 E12.95957
G1 X165.047 Y70.265 E12.98962
G1 X165.931 Y70.082 E13.01964
G1 X166.828 Y69.977 E13.04968
G1 X167.336 Y69.953 E13.0666
G1 X168.616 Y69.928 E13.10918
G1 X176.882 Y69.929 E13.3841
G1 X177.72 Y69.94 E13.41198
G0 F6000 X177.726 Y69.54
G1 F1200 X178.645 Y69.593 E13.4426
G1 X179.556 Y69.726 E13.47322
G1 X180.452 Y69.938 E13.50384
G1 X181.327 Y70.226 E13.53448
G1 X182.173 Y70.589 E13.5651
G1 X182.984 Y71.024 E13.59571
G1 X183.755 Y71.528 E13.62634
G1 X184.478 Y72.097 E13.65695
G1 X185.15 Y72.726 E13.68756
G1 X185.765 Y73.412 E13.7182
G1 X186.318 Y74.148 E13.74882
G1 X186.805 Y74.929 E13.77943
G1 X187.222 Y75.75 E13.81006
G1 X187.566 Y76.604 E13.84068
G1 X187.835 Y77.484 E13.87129
G1 X188.027 Y78.385 E13.90193
G1 X188.14 Y79.299 E13.93256
G1 X188.168 Y79.809 E13.94955
G1 X188.178 Y80.13 E13.96023
G1 X188.183 Y80.46 E13.97121
G1 X188.182 Y92.189 E14.36132
G1 X188.172 Y92.887 E14.38453
G1 X188.119 Y93.806 E14.41515
G1 X187.986 Y94.717 E14.44577
G1 X187.775 Y95.613 E14.47639
G1 X187.487 Y96.487 E14.50699
G1 X186.916 Y97.743 E14.55288
G1 X186.247 Y98.987 E14.59986
G1 X186.021 Y99.393 E14.61532
G1 X184.856 Y101.638 E14.69944
G1 X183.744 Y103.936 E14.78435
G1 X182.71 Y106.234 E14.86816
G1 X181.74 Y108.563 E14.95208
G1 X180.729 Y111.22 E15.04663
G1 X163.389 Y158.866 E16.73303
G1 X163.156 Y159.477 E16.75478
G1 X162.791 Y160.322 E16.78539
G1 X162.354 Y161.132 E16.816
G1 X161.848 Y161.902 E16.84665
G1 X161.278 Y162.624 E16.87724
G1 X160.293 Y163.624 E16.92393
G1 X159.582 Y164.209 E16.95455
G1 X158.822 Y164.729 E16.98518
G1 X158.021 Y165.182 E17.01579
G1 X157.422 Y165.464 E17.03781
G1 X156.566 Y165.803 E17.06843
G1 X155.684 Y166.066 E17.09904
G1 X154.782 Y166.251 E17.12967
G1 X153.867 Y166.357 E17.1603
G1 X152.947 Y166.384 E17.19092
G1 X152.028 Y166.331 E17.22153
G1 X151.117 Y166.198 E17.25215
G1 X150.221 Y165.986 E17.28278
G1 X149.678 Y165.817 E17.30169
G1 X148.963 Y165.571 E17.32684
G1 X146.084 Y164.522 E17.42876
G1 X145.657 Y164.374 E17.44379
G1 X145.32 Y164.251 E17.45572
G1 X144.241 Y163.84 E17.49412
G1 X143.394 Y163.477 E17.52477
G1 X142.583 Y163.042 E17.55538
G1 X141.812 Y162.539 E17.586
G1 X141.088 Y161.97 E17.61663
G1 X140.593 Y161.517 E17.63894
G1 X140.175 Y161.104 E17.65849
G1 X138.691 Y159.569 E17.7295
G1 X136.883 Y157.804 E17.81354
G1 X135.013 Y156.077 E17.8982
G1 X133.136 Y154.442 E17.98099
G1 X131.16 Y152.815 E18.06613
G1 X129.159 Y151.26 E18.15041
G1 X127.139 Y149.781 E18.23368
G1 X125.048 Y148.338 E18.31818
G1 X122.951 Y146.976 E18.40135
G1 X120.773 Y145.65 E18.48616
G1 X118.57 Y144.392 E18.57054
G1 X116.334 Y143.197 E18.65486
G1 X114.084 Y142.075 E18.73848
G1 X111.781 Y141.007 E18.82292
G1 X109.471 Y140.015 E18.90653
G1 X107.122 Y139.083 E18.99059
G1 X104.732 Y138.212 E19.07519
G1 X102.337 Y137.416 E19.15913
G1 X99.932 Y136.69 E19.24269
G1 X97.479 Y136.026 E19.32721
G1 X94.983 Y135.424 E19.41261
G1 X92.563 Y134.915 E19.49486
G1 X90.045 Y134.458 E19.57998
G1 X87.56 Y134.08 E19.66358
G1 X85.038 Y133.768 E19.7481
G1 X82.553 Y133.531 E19.83113
G1 X79.984 Y133.36 E19.91676
G1 X77.474 Y133.264 E20.00031
G1 X74.964 Y133.24 E20.08379
G1 X72.418 Y133.286 E20.16849
G1 X69.936 Y133.402 E20.25113
G1 X66.047 Y133.722 E20.38092
G1 X64.959 Y133.834 E20.41729
G1 X64.04 Y133.889 E20.44792
G1 X63.119 Y133.863 E20.47856
G1 X62.205 Y133.758 E20.50916
G1 X60.939 Y133.477 E20.55229
G1 X60.581 Y133.374 E20.56468
G1 X59.887 Y133.148 E20.58896
G1 X55.427 Y131.523 E20.74684
G1 X54.895 Y131.317 E20.76581
G1 X54.052 Y130.947 E20.79643
G1 X53.244 Y130.506 E20.82705
G1 X52.477 Y129.997 E20.85767
G1 X51.758 Y129.422 E20.88829
G1 X51.091 Y128.788 E20.91889
G1 X50.481 Y128.098 E20.94953
G1 X49.934 Y127.357 E20.98016
G1 X49.453 Y126.572 E21.01078
G1 X49.131 Y125.947 E21.03416
G1 X48.762 Y125.103 E21.0648
G1 X48.468 Y124.231 E21.09541
G1 X48.251 Y123.336 E21.12604
G1 X48.112 Y122.426 E21.15666
G1 X48.052 Y121.507 E21.18729
G1 X48.073 Y120.587 E21.21789
G1 X48.173 Y119.672 E21.24851
G1 X48.353 Y118.769 E21.27913
G1 X48.625 Y117.839 E21.31136
G1 X48.869 Y117.135 E21.33614
G1 X51.56 Y109.746 E21.59769
G1 X52.444 Y107.206 E21.68714
G1 X53.193 Y104.841 E21.76965
G1 X53.893 Y102.395 E21.85427
G1 X54.522 Y99.93 E21.93889
G1 X55.077 Y97.48 E22.02244
G1 X55.561 Y95.003 E22.10638
G1 X55.979 Y92.492 E22.19105
G1 X56.324 Y89.993 E22.27495
G1 X56.595 Y87.51 E22.35803
G1 X56.803 Y84.931 E22.44409
G1 X56.932 Y82.466 E22.52618
G1 X56.997 Y79.883 E22.61212
G1 X57.061 Y78.965 E22.64273
G1 X57.203 Y78.055 E22.67336
G1 X57.424 Y77.162 E22.70396
G1 X57.722 Y76.291 E22.73458
G1 X58.094 Y75.448 E22.76522
G1 X58.538 Y74.642 E22.79583
G1 X59.05 Y73.877 E22.82645
G1 X59.627 Y73.159 E22.85708
G1 X60.264 Y72.494 E22.88771
G1 X60.956 Y71.887 E22.91833
G1 X61.698 Y71.342 E22.94895
G1 X62.484 Y70.864 E22.97955
G1 X63.31 Y70.455 E23.0102
G1 X64.167 Y70.12 E23.04081
G1 X65.05 Y69.861 E23.07141
G1 X65.953 Y69.679 E23.10205
G1 X66.868 Y69.576 E23.13268
G1 X67.355 Y69.554 E23.14889
G1 X68.616 Y69.528 E23.19084
G1 X77.036 Y69.53 E23.47089
G1 X77.721 Y69.54 E23.49368
G1 X78.64 Y69.594 E23.52429
G1 X79.551 Y69.726 E23.55491
G1 X80.447 Y69.938 E23.58553
G1 X81.713 Y70.384 E23.63018
G1 X82.584 Y70.757 E23.66169
G1 X83.784 Y71.298 E23.70547
G1 X86.114 Y72.271 E23.78946
G1 X88.487 Y73.186 E23.87405
G1 X90.855 Y74.018 E23.95753
G1 X93.272 Y74.793 E24.04195
G1 X95.704 Y75.499 E24.12618
G1 X98.134 Y76.13 E24.20968
G1 X100.616 Y76.7 E24.29438
G1 X103.128 Y77.204 E24.37959
G1 X105.561 Y77.619 E24.46168
G1 X108.073 Y77.975 E24.54607
G1 X110.616 Y78.263 E24.63119
G1 X113.109 Y78.473 E24.7144
G1 X115.589 Y78.613 E24.79702
G1 X119.515 Y78.695 E24.92762
G1 X125.7 Y78.695 E25.13334
G1 X128.325 Y78.658 E25.22065
G1 X130.833 Y78.551 E25.30415
G1 X133.35 Y78.373 E25.38807
G1 X135.874 Y78.123 E25.47243
G1 X138.382 Y77.802 E25.55653
G1 X140.844 Y77.415 E25.63942
G1 X143.366 Y76.946 E25.72474
G1 X145.84 Y76.414 E25.80891
G1 X148.288 Y75.814 E25.89274
G1 X150.711 Y75.147 E25.97632
G1 X153.145 Y74.402 E26.06099
G1 X155.57 Y73.584 E26.14611
G1 X157.896 Y72.726 E26.22857
G1 X160.289 Y71.765 E26.31434
G1 X162.715 Y70.708 E26.40235
G1 X163.179 Y70.498 E26.41929
G1 X164.033 Y70.154 E26.44991
G1 X164.914 Y69.886 E26.48054
G1 X165.814 Y69.695 E26.51114
G1 X166.728 Y69.584 E26.54176
G1 X167.327 Y69.554 E26.56171
G1 X168.616 Y69.528 E26.60459
G1 X176.882 Y69.529 E26.87952
G1 X177.726 Y69.54 E26.9076
G0 F6000 X177.732 Y69.14
G1 F1200 X178.668 Y69.194 E26.93878
G1 X179.597 Y69.327 E26.96999
G1 X180.51 Y69.538 E27.00116
G1 X181.403 Y69.827 E27.03238
G1 X182.267 Y70.191 E27.06356
G1 X183.097 Y70.627 E27.09474
G1 X183.888 Y71.132 E27.12596
G1 X184.632 Y71.703 E27.15715
G1 X185.325 Y72.335 E27.18835
G1 X185.962 Y73.023 E27.21953
G1 X186.537 Y73.764 E27.25073
G1 X187.048 Y74.551 E27.28194
G1 X187.489 Y75.378 E27.31311
G1 X187.859 Y76.24 E27.34431
G1 X188.154 Y77.13 E27.37549
G1 X188.371 Y78.043 E27.40671
G1 X188.511 Y78.97 E27.43789
G1 X188.568 Y79.796 E27.46543
G1 X188.578 Y80.117 E27.47611
G1 X188.583 Y80.46 E27.48752
G1 X188.582 Y92.195 E27.87782
G1 X188.572 Y92.893 E27.90104
G1 X188.518 Y93.829 E27.93223
G1 X188.386 Y94.757 E27.9634
G1 X188.174 Y95.671 E27.99461
G1 X187.885 Y96.563 E28.02579
G1 X187.522 Y97.428 E28.057
G1 X187.268 Y97.932 E28.07577
G1 X186.597 Y99.182 E28.12295
G1 X186.36 Y99.607 E28.13914
G1 X185.213 Y101.817 E28.22195
G1 X184.111 Y104.095 E28.30612
G1 X183.086 Y106.373 E28.3892
G1 X182.103 Y108.733 E28.47423
G1 X181.107 Y111.351 E28.5674
G1 X163.763 Y159.008 E30.25418
G1 X163.53 Y159.619 E30.27593
G1 X163.159 Y160.481 E30.30715
G1 X162.716 Y161.307 E30.33832
G1 X162.204 Y162.093 E30.36952
G1 X161.626 Y162.832 E30.40072
G1 X160.988 Y163.52 E30.43193
G1 X160.56 Y163.922 E30.45146
G1 X159.836 Y164.518 E30.48265
G1 X159.064 Y165.05 E30.51383
G1 X158.249 Y165.515 E30.54504
G1 X157.585 Y165.83 E30.56949
G1 X156.713 Y166.175 E30.60068
G1 X155.815 Y166.445 E30.63187
G1 X154.897 Y166.637 E30.66306
G1 X153.966 Y166.751 E30.69426
G1 X153.029 Y166.785 E30.72544
G1 X152.092 Y166.739 E30.75664
G1 X151.163 Y166.613 E30.78782
G1 X150.247 Y166.408 E30.81904
G1 X149.549 Y166.196 E30.84331
G1 X148.826 Y165.947 E30.86874
G1 X145.942 Y164.897 E30.97082
G1 X145.526 Y164.752 E30.98548
G1 X145.176 Y164.624 E30.99787
G1 X144.819 Y164.486 E31.0106
G1 X144.099 Y164.214 E31.0362
G1 X143.237 Y163.845 E31.06739
G1 X142.409 Y163.404 E31.09859
G1 X141.622 Y162.894 E31.12978
G1 X140.881 Y162.319 E31.16098
G1 X140.313 Y161.804 E31.18648
G1 X140.118 Y161.614 E31.19553
G1 X139.888 Y161.382 E31.2064
G1 X138.407 Y159.851 E31.27724
G1 X136.616 Y158.101 E31.36053
G1 X134.762 Y156.39 E31.44444
G1 X132.865 Y154.736 E31.52815
G1 X130.923 Y153.138 E31.6118
G1 X128.922 Y151.583 E31.69608
G1 X126.88 Y150.088 E31.78026
G1 X124.849 Y148.687 E31.86232
G1 X122.731 Y147.311 E31.94633
G1 X120.546 Y145.981 E32.03141
G1 X118.377 Y144.742 E32.11449
G1 X116.159 Y143.557 E32.19813
G1 X113.917 Y142.439 E32.28145
G1 X111.633 Y141.38 E32.36519
G1 X109.302 Y140.378 E32.44958
G1 X106.955 Y139.447 E32.53355
G1 X104.637 Y138.602 E32.61561
