;FLAVOR:Marlin
;TIME:880
;Filament used: 0.592893m
;Layer height: 0.2
;MINX:54
;MINY:101.5
;MINZ:0.2
;MAXX:181
;MAXY:133.5
;MAXZ:5
;Generated with Cura_SteamEngine 4.6.2
M140 S50
M105
M190 S50
M104 S200
M105
M109 S200
M82 ;absolute extrusion mode
; Ender 3 Custom Start G-code
G92 E0 ; Reset Extruder
G28 ; Home all axes
G1 Z2.0 F3000 ; Move Z Axis up little to prevent scratching of Heat Bed
G1 X0.1 Y20 Z0.3 F5000.0 ; Move to start position
G1 X0.1 Y200.0 Z0.3 F1500.0 E15 ; Draw the first line
G1 X0.4 Y200.0 Z0.3 F5000.0 ; Move to side a little
G1 X0.4 Y20 Z0.3 F1500.0 E30 ; Draw the second line
G92 E0 ; Reset Extruder
G1 Z2.0 F3000 ; Move Z Axis up little to prevent scratching of Heat Bed
G1 X5 Y20 Z0.3 F5000.0 ; Move over to prevent blob squish
G92 E0
G92 E0
G1 F2700 E-5
;LAYER_COUNT:25
;LAYER:0
M107
G0 F6000 X103.572 Y124.846 Z0.2
;TYPE:SKIRT
G1 F2700 E0
G1 F1200 X101.065 Y125.024 E0.08359
G1 X98.524 Y125.275 E0.16852
G1 X96.016 Y125.596 E0.25262
G1 X93.511 Y125.99 E0.33696
G1 X91.024 Y126.452 E0.42109
G1 X88.503 Y126.995 E0.50686
G1 X86.078 Y127.59 E0.58991
G1 X83.612 Y128.267 E0.67496
G1 X81.185 Y129.01 E0.75938
G1 X78.783 Y129.821 E0.84371
G1 X76.373 Y130.71 E0.92914
G1 X73.943 Y131.687 E1.01625
G1 X73.464 Y131.888 E1.03353
G1 X72.617 Y132.2 E1.06355
G1 X71.745 Y132.435 E1.09359
G1 X70.856 Y132.593 E1.12362
G1 X70.073 Y132.666 E1.14978
G1 X69.723 Y132.685 E1.16143
G1 X69.17 Y132.7 E1.17983
G1 X65.575 Y132.699 E1.2994
G1 X64.877 Y132.69 E1.32262
G1 X63.976 Y132.639 E1.35264
G1 X63.082 Y132.507 E1.38269
G1 X62.204 Y132.298 E1.41271
G1 X61.347 Y132.011 E1.44277
G1 X60.52 Y131.65 E1.47278
G1 X59.727 Y131.217 E1.50284
G1 X58.976 Y130.716 E1.53286
G1 X58.272 Y130.15 E1.56291
G1 X57.621 Y129.524 E1.59295
G1 X57.028 Y128.843 E1.62298
G1 X56.498 Y128.112 E1.65301
G1 X56.034 Y127.337 E1.68305
G1 X55.64 Y126.524 E1.7131
G1 X55.32 Y125.68 E1.74312
G1 X55.076 Y124.81 E1.77318
G1 X54.91 Y123.922 E1.80322
G1 X54.813 Y122.767 E1.84177
G1 X54.8 Y122.158 E1.86203
G1 X54.801 Y113.036 E2.16543
G1 X54.81 Y112.371 E2.18755
G1 X54.862 Y111.469 E2.2176
G1 X54.994 Y110.576 E2.24763
G1 X55.204 Y109.698 E2.27765
G1 X55.491 Y108.841 E2.30771
G1 X55.853 Y108.014 E2.33774
G1 X56.286 Y107.222 E2.36776
G1 X56.788 Y106.471 E2.39781
G1 X57.355 Y105.767 E2.42787
G1 X57.981 Y105.117 E2.45789
G1 X58.662 Y104.524 E2.48792
G1 X59.394 Y103.994 E2.51798
G1 X60.169 Y103.531 E2.548
G1 X60.982 Y103.138 E2.57804
G1 X61.827 Y102.818 E2.60809
G1 X62.696 Y102.575 E2.6381
G1 X63.584 Y102.409 E2.66815
G1 X64.723 Y102.313 E2.70617
G1 X65.33 Y102.3 E2.72636
G1 X169.293 Y102.3 E6.18418
G1 X169.439 Y102.301 E6.18904
G1 X170.137 Y102.311 E6.21226
G1 X171.039 Y102.364 E6.24231
G1 X171.932 Y102.496 E6.27233
G1 X172.81 Y102.707 E6.30237
G1 X173.666 Y102.995 E6.33241
G1 X174.493 Y103.357 E6.36243
G1 X175.285 Y103.792 E6.39249
G1 X176.036 Y104.294 E6.42253
G1 X176.739 Y104.861 E6.45257
G1 X177.389 Y105.488 E6.48261
G1 X177.981 Y106.17 E6.51265
G1 X178.511 Y106.901 E6.54268
G1 X178.973 Y107.677 E6.57271
G1 X179.366 Y108.49 E6.60275
G1 X179.684 Y109.335 E6.63278
G1 X179.927 Y110.205 E6.66282
G1 X180.092 Y111.093 E6.69286
G1 X180.187 Y112.223 E6.73058
G1 X180.2 Y112.83 E6.75077
G1 X180.199 Y121.89 E7.05211
G1 X180.19 Y122.617 E7.07629
G1 X180.139 Y123.519 E7.10634
G1 X180.008 Y124.413 E7.13639
G1 X179.799 Y125.291 E7.16641
G1 X179.513 Y126.148 E7.19646
G1 X179.152 Y126.976 E7.2265
G1 X178.72 Y127.768 E7.25651
G1 X178.219 Y128.52 E7.28656
G1 X177.653 Y129.224 E7.31661
G1 X177.028 Y129.875 E7.34662
G1 X176.347 Y130.469 E7.37668
G1 X175.616 Y131 E7.40673
G1 X174.842 Y131.464 E7.43674
G1 X174.029 Y131.858 E7.46679
G1 X173.185 Y132.178 E7.49681
G1 X172.315 Y132.423 E7.52688
G1 X171.428 Y132.589 E7.55689
G1 X170.277 Y132.687 E7.59531
G1 X169.67 Y132.7 E7.6155
G1 X166.061 Y132.699 E7.73554
G1 X165.361 Y132.689 E7.75882
G1 X164.46 Y132.636 E7.78884
G1 X163.566 Y132.504 E7.8189
G1 X162.688 Y132.293 E7.84893
G1 X161.73 Y131.965 E7.88261
G1 X160.845 Y131.61 E7.91433
G1 X159.82 Y131.181 E7.95129
G1 X157.474 Y130.276 E8.03492
G1 X155.046 Y129.418 E8.12057
G1 X152.631 Y128.64 E8.20496
G1 X150.211 Y127.936 E8.28878
G1 X147.741 Y127.292 E8.37368
G1 X145.239 Y126.714 E8.45909
G1 X142.775 Y126.221 E8.54267
G1 X140.263 Y125.789 E8.62744
G1 X137.751 Y125.431 E8.71184
G1 X135.24 Y125.144 E8.7959
G1 X132.713 Y124.928 E8.88025
G1 X130.163 Y124.784 E8.9652
G1 X127.597 Y124.71 E9.05058
G1 X126.249 Y124.7 E9.09542
G1 X108.743 Y124.7 E9.67767
G1 X106.138 Y124.737 E9.76432
G1 X103.572 Y124.846 E9.84974
G0 F6000 X103.616 Y125.244
G1 F1200 X101.096 Y125.422 E9.93377
G1 X98.581 Y125.671 E10.01783
G1 X96.092 Y125.99 E10.10129
G1 X93.54 Y126.391 E10.18721
G1 X91.109 Y126.843 E10.26945
G1 X88.61 Y127.381 E10.35447
G1 X86.174 Y127.978 E10.43789
G1 X83.712 Y128.655 E10.52282
G1 X81.315 Y129.389 E10.60619
G1 X78.901 Y130.203 E10.69093
G1 X76.536 Y131.075 E10.77476
G1 X74.04 Y132.079 E10.86425
G1 X73.619 Y132.256 E10.87943
G1 X72.755 Y132.575 E10.91007
G1 X71.867 Y132.818 E10.94069
G1 X70.961 Y132.983 E10.97132
G1 X70.095 Y133.065 E11.00025
G1 X69.745 Y133.084 E11.01191
G1 X69.17 Y133.1 E11.03104
G1 X65.57 Y133.099 E11.15078
G1 X64.872 Y133.09 E11.17399
G1 X63.953 Y133.038 E11.20461
G1 X63.042 Y132.907 E11.23522
G1 X62.146 Y132.697 E11.26583
G1 X61.271 Y132.41 E11.29646
G1 X60.424 Y132.048 E11.32709
G1 X59.612 Y131.614 E11.35772
G1 X58.841 Y131.112 E11.38832
G1 X58.116 Y130.544 E11.41895
G1 X57.443 Y129.915 E11.44959
G1 X56.828 Y129.231 E11.48018
G1 X56.274 Y128.496 E11.51079
G1 X55.786 Y127.715 E11.54142
G1 X55.367 Y126.895 E11.57205
G1 X55.021 Y126.042 E11.60267
G1 X54.751 Y125.162 E11.63328
G1 X54.558 Y124.261 E11.66393
G1 X54.444 Y123.348 E11.69453
G1 X54.413 Y122.777 E11.71355
G1 X54.4 Y122.158 E11.73415
G1 X54.401 Y113.031 E12.03771
G1 X54.41 Y112.366 E12.05983
G1 X54.462 Y111.446 E12.09048
G1 X54.594 Y110.535 E12.1211
G1 X54.805 Y109.639 E12.15171
G1 X55.092 Y108.764 E12.18234
G1 X55.455 Y107.918 E12.21296
G1 X55.889 Y107.106 E12.24358
G1 X56.392 Y106.335 E12.2742
G1 X56.961 Y105.611 E12.30483
G1 X57.589 Y104.939 E12.33542
G1 X58.274 Y104.323 E12.36606
G1 X59.01 Y103.77 E12.39668
G1 X59.791 Y103.282 E12.42731
G1 X60.611 Y102.864 E12.45792
G1 X61.465 Y102.519 E12.48855
G1 X62.345 Y102.249 E12.51917
G1 X63.245 Y102.057 E12.54978
G1 X64.159 Y101.943 E12.58041
G1 X64.712 Y101.913 E12.59883
G1 X65.33 Y101.9 E12.61939
G1 X169.293 Y101.9 E16.07722
G1 X169.445 Y101.901 E16.08227
G1 X170.143 Y101.911 E16.10549
G1 X171.062 Y101.964 E16.13611
G1 X171.973 Y102.097 E16.16673
G1 X172.869 Y102.308 E16.19734
G1 X173.743 Y102.596 E16.22795
G1 X174.59 Y102.959 E16.2586
G1 X175.401 Y103.394 E16.28921
G1 X176.171 Y103.898 E16.31982
G1 X176.895 Y104.467 E16.35045
G1 X177.567 Y105.097 E16.38108
G1 X178.182 Y105.782 E16.4117
G1 X178.735 Y106.518 E16.44232
G1 X179.222 Y107.299 E16.47293
G1 X179.639 Y108.12 E16.50356
G1 X179.984 Y108.974 E16.53419
G1 X180.253 Y109.854 E16.5648
G1 X180.445 Y110.755 E16.59544
G1 X180.558 Y111.668 E16.62604
G1 X180.587 Y112.212 E16.64416
G1 X180.6 Y112.83 E16.66472
G1 X180.599 Y121.895 E16.96622
G1 X180.59 Y122.622 E16.9904
G1 X180.539 Y123.541 E17.02101
G1 X180.408 Y124.453 E17.05166
G1 X180.198 Y125.349 E17.08227
G1 X179.912 Y126.224 E17.11289
G1 X179.551 Y127.071 E17.14351
G1 X179.117 Y127.883 E17.17413
G1 X178.615 Y128.655 E17.20476
G1 X178.047 Y129.38 E17.23539
G1 X177.419 Y130.053 E17.26601
G1 X176.735 Y130.669 E17.29662
G1 X176 Y131.223 E17.32724
G1 X175.22 Y131.712 E17.35786
G1 X174.4 Y132.131 E17.38848
G1 X173.547 Y132.477 E17.4191
G1 X172.667 Y132.748 E17.44973
G1 X171.767 Y132.941 E17.48034
G1 X170.853 Y133.056 E17.51098
G1 X170.288 Y133.087 E17.5298
G1 X169.67 Y133.1 E17.55036
G1 X166.056 Y133.099 E17.67056
G1 X165.356 Y133.089 E17.69385
G1 X164.436 Y133.036 E17.7245
G1 X163.525 Y132.903 E17.75512
G1 X162.629 Y132.692 E17.78573
G1 X161.582 Y132.337 E17.8225
G1 X160.69 Y131.979 E17.85447
G1 X159.688 Y131.56 E17.8906
G1 X157.313 Y130.644 E17.97526
G1 X154.927 Y129.8 E18.05944
G1 X152.501 Y129.019 E18.1442
G1 X150.103 Y128.321 E18.22727
G1 X147.621 Y127.675 E18.31257
G1 X145.168 Y127.107 E18.39632
G1 X142.701 Y126.613 E18.48
G1 X140.216 Y126.187 E18.56386
G1 X137.72 Y125.831 E18.64772
G1 X135.161 Y125.539 E18.73338
G1 X132.687 Y125.327 E18.81597
G1 X130.166 Y125.184 E18.89995
G1 X127.582 Y125.11 E18.98593
G1 X126.246 Y125.1 E19.03037
G1 X108.749 Y125.1 E19.61232
G1 X106.125 Y125.137 E19.6996
G1 X103.616 Y125.244 E19.78313
G0 F6000 X103.625 Y125.644
G1 F1200 X101.131 Y125.821 E19.86629
G1 X98.631 Y126.069 E19.94985
G1 X96.138 Y126.388 E20.03344
G1 X93.645 Y126.779 E20.11737
G1 X91.155 Y127.242 E20.20161
G1 X88.692 Y127.772 E20.2854
G1 X86.296 Y128.36 E20.36746
G1 X83.826 Y129.039 E20.45266
G1 X81.423 Y129.775 E20.53625
G1 X79.031 Y130.582 E20.62021
G1 X76.676 Y131.45 E20.70369
G1 X74.2 Y132.446 E20.79246
G1 X73.773 Y132.625 E20.80786
G1 X72.894 Y132.951 E20.83904
G1 X71.99 Y133.2 E20.87022
G1 X71.068 Y133.372 E20.90142
G1 X70.116 Y133.465 E20.93323
G1 X69.766 Y133.484 E20.94489
G1 X69.17 Y133.5 E20.96472
G1 X65.565 Y133.499 E21.08463
G1 X64.867 Y133.49 E21.10784
G1 X63.931 Y133.438 E21.13902
G1 X63.002 Y133.306 E21.17023
G1 X62.088 Y133.096 E21.20142
G1 X61.195 Y132.809 E21.23262
G1 X60.33 Y132.446 E21.26382
G1 X59.499 Y132.012 E21.295
G1 X58.708 Y131.508 E21.3262
G1 X57.963 Y130.938 E21.3574
G1 X57.269 Y130.307 E21.38859
G1 X56.632 Y129.62 E21.41976
G1 X56.055 Y128.88 E21.45097
G1 X55.543 Y128.094 E21.48217
G1 X55.1 Y127.267 E21.51337
G1 X54.729 Y126.406 E21.54455
G1 X54.433 Y125.516 E21.57575
G1 X54.214 Y124.604 E21.60694
G1 X54.073 Y123.677 E21.63813
G1 X54.013 Y122.788 E21.66777
G1 X54 Y122.158 E21.68872
G1 X54.001 Y113.025 E21.99249
G1 X54.01 Y112.36 E22.01461
G1 X54.063 Y111.424 E22.04579
G1 X54.195 Y110.495 E22.077
G1 X54.406 Y109.581 E22.1082
G1 X54.694 Y108.689 E22.13937
G1 X55.057 Y107.824 E22.17057
G1 X55.492 Y106.993 E22.20177
G1 X55.996 Y106.203 E22.23294
G1 X56.566 Y105.458 E22.26414
G1 X57.198 Y104.764 E22.29536
G1 X57.886 Y104.127 E22.32654
G1 X58.626 Y103.551 E22.35773
G1 X59.412 Y103.039 E22.38893
G1 X60.239 Y102.597 E22.42012
G1 X61.101 Y102.227 E22.45132
G1 X61.991 Y101.931 E22.48252
G1 X62.903 Y101.713 E22.5137
G1 X63.83 Y101.572 E22.54489
G1 X64.701 Y101.513 E22.57393
G1 X65.33 Y101.5 E22.59485
G1 X169.293 Y101.5 E26.05268
G1 X169.451 Y101.501 E26.05793
G1 X170.149 Y101.511 E26.08115
G1 X171.085 Y101.565 E26.11233
G1 X172.013 Y101.697 E26.14351
G1 X172.927 Y101.909 E26.17471
G1 X173.819 Y102.198 E26.2059
G1 X174.684 Y102.561 E26.2371
G1 X175.514 Y102.997 E26.26828
G1 X176.305 Y103.502 E26.2995
G1 X177.049 Y104.073 E26.33069
G1 X177.742 Y104.705 E26.36189
G1 X178.379 Y105.393 E26.39307
G1 X178.954 Y106.134 E26.42427
G1 X179.465 Y106.92 E26.45545
G1 X179.907 Y107.748 E26.48667
G1 X180.276 Y108.61 E26.51785
G1 X180.571 Y109.5 E26.54904
G1 X180.789 Y110.412 E26.58023
G1 X180.929 Y111.34 E26.61144
G1 X180.987 Y112.201 E26.64014
G1 X181 Y112.83 E26.66107
G1 X180.999 Y121.9 E26.96274
G1 X180.99 Y122.627 E26.98692
G1 X180.939 Y123.564 E27.01813
G1 X180.807 Y124.492 E27.04931
G1 X180.598 Y125.406 E27.08049
G1 X180.311 Y126.299 E27.11169
G1 X179.949 Y127.165 E27.14291
G1 X179.515 Y127.996 E27.17409
G1 X179.011 Y128.787 E27.20528
G1 X178.442 Y129.532 E27.23646
G1 X177.811 Y130.227 E27.26768
G1 X177.124 Y130.865 E27.29887
G1 X176.385 Y131.442 E27.33005
G1 X175.599 Y131.954 E27.36125
G1 X174.773 Y132.397 E27.39243
G1 X173.911 Y132.769 E27.42365
G1 X173.022 Y133.065 E27.45482
G1 X172.11 Y133.285 E27.48602
G1 X171.183 Y133.426 E27.51721
G1 X170.299 Y133.487 E27.54668
G1 X169.67 Y133.5 E27.5676
G1 X166.05 Y133.499 E27.688
G1 X165.35 Y133.489 E27.71129
G1 X164.414 Y133.436 E27.74247
G1 X163.485 Y133.303 E27.77368
G1 X162.571 Y133.091 E27.80489
G1 X161.434 Y132.708 E27.8448
G1 X160.536 Y132.348 E27.87697
G1 X159.539 Y131.931 E27.91292
G1 X157.173 Y131.018 E27.99727
G1 X154.777 Y130.171 E28.08179
G1 X152.405 Y129.407 E28.16468
G1 X150.005 Y128.709 E28.24781
G1 X147.536 Y128.066 E28.33267
G1 X145.072 Y127.496 E28.41678
G1 X142.626 Y127.006 E28.49975
G1 X140.158 Y126.582 E28.58304
G1 X137.655 Y126.226 E28.66713
G1 X135.153 Y125.94 E28.75089
G1 X132.632 Y125.724 E28.83504
G1 X130.131 Y125.583 E28.91836
G1 X127.616 Y125.51 E29.00205
G1 X126.243 Y125.5 E29.04771
G1 X108.755 Y125.5 E29.62937
G1 X106.147 Y125.537 E29.71612
G1 X103.625 Y125.644 E29.80007
G1 F2700 E24.80007
;MESH:ant_box_support.STL
G0 F6000 X164.835 Y122.086
G0 X165.914 Y122.086
G0 X166.1 Y121.9
;TYPE:WALL-INNER
G1 F2700 E29.80007
G1 F1200 X166.1 Y119.1 E29.8932
G1 X167.6 Y119.1 E29.94309
G1 X167.6 Y113.9 E30.11605
G1 X67.4 Y113.9 E33.44871
G1 X67.4 Y119.1 E33.62166
G1 X68.9 Y119.1 E33.67155
G1 X68.9 Y121.9 E33.76468
G1 X65.6 Y121.9 E33.87444
G1 X65.6 Y113.1 E34.16713
G1 X169.4 Y113.1 E37.61953
G1 X169.4 Y121.9 E37.91222
G1 X166.1 Y121.9 E38.02198
G0 F6000 X165.7 Y122.3
;TYPE:WALL-OUTER
G1 F1200 X165.7 Y118.7 E38.14172
G1 X167.2 Y118.7 E38.19161
G1 X167.2 Y114.3 E38.33795
G1 X67.8 Y114.3 E41.64401
G1 X67.8 Y118.7 E41.79035
G1 X69.3 Y118.7 E41.84024
G1 X69.3 Y122.3 E41.95998
G1 X65.2 Y122.3 E42.09635
G1 X65.2 Y112.7 E42.41564
G1 X169.8 Y112.7 E45.89465
G1 X169.8 Y122.3 E46.21395
G1 X165.7 Y122.3 E46.35032
G0 F6000 X165.97 Y122.03
G0 X166.21 Y121.51
G0 X166.49 Y121.51
;TYPE:SKIN
G1 F1200 X166.49 Y119.49 E46.4175
G1 X167.99 Y119.49 E46.46739
G1 X167.99 Y113.51 E46.66629
G1 X67.01 Y113.51 E50.0249
G1 X67.01 Y119.49 E50.22379
G1 X68.51 Y119.49 E50.27368
G1 X68.51 Y121.51 E50.34087
G1 X65.99 Y121.51 E50.42468
G1 X65.99 Y113.49 E50.69143
G1 X169.01 Y113.49 E54.11789
G1 X169.01 Y121.51 E54.38464
G1 X166.49 Y121.51 E54.46845
G0 F6000 X166.21 Y121.51
G0 X166.282 Y121.718
G0 X169.218 Y121.718
G0 X169.29 Y113.977
G0 X168.849 Y113.977
G1 F1200 X168.521 Y113.649 E54.48388
G0 F6000 X168.149 Y113.843
G1 F1200 X168.849 Y114.543 E54.51681
G0 F6000 X168.849 Y115.109
G1 F1200 X168.149 Y114.409 E54.54973
G0 F6000 X168.149 Y114.974
G1 F1200 X168.849 Y115.674 E54.58266
G0 F6000 X168.849 Y116.24
G1 F1200 X168.149 Y115.54 E54.61558
G0 F6000 X168.149 Y116.106
G1 F1200 X168.849 Y116.806 E54.64851
G0 F6000 X168.849 Y117.371
G1 F1200 X168.149 Y116.671 E54.68143
G0 F6000 X168.149 Y117.237
G1 F1200 X168.849 Y117.937 E54.71436
G0 F6000 X168.849 Y118.503
G1 F1200 X168.149 Y117.803 E54.74729
G0 F6000 X168.149 Y118.368
G1 F1200 X168.849 Y119.069 E54.78024
G0 F6000 X168.849 Y119.634
G1 F1200 X168.149 Y118.934 E54.81316
G0 F6000 X168.149 Y119.5
G1 F1200 X168.849 Y120.2 E54.84609
G0 F6000 X168.849 Y120.766
G1 F1200 X167.733 Y119.65 E54.89858
G0 F6000 X167.167 Y119.65
G1 F1200 X168.849 Y121.331 E54.97767
G0 F6000 X168.302 Y121.35
G1 F1200 X166.648 Y119.696 E55.05547
G0 F6000 X166.648 Y120.262
G1 F1200 X167.736 Y121.35 E55.10665
G0 F6000 X167.17 Y121.35
G1 F1200 X166.648 Y120.828 E55.1312
G1 F2700 E50.1312
G0 F6000 X166.21 Y120.828
G0 X165.928 Y118.928
G0 X167.428 Y118.928
G0 X167.428 Y114.072
G0 X67.572 Y114.072
G0 X67.572 Y118.928
G0 X68.787 Y118.928
G0 X68.79 Y120.959
G0 X68.35 Y120.959
G1 F2700 E55.1312
G1 F1200 X67.04 Y119.649 E55.19282
G0 F6000 X66.849 Y119.458
G1 F1200 X66.149 Y118.758 E55.22575
G0 F6000 X66.149 Y118.192
G1 F1200 X66.849 Y118.892 E55.25867
G0 F6000 X66.849 Y118.327
G1 F1200 X66.149 Y117.627 E55.2916
G0 F6000 X66.149 Y117.061
G1 F1200 X66.849 Y117.761 E55.32452
G0 F6000 X66.849 Y117.195
G1 F1200 X66.149 Y116.495 E55.35745
G0 F6000 X66.149 Y115.93
G1 F1200 X66.849 Y116.63 E55.39038
G0 F6000 X66.849 Y116.064
G1 F1200 X66.149 Y115.364 E55.4233
G0 F6000 X66.149 Y114.798
