;FLAVOR:Marlin
;TIME:2104
;Filament used: 1.24757m
;Layer height: 0.2
;MINX:90.516
;MINY:90.514
;MINZ:0.2
;MAXX:144.486
;MAXY:144.484
;MAXZ:12
;Generated with Cura_SteamEngine 4.6.2
M140 S50
M105
M190 S50
M104 S200
M105
M109 S200
M82 ;absolute extrusion mode
; Ender 3 Custom Start G-code
G92 E0 ; Reset Extruder
G28 ; Home all axes
G1 Z2.0 F3000 ; Move Z Axis up little to prevent scratching of Heat Bed
G1 X0.1 Y20 Z0.3 F5000.0 ; Move to start position
G1 X0.1 Y200.0 Z0.3 F1500.0 E15 ; Draw the first line
G1 X0.4 Y200.0 Z0.3 F5000.0 ; Move to side a little
G1 X0.4 Y20 Z0.3 F1500.0 E30 ; Draw the second line
G92 E0 ; Reset Extruder
G1 Z2.0 F3000 ; Move Z Axis up little to prevent scratching of Heat Bed
G1 X5 Y20 Z0.3 F5000.0 ; Move over to prevent blob squish
G92 E0
G92 E0
G1 F2700 E-5
;LAYER_COUNT:60
;LAYER:0
M107
G0 F6000 X118.343 Y91.332 Z0.2
;TYPE:SKIRT
G1 F2700 E0
G1 F1200 X119.079 Y91.37 E0.02451
G1 X119.798 Y91.416 E0.04847
G1 X120.561 Y91.493 E0.07398
G1 X121.384 Y91.61 E0.10163
G1 X121.842 Y91.684 E0.11706
G1 X122.554 Y91.807 E0.14109
G1 X123.127 Y91.923 E0.16054
G1 X123.645 Y92.048 E0.17826
G1 X124.529 Y92.282 E0.20867
G1 X125.197 Y92.471 E0.23176
G1 X125.732 Y92.639 E0.25042
G1 X126.266 Y92.827 E0.26925
G1 X127.112 Y93.15 E0.29936
G1 X127.784 Y93.419 E0.32344
G1 X128.274 Y93.63 E0.34118
G1 X128.46 Y93.716 E0.348
G1 X128.767 Y93.864 E0.35933
G1 X129.607 Y94.289 E0.39065
G1 X130.215 Y94.609 E0.4135
G1 X130.712 Y94.889 E0.43247
G1 X131.206 Y95.191 E0.45173
G1 X131.976 Y95.689 E0.48223
G1 X132.54 Y96.065 E0.50477
G1 X133.142 Y96.499 E0.52946
G1 X133.756 Y96.979 E0.55538
G1 X134.173 Y97.319 E0.57327
G1 X134.729 Y97.783 E0.59736
G1 X135.102 Y98.109 E0.61384
G1 X135.714 Y98.695 E0.64202
G1 X136.177 Y99.158 E0.6638
G1 X136.668 Y99.662 E0.6872
G1 X137.033 Y100.057 E0.70509
G1 X137.182 Y100.227 E0.71261
G1 X137.403 Y100.488 E0.72398
G1 X137.977 Y101.192 E0.75419
G1 X138.431 Y101.767 E0.77856
G1 X138.78 Y102.235 E0.79798
G1 X139.062 Y102.646 E0.81456
G1 X139.572 Y103.424 E0.8455
G1 X139.961 Y104.041 E0.86976
G1 X140.275 Y104.573 E0.8903
G1 X140.523 Y105.034 E0.90771
G1 X140.949 Y105.866 E0.9388
G1 X141.233 Y106.441 E0.96013
G1 X141.433 Y106.87 E0.97587
G1 X141.524 Y107.078 E0.98343
G1 X141.688 Y107.475 E0.99771
G1 X142.022 Y108.34 E1.02855
G1 X142.266 Y109 E1.05196
G1 X142.439 Y109.509 E1.06984
G1 X142.499 Y109.702 E1.07656
G1 X142.603 Y110.058 E1.08889
G1 X142.844 Y110.952 E1.11969
G1 X143.018 Y111.637 E1.1432
G1 X143.147 Y112.216 E1.16293
G1 X143.246 Y112.747 E1.18089
G1 X143.383 Y113.589 E1.20927
G1 X143.493 Y114.341 E1.23454
G1 X143.573 Y115.078 E1.2592
G1 X143.625 Y115.818 E1.28387
G1 X143.652 Y116.365 E1.30209
G1 X143.68 Y117.072 E1.32562
G1 X143.687 Y117.645 E1.34468
G1 X143.662 Y118.468 E1.37207
G1 X143.63 Y119.078 E1.39238
G1 X143.584 Y119.798 E1.41638
G1 X143.506 Y120.564 E1.44199
G1 X143.39 Y121.384 E1.46953
G1 X143.319 Y121.827 E1.48446
G1 X143.198 Y122.534 E1.50831
G1 X143.071 Y123.156 E1.52943
G1 X142.953 Y123.644 E1.54613
G1 X142.723 Y124.511 E1.57596
G1 X142.53 Y125.194 E1.59957
G1 X142.361 Y125.732 E1.61832
G1 X142.173 Y126.266 E1.63715
G1 X141.85 Y127.112 E1.66727
G1 X141.581 Y127.784 E1.69135
G1 X141.37 Y128.274 E1.70909
G1 X141.284 Y128.46 E1.71591
G1 X141.136 Y128.767 E1.72724
G1 X140.711 Y129.607 E1.75855
G1 X140.391 Y130.215 E1.78141
G1 X140.115 Y130.706 E1.80014
G1 X139.985 Y130.923 E1.80855
G1 X139.809 Y131.206 E1.81964
G1 X139.302 Y131.99 E1.85069
G1 X138.93 Y132.547 E1.87297
G1 X138.448 Y133.21 E1.90023
G1 X137.681 Y134.173 E1.94118
G1 X137.217 Y134.729 E1.96526
G1 X136.887 Y135.106 E1.98193
G1 X136.746 Y135.259 E1.98885
G1 X136.478 Y135.539 E2.00174
G1 X135.844 Y136.175 E2.03161
G1 X135.327 Y136.679 E2.05562
G1 X134.885 Y137.085 E2.07558
G1 X134.513 Y137.402 E2.09184
G1 X133.786 Y137.995 E2.12304
G1 X133.223 Y138.439 E2.14689
G1 X132.625 Y138.877 E2.17155
G1 X132.053 Y139.262 E2.19448
G1 X131.586 Y139.565 E2.21299
G1 X130.969 Y139.955 E2.23727
G1 X130.427 Y140.275 E2.25821
G1 X129.972 Y140.52 E2.27539
G1 X129.133 Y140.95 E2.30675
G1 X128.553 Y141.236 E2.32826
G1 X128.126 Y141.435 E2.34393
G1 X127.92 Y141.525 E2.35141
G1 X127.53 Y141.686 E2.36544
G1 X126.655 Y142.024 E2.39664
G1 X125.994 Y142.268 E2.42007
G1 X125.504 Y142.435 E2.43729
G1 X125.312 Y142.495 E2.44398
G1 X124.942 Y142.603 E2.4568
G1 X124.048 Y142.844 E2.4876
G1 X123.363 Y143.018 E2.5111
G1 X122.673 Y143.168 E2.53459
G1 X121.987 Y143.291 E2.55777
G1 X121.394 Y143.385 E2.57774
G1 X120.688 Y143.489 E2.60147
G1 X120.107 Y143.558 E2.62093
G1 X119.64 Y143.596 E2.63652
G1 X119.182 Y143.625 E2.65178
G1 X118.624 Y143.652 E2.67036
G1 X117.897 Y143.68 E2.69456
G1 X117.214 Y143.684 E2.71728
G1 X116.532 Y143.662 E2.73997
G1 X115.921 Y143.63 E2.76032
G1 X115.202 Y143.584 E2.78428
G1 X114.439 Y143.507 E2.80979
G1 X113.616 Y143.39 E2.83744
G1 X113.158 Y143.316 E2.85287
G1 X112.446 Y143.193 E2.8769
G1 X111.873 Y143.077 E2.89635
G1 X111.355 Y142.952 E2.91407
G1 X110.471 Y142.718 E2.94448
G1 X109.803 Y142.529 E2.96757
G1 X109.269 Y142.362 E2.98618
G1 X109.033 Y142.281 E2.99448
G1 X108.722 Y142.168 E3.00549
G1 X107.9 Y141.854 E3.03475
G1 X107.228 Y141.586 E3.05882
G1 X106.706 Y141.361 E3.07772
G1 X106.233 Y141.136 E3.09514
G1 X105.394 Y140.711 E3.12643
G1 X104.784 Y140.39 E3.14935
G1 X104.28 Y140.107 E3.16858
G1 X104.057 Y139.973 E3.17723
G1 X103.784 Y139.803 E3.18793
G1 X103.003 Y139.298 E3.21886
G1 X102.432 Y138.916 E3.24171
G1 X101.834 Y138.483 E3.26627
G1 X101.243 Y138.021 E3.29122
G1 X100.808 Y137.666 E3.30989
G1 X100.268 Y137.215 E3.33329
G1 X99.894 Y136.887 E3.34984
G1 X99.286 Y136.305 E3.37783
G1 X98.825 Y135.844 E3.39951
G1 X98.32 Y135.326 E3.42358
G1 X97.91 Y134.879 E3.44375
G1 X97.59 Y134.504 E3.46015
G1 X97.005 Y133.786 E3.49095
G1 X96.561 Y133.223 E3.5148
G1 X96.209 Y132.75 E3.53441
G1 X95.926 Y132.337 E3.55106
G1 X95.433 Y131.583 E3.58102
G1 X95.042 Y130.964 E3.60537
G1 X94.744 Y130.46 E3.62485
G1 X94.336 Y129.698 E3.6536
G1 X94.051 Y129.135 E3.67459
G1 X93.767 Y128.56 E3.69592
G1 X93.56 Y128.115 E3.71224
G1 X93.469 Y127.906 E3.71982
G1 X93.318 Y127.54 E3.73299
G1 X92.953 Y126.597 E3.76662
G1 X92.72 Y125.96 E3.78918
G1 X92.507 Y125.311 E3.8119
G1 X92.309 Y124.624 E3.83568
G1 X92.154 Y124.04 E3.85578
G1 X91.979 Y123.349 E3.87948
G1 X91.832 Y122.671 E3.90256
G1 X91.709 Y121.987 E3.92567
G1 X91.612 Y121.375 E3.94628
G1 X91.506 Y120.646 E3.97078
G1 X91.427 Y119.924 E3.99494
G1 X91.375 Y119.182 E4.01968
G1 X91.348 Y118.631 E4.03803
G1 X91.32 Y117.917 E4.06179
G1 X91.316 Y117.235 E4.08448
G1 X91.339 Y116.519 E4.10831
G1 X91.371 Y115.899 E4.12895
G1 X91.415 Y115.206 E4.15205
G1 X91.494 Y114.436 E4.17779
G1 X91.61 Y113.616 E4.20534
G1 X91.683 Y113.164 E4.22057
G1 X91.805 Y112.455 E4.2445
G1 X91.925 Y111.864 E4.26455
G1 X92.06 Y111.305 E4.28368
G1 X92.284 Y110.468 E4.3125
G1 X92.47 Y109.809 E4.33527
G1 X92.639 Y109.268 E4.35412
G1 X92.83 Y108.727 E4.37321
G1 X93.151 Y107.886 E4.40315
G1 X93.414 Y107.226 E4.42678
G1 X93.719 Y106.535 E4.4519
G1 X94.03 Y105.9 E4.47542
G1 X94.282 Y105.408 E4.4938
G1 X94.602 Y104.798 E4.51671
G1 X94.885 Y104.294 E4.53594
G1 X95.015 Y104.077 E4.54435
G1 X95.187 Y103.8 E4.5552
G1 X95.705 Y102.999 E4.58692
G1 X96.088 Y102.427 E4.60982
G1 X96.523 Y101.826 E4.63449
G1 X96.979 Y101.244 E4.65909
G1 X97.313 Y100.834 E4.67667
G1 X97.777 Y100.277 E4.70079
G1 X98.136 Y99.868 E4.71889
G1 X98.277 Y99.716 E4.72578
G1 X98.515 Y99.468 E4.73722
G1 X99.169 Y98.812 E4.76802
G1 X99.688 Y98.308 E4.79209
G1 X100.091 Y97.937 E4.81031
G1 X100.487 Y97.598 E4.82764
G1 X101.214 Y97.005 E4.85885
G1 X101.777 Y96.561 E4.8827
G1 X102.375 Y96.123 E4.90735
G1 X102.947 Y95.738 E4.93028
G1 X103.42 Y95.431 E4.94904
G1 X104.038 Y95.041 E4.97334
G1 X104.525 Y94.753 E4.99216
G1 X105.302 Y94.336 E5.02149
G1 X105.865 Y94.051 E5.04248
G1 X106.442 Y93.766 E5.06388
G1 X106.892 Y93.557 E5.08039
G1 X107.099 Y93.467 E5.08789
G1 X107.468 Y93.315 E5.10117
G1 X108.349 Y92.974 E5.13259
G1 X109.008 Y92.731 E5.15595
G1 X109.509 Y92.561 E5.17354
G1 X109.702 Y92.501 E5.18027
G1 X110.058 Y92.397 E5.1926
G1 X110.952 Y92.156 E5.2234
G1 X111.637 Y91.982 E5.24691
G1 X112.327 Y91.832 E5.27039
G1 X113.013 Y91.709 E5.29357
G1 X113.625 Y91.612 E5.31418
G1 X114.354 Y91.506 E5.33868
G1 X115.076 Y91.427 E5.36284
G1 X115.818 Y91.375 E5.38758
G1 X116.366 Y91.348 E5.40583
G1 X117.075 Y91.32 E5.42943
G1 X117.648 Y91.313 E5.44849
G1 X117.888 Y91.317 E5.45647
G1 X118.343 Y91.332 E5.47161
G0 F6000 X119.105 Y90.971
G1 F1200 X119.824 Y91.017 E5.49557
G1 X120.616 Y91.097 E5.52205
G1 X121.447 Y91.215 E5.54997
G1 X121.91 Y91.29 E5.56557
G1 X122.622 Y91.413 E5.5896
G1 X123.218 Y91.533 E5.60982
G1 X123.446 Y91.586 E5.61761
G1 X123.746 Y91.661 E5.62789
G1 X124.638 Y91.897 E5.65858
G1 X125.306 Y92.086 E5.68167
G1 X125.862 Y92.26 E5.70105
G1 X126.095 Y92.34 E5.70924
G1 X126.407 Y92.453 E5.72028
G1 X127.26 Y92.778 E5.75064
G1 X127.932 Y93.047 E5.77471
G1 X128.442 Y93.267 E5.79319
G1 X128.628 Y93.353 E5.8
G1 X128.947 Y93.507 E5.81178
G1 X129.793 Y93.935 E5.84332
G1 X130.401 Y94.255 E5.86617
G1 X130.918 Y94.546 E5.8859
G1 X131.133 Y94.675 E5.89424
G1 X131.423 Y94.855 E5.90559
G1 X132.198 Y95.356 E5.93629
G1 X132.762 Y95.732 E5.95883
G1 X133.387 Y96.183 E5.98447
G1 X134.008 Y96.668 E6.01067
G1 X134.43 Y97.012 E6.02878
G1 X134.986 Y97.476 E6.05287
G1 X135.373 Y97.815 E6.06998
G1 X135.524 Y97.954 E6.07681
G1 X135.925 Y98.34 E6.09532
G1 X136.464 Y98.879 E6.12067
G1 X136.955 Y99.383 E6.14407
G1 X137.334 Y99.793 E6.16265
G1 X137.483 Y99.963 E6.17016
G1 X137.712 Y100.235 E6.18199
G1 X138.291 Y100.944 E6.21244
G1 X138.745 Y101.519 E6.2368
G1 X139.107 Y102.006 E6.25699
G1 X139.396 Y102.426 E6.27394
G1 X139.911 Y103.211 E6.30517
G1 X140.3 Y103.828 E6.32943
G1 X140.625 Y104.381 E6.35076
G1 X140.879 Y104.852 E6.36856
G1 X141.308 Y105.689 E6.39984
G1 X141.592 Y106.264 E6.42117
G1 X141.799 Y106.709 E6.4375
G1 X141.89 Y106.917 E6.44505
G1 X142.061 Y107.33 E6.45992
G1 X142.397 Y108.201 E6.49097
G1 X142.641 Y108.861 E6.51437
G1 X142.821 Y109.39 E6.53295
G1 X142.881 Y109.583 E6.53968
G1 X142.989 Y109.953 E6.5525
G1 X143.232 Y110.853 E6.5835
G1 X143.406 Y111.538 E6.60701
G1 X143.54 Y112.14 E6.62752
G1 X143.641 Y112.682 E6.64586
G1 X143.778 Y113.531 E6.67446
G1 X143.888 Y114.283 E6.69974
G1 X143.972 Y115.049 E6.72537
G1 X144.024 Y115.797 E6.75031
G1 X144.052 Y116.35 E6.76873
G1 X144.08 Y117.057 E6.79226
G1 X144.087 Y117.651 E6.81202
G1 X144.061 Y118.488 E6.83987
G1 X144.029 Y119.104 E6.86038
G1 X143.983 Y119.824 E6.88438
G1 X143.902 Y120.62 E6.91099
G1 X143.785 Y121.447 E6.93877
G1 X143.713 Y121.894 E6.95383
G1 X143.592 Y122.601 E6.97769
G1 X143.46 Y123.248 E6.99965
G1 X143.339 Y123.746 E7.0167
G1 X143.108 Y124.619 E7.04673
G1 X142.915 Y125.302 E7.07034
G1 X142.74 Y125.862 E7.08985
G1 X142.66 Y126.095 E7.09805
G1 X142.547 Y126.407 E7.10908
G1 X142.222 Y127.26 E7.13944
G1 X141.953 Y127.932 E7.16352
G1 X141.733 Y128.442 E7.18199
G1 X141.647 Y128.628 E7.18881
G1 X141.493 Y128.947 E7.20059
G1 X141.065 Y129.793 E7.23212
G1 X140.745 Y130.401 E7.25497
G1 X140.458 Y130.911 E7.27444
G1 X140.328 Y131.128 E7.28285
G1 X140.145 Y131.423 E7.2944
G1 X139.635 Y132.212 E7.32565
G1 X139.263 Y132.769 E7.34792
G1 X138.762 Y133.458 E7.37626
G1 X137.988 Y134.43 E7.41758
G1 X137.524 Y134.986 E7.44167
G1 X137.181 Y135.377 E7.45897
G1 X137.04 Y135.53 E7.46589
G1 X136.762 Y135.821 E7.47928
G1 X136.123 Y136.461 E7.50936
G1 X135.606 Y136.965 E7.53337
G1 X135.147 Y137.387 E7.55411
G1 X134.766 Y137.712 E7.57076
G1 X134.034 Y138.309 E7.60218
G1 X133.471 Y138.753 E7.62603
G1 X132.849 Y139.208 E7.65166
G1 X132.272 Y139.597 E7.67481
G1 X131.8 Y139.903 E7.69352
G1 X131.183 Y140.293 E7.71779
G1 X130.619 Y140.625 E7.73956
G1 X130.155 Y140.876 E7.75711
G1 X129.31 Y141.309 E7.78869
G1 X128.73 Y141.595 E7.81019
G1 X128.286 Y141.801 E7.82647
G1 X128.08 Y141.891 E7.83395
G1 X127.675 Y142.059 E7.84853
G1 X126.794 Y142.399 E7.87994
G1 X126.133 Y142.643 E7.90338
G1 X125.432 Y142.876 E7.92795
G1 X125.047 Y142.989 E7.94129
G1 X124.147 Y143.232 E7.9723
G1 X123.462 Y143.406 E7.99581
G1 X122.744 Y143.562 E8.02024
G1 X122.051 Y143.685 E8.04365
G1 X121.452 Y143.781 E8.06383
G1 X120.746 Y143.885 E8.08757
G1 X120.143 Y143.956 E8.10776
G1 X119.665 Y143.995 E8.12371
G1 X118.639 Y144.052 E8.15789
G1 X117.912 Y144.08 E8.18209
G1 X117.203 Y144.084 E8.20567
G1 X116.512 Y144.061 E8.22866
G1 X115.895 Y144.029 E8.24921
G1 X115.176 Y143.983 E8.27318
G1 X114.384 Y143.903 E8.29965
G1 X113.553 Y143.785 E8.32757
G1 X113.09 Y143.71 E8.34317
G1 X112.378 Y143.587 E8.3672
G1 X111.782 Y143.467 E8.38742
G1 X111.554 Y143.414 E8.39521
G1 X111.254 Y143.339 E8.40549
G1 X110.362 Y143.103 E8.43618
G1 X109.694 Y142.914 E8.45927
G1 X109.139 Y142.74 E8.47862
G1 X108.903 Y142.659 E8.48691
G1 X108.58 Y142.542 E8.49834
G1 X107.751 Y142.226 E8.52785
G1 X107.079 Y141.958 E8.55191
G1 X106.538 Y141.724 E8.57152
G1 X106.353 Y141.638 E8.5783
G1 X106.053 Y141.493 E8.58938
G1 X105.208 Y141.065 E8.62089
G1 X104.598 Y140.744 E8.64381
G1 X104.074 Y140.45 E8.6638
G1 X103.851 Y140.316 E8.67245
G1 X103.568 Y140.139 E8.68355
G1 X102.781 Y139.63 E8.71473
G1 X102.21 Y139.248 E8.73758
G1 X101.588 Y138.799 E8.76309
G1 X100.991 Y138.331 E8.78832
G1 X100.551 Y137.973 E8.80719
G1 X100.011 Y137.522 E8.83059
G1 X99.47 Y137.04 E8.85469
G1 X99.076 Y136.661 E8.87287
G1 X98.539 Y136.123 E8.89815
G1 X98.034 Y135.605 E8.92222
G1 X97.607 Y135.141 E8.94319
G1 X97.28 Y134.757 E8.95996
G1 X96.691 Y134.034 E8.99098
G1 X96.247 Y133.471 E9.01483
G1 X95.881 Y132.979 E9.03522
G1 X95.765 Y132.813 E9.04196
G1 X95.592 Y132.556 E9.05226
G1 X95.095 Y131.797 E9.08244
G1 X94.704 Y131.178 E9.10679
G1 X94.394 Y130.654 E9.12704
G1 X93.979 Y129.879 E9.15628
G1 X93.692 Y129.312 E9.17742
G1 X93.408 Y128.737 E9.19875
G1 X93.193 Y128.275 E9.21569
G1 X93.102 Y128.066 E9.22328
G1 X92.946 Y127.686 E9.23694
G1 X92.577 Y126.734 E9.2709
G1 X92.344 Y126.097 E9.29346
G1 X92.123 Y125.423 E9.31705
G1 X91.923 Y124.727 E9.34113
G1 X91.766 Y124.138 E9.36141
G1 X91.591 Y123.447 E9.38512
G1 X91.438 Y122.743 E9.40908
G1 X91.315 Y122.051 E9.43246
G1 X91.216 Y121.432 E9.45331
G1 X91.11 Y120.703 E9.47781
G1 X91.028 Y119.954 E9.50287
G1 X90.976 Y119.203 E9.52791
G1 X90.948 Y118.646 E9.54646
G1 X90.92 Y117.932 E9.57022
G1 X90.916 Y117.224 E9.59377
G1 X90.939 Y116.499 E9.6179
G1 X90.972 Y115.873 E9.63875
G1 X91.016 Y115.18 E9.66184
G1 X91.098 Y114.38 E9.68859
G1 X91.215 Y113.553 E9.71637
G1 X91.289 Y113.096 E9.73177
G1 X91.411 Y112.387 E9.75569
G1 X91.535 Y111.773 E9.77653
G1 X91.673 Y111.202 E9.79607
G1 X91.899 Y110.36 E9.82506
G1 X92.085 Y109.701 E9.84784
G1 X92.26 Y109.138 E9.86745
G1 X92.34 Y108.905 E9.87564
G1 X92.456 Y108.585 E9.88696
G1 X92.779 Y107.738 E9.91711
G1 X93.042 Y107.078 E9.94074
G1 X93.36 Y106.36 E9.96686
G1 X93.674 Y105.718 E9.99063
G1 X93.928 Y105.222 E10.00916
G1 X94.248 Y104.612 E10.03208
G1 X94.542 Y104.089 E10.05203
G1 X94.672 Y103.872 E10.06044
G1 X94.851 Y103.583 E10.07175
G1 X95.372 Y102.776 E10.1037
G1 X95.755 Y102.204 E10.1266
G1 X96.207 Y101.58 E10.15222
G1 X96.668 Y100.992 E10.17707
G1 X97.006 Y100.577 E10.19488
G1 X97.47 Y100.02 E10.21899
G1 X97.843 Y99.596 E10.23777
G1 X97.984 Y99.444 E10.24467
G1 X98.231 Y99.186 E10.25654
G1 X98.89 Y98.525 E10.28759
G1 X99.409 Y98.021 E10.31165
G1 X99.828 Y97.635 E10.3306
G1 X99.984 Y97.499 E10.33748
G1 X100.234 Y97.288 E10.34836
G1 X100.966 Y96.691 E10.37978
G1 X101.529 Y96.247 E10.40363
G1 X102.151 Y95.792 E10.42926
G1 X102.728 Y95.403 E10.45241
G1 X103.207 Y95.093 E10.47138
G1 X103.825 Y94.703 E10.49569
G1 X104.331 Y94.403 E10.51525
