;FLAVOR:Marlin
;TIME:2818
;Filament used: 1.97942m
;Layer height: 0.2
;MINX:81.518
;MINY:94.001
;MINZ:0.2
;MAXX:153.483
;MAXY:140.999
;MAXZ:12.4
;Generated with Cura_SteamEngine 4.6.2
M140 S50
M105
M190 S50
M104 S200
M105
M109 S200
M82 ;absolute extrusion mode
; Ender 3 Custom Start G-code
G92 E0 ; Reset Extruder
G28 ; Home all axes
G1 Z2.0 F3000 ; Move Z Axis up little to prevent scratching of Heat Bed
G1 X0.1 Y20 Z0.3 F5000.0 ; Move to start position
G1 X0.1 Y200.0 Z0.3 F1500.0 E15 ; Draw the first line
G1 X0.4 Y200.0 Z0.3 F5000.0 ; Move to side a little
G1 X0.4 Y20 Z0.3 F1500.0 E30 ; Draw the second line
G92 E0 ; Reset Extruder
G1 Z2.0 F3000 ; Move Z Axis up little to prevent scratching of Heat Bed
G1 X5 Y20 Z0.3 F5000.0 ; Move over to prevent blob squish
G92 E0
G92 E0
G1 F2700 E-5
;LAYER_COUNT:62
;LAYER:0
M107
G0 F6000 X130.27 Y94.818 Z0.2
;TYPE:SKIRT
G1 F2700 E0
G1 F1200 X131.377 Y94.87 E0.03686
G1 X131.696 Y94.89 E0.04749
G1 X132.422 Y94.947 E0.07171
G1 X133.273 Y95.05 E0.10022
G1 X133.817 Y95.144 E0.11858
G1 X134.65 Y95.308 E0.14682
G1 X135.321 Y95.45 E0.16963
G1 X136.148 Y95.662 E0.19803
G1 X136.655 Y95.819 E0.21568
G1 X137.48 Y96.096 E0.24463
G1 X138.162 Y96.338 E0.2687
G1 X138.89 Y96.629 E0.29477
G1 X139.14 Y96.74 E0.30387
G1 X139.479 Y96.897 E0.3163
G1 X140.252 Y97.277 E0.34494
G1 X140.859 Y97.587 E0.36761
G1 X141.583 Y97.995 E0.39525
G1 X142.11 Y98.326 E0.41595
G1 X142.785 Y98.776 E0.44294
G1 X143.367 Y99.176 E0.46642
G1 X144.065 Y99.701 E0.49547
G1 X144.497 Y100.061 E0.51418
G1 X145.132 Y100.615 E0.5422
G1 X145.64 Y101.073 E0.56495
G1 X146.198 Y101.617 E0.59087
G1 X146.356 Y101.783 E0.5985
G1 X146.598 Y102.045 E0.61036
G1 X147.16 Y102.682 E0.63861
G1 X147.645 Y103.249 E0.66343
G1 X148.164 Y103.908 E0.69133
G1 X148.325 Y104.131 E0.70048
G1 X148.523 Y104.416 E0.71202
G1 X148.983 Y105.102 E0.73949
G1 X149.348 Y105.663 E0.76175
G1 X149.757 Y106.35 E0.78834
G1 X149.886 Y106.587 E0.79732
G1 X150.061 Y106.924 E0.80995
G1 X150.464 Y107.737 E0.84013
G1 X150.729 Y108.294 E0.86064
G1 X151.034 Y109.005 E0.88638
G1 X151.137 Y109.272 E0.89589
G1 X151.267 Y109.626 E0.90844
G1 X151.526 Y110.385 E0.93511
G1 X151.76 Y111.104 E0.96026
G1 X151.99 Y111.927 E0.98868
G1 X152.107 Y112.443 E1.00628
G1 X152.274 Y113.268 E1.03428
G1 X152.404 Y113.964 E1.05782
G1 X152.527 Y114.833 E1.08702
G1 X152.58 Y115.407 E1.10619
G1 X152.635 Y116.209 E1.13293
G1 X152.674 Y116.946 E1.15747
G1 X152.683 Y117.8 E1.18588
G1 X152.662 Y118.351 E1.20422
G1 X152.617 Y119.085 E1.22868
G1 X152.553 Y119.912 E1.25627
G1 X152.452 Y120.756 E1.28454
G1 X152.308 Y121.567 E1.31193
G1 X152.193 Y122.145 E1.33153
G1 X152.052 Y122.813 E1.35424
G1 X151.842 Y123.637 E1.38252
G1 X151.776 Y123.857 E1.39016
G1 X151.678 Y124.165 E1.40091
G1 X151.406 Y124.973 E1.42927
G1 X151.162 Y125.662 E1.45358
G1 X150.856 Y126.426 E1.48095
G1 X150.753 Y126.656 E1.48934
G1 X150.614 Y126.954 E1.50027
G1 X150.249 Y127.699 E1.52786
G1 X149.918 Y128.349 E1.55213
G1 X149.509 Y129.078 E1.57993
G1 X149.359 Y129.321 E1.58943
G1 X149.188 Y129.587 E1.59994
G1 X148.739 Y130.264 E1.62696
G1 X148.323 Y130.869 E1.65138
G1 X147.819 Y131.541 E1.67932
G1 X147.65 Y131.748 E1.68821
G1 X147.439 Y131.998 E1.69909
G1 X146.885 Y132.632 E1.72709
G1 X146.427 Y133.14 E1.74984
G1 X145.875 Y133.706 E1.77614
G1 X145.696 Y133.876 E1.78435
G1 X145.437 Y134.113 E1.79603
G1 X144.773 Y134.699 E1.82548
G1 X144.222 Y135.168 E1.84955
G1 X143.587 Y135.667 E1.87641
G1 X143.374 Y135.821 E1.88515
G1 X143.087 Y136.021 E1.89679
G1 X142.4 Y136.482 E1.9243
G1 X141.841 Y136.846 E1.94649
G1 X141.143 Y137.261 E1.9735
G1 X140.911 Y137.387 E1.98228
G1 X140.582 Y137.558 E1.99461
G1 X139.763 Y137.964 E2.02501
G1 X139.206 Y138.229 E2.04553
G1 X138.495 Y138.534 E2.07126
G1 X138.228 Y138.637 E2.08078
G1 X137.869 Y138.768 E2.09349
G1 X137.11 Y139.028 E2.12018
G1 X136.39 Y139.262 E2.14536
G1 X135.585 Y139.487 E2.17316
G1 X135.344 Y139.544 E2.18139
G1 X135.013 Y139.617 E2.19267
G1 X134.173 Y139.785 E2.22116
G1 X133.528 Y139.905 E2.24298
G1 X132.67 Y140.027 E2.2718
G1 X132.082 Y140.081 E2.29144
G1 X131.25 Y140.137 E2.31918
G1 X130.795 Y140.161 E2.33433
G1 X130.456 Y140.173 E2.34562
G1 X129.072 Y140.198 E2.39165
G1 X105.569 Y140.199 E3.17337
G1 X105.067 Y140.192 E3.19007
G1 X104.73 Y140.182 E3.20128
G1 X103.303 Y140.11 E3.2488
G1 X102.578 Y140.053 E3.27299
G1 X101.734 Y139.951 E3.30127
G1 X101.495 Y139.912 E3.30932
G1 X101.183 Y139.856 E3.31986
G1 X100.35 Y139.692 E3.3481
G1 X99.679 Y139.55 E3.37091
G1 X98.852 Y139.338 E3.39931
G1 X98.345 Y139.181 E3.41696
G1 X97.522 Y138.904 E3.44584
G1 X96.834 Y138.66 E3.47012
G1 X96.083 Y138.36 E3.49702
G1 X95.839 Y138.251 E3.50591
G1 X95.521 Y138.103 E3.51757
G1 X94.748 Y137.723 E3.54622
G1 X94.141 Y137.413 E3.56889
G1 X93.417 Y137.005 E3.59653
G1 X92.89 Y136.674 E3.61723
G1 X92.215 Y136.224 E3.64421
G1 X91.633 Y135.824 E3.6677
G1 X90.935 Y135.299 E3.69675
G1 X90.503 Y134.939 E3.71546
G1 X89.874 Y134.39 E3.74322
G1 X89.363 Y133.93 E3.76609
G1 X88.768 Y133.349 E3.79375
G1 X88.601 Y133.172 E3.80185
G1 X88.387 Y132.937 E3.81242
G1 X87.801 Y132.273 E3.84187
G1 X87.332 Y131.722 E3.86594
G1 X86.833 Y131.087 E3.8928
G1 X86.679 Y130.874 E3.90154
G1 X86.479 Y130.587 E3.91318
G1 X86.011 Y129.888 E3.94115
G1 X85.639 Y129.315 E3.96388
G1 X85.203 Y128.578 E3.99236
G1 X84.945 Y128.087 E4.01081
G1 X84.536 Y127.263 E4.0414
G1 X84.271 Y126.706 E4.06192
G1 X83.978 Y126.026 E4.08655
G1 X83.874 Y125.759 E4.09608
G1 X83.726 Y125.355 E4.11039
G1 X83.471 Y124.606 E4.1367
G1 X83.237 Y123.885 E4.16191
G1 X83.013 Y123.086 E4.18951
G1 X82.955 Y122.841 E4.19789
G1 X82.882 Y122.508 E4.20923
G1 X82.713 Y121.661 E4.23795
G1 X82.591 Y121.001 E4.26028
G1 X82.471 Y120.158 E4.2886
G1 X82.417 Y119.566 E4.30837
G1 X82.361 Y118.714 E4.33677
G1 X82.326 Y118.043 E4.35912
G1 X82.317 Y117.188 E4.38755
G1 X82.34 Y116.605 E4.40696
G1 X82.388 Y115.847 E4.43222
G1 X82.448 Y115.08 E4.45781
G1 X82.543 Y114.277 E4.4847
G1 X82.579 Y114.05 E4.49235
G1 X82.643 Y113.689 E4.50454
G1 X82.815 Y112.816 E4.53414
G1 X82.954 Y112.164 E4.55631
G1 X83.153 Y111.384 E4.58308
G1 X83.219 Y111.162 E4.59079
G1 X83.318 Y110.848 E4.60174
G1 X83.598 Y110.015 E4.63097
G1 X83.843 Y109.326 E4.65529
G1 X84.14 Y108.583 E4.6819
G1 X84.249 Y108.339 E4.69079
G1 X84.399 Y108.018 E4.70258
G1 X84.793 Y107.216 E4.7323
G1 X85.089 Y106.637 E4.75392
G1 X85.495 Y105.917 E4.78142
G1 X85.826 Y105.39 E4.80211
G1 X86.276 Y104.715 E4.8291
G1 X86.676 Y104.133 E4.85258
G1 X87.196 Y103.441 E4.88137
G1 X87.568 Y102.995 E4.90069
G1 X88.124 Y102.358 E4.92881
G1 X88.575 Y101.858 E4.95121
G1 X89.12 Y101.299 E4.97718
G1 X89.304 Y101.124 E4.98562
G1 X89.572 Y100.877 E4.99774
G1 X90.221 Y100.306 E5.02649
G1 X90.77 Y99.838 E5.05049
G1 X91.422 Y99.326 E5.07806
G1 X91.637 Y99.171 E5.08688
G1 X91.913 Y98.979 E5.09806
G1 X92.608 Y98.513 E5.12589
G1 X93.182 Y98.14 E5.14866
G1 X93.921 Y97.703 E5.17721
G1 X94.143 Y97.584 E5.18559
G1 X94.417 Y97.443 E5.19584
G1 X95.236 Y97.037 E5.22624
G1 X95.795 Y96.771 E5.24683
G1 X96.483 Y96.474 E5.27176
G1 X96.748 Y96.371 E5.28121
G1 X97.15 Y96.224 E5.29545
G1 X97.887 Y95.974 E5.32134
G1 X98.606 Y95.74 E5.34648
G1 X99.415 Y95.513 E5.37443
G1 X99.656 Y95.456 E5.38267
G1 X99.987 Y95.383 E5.39394
G1 X100.827 Y95.215 E5.42243
G1 X101.472 Y95.095 E5.44425
G1 X102.33 Y94.973 E5.47308
G1 X102.918 Y94.919 E5.49272
G1 X103.75 Y94.863 E5.52045
G1 X104.205 Y94.839 E5.53561
G1 X104.544 Y94.827 E5.54689
G1 X105.928 Y94.802 E5.59293
G1 X129.431 Y94.801 E6.37464
G1 X130.27 Y94.818 E6.40255
G0 F6000 X130.288 Y94.419
G1 F1200 X131.395 Y94.471 E6.43941
G1 X131.728 Y94.492 E6.45051
G1 X132.454 Y94.549 E6.47473
G1 X133.338 Y94.656 E6.50435
G1 X133.893 Y94.751 E6.52308
G1 X134.733 Y94.917 E6.55155
G1 X135.404 Y95.059 E6.57437
G1 X136.264 Y95.279 E6.60389
G1 X136.782 Y95.44 E6.62193
G1 X137.614 Y95.719 E6.65112
G1 X138.296 Y95.961 E6.67519
G1 X139.052 Y96.263 E6.70227
G1 X139.302 Y96.374 E6.71136
G1 X139.654 Y96.538 E6.72428
G1 X140.434 Y96.921 E6.75318
G1 X141.041 Y97.231 E6.77585
G1 X141.793 Y97.654 E6.80455
G1 X142.047 Y97.811 E6.81448
G1 X142.331 Y97.993 E6.8257
G1 X143.012 Y98.446 E6.8529
G1 X143.594 Y98.846 E6.87639
G1 X144.319 Y99.392 E6.90658
G1 X144.759 Y99.759 E6.92563
G1 X145.4 Y100.318 E6.95392
G1 X145.908 Y100.776 E6.97667
G1 X146.488 Y101.341 E7.0036
G1 X146.646 Y101.507 E7.01122
G1 X146.897 Y101.78 E7.02356
G1 X147.464 Y102.422 E7.05205
G1 X147.949 Y102.989 E7.07686
G1 X148.488 Y103.674 E7.10585
G1 X148.649 Y103.897 E7.115
G1 X148.855 Y104.193 E7.127
G1 X149.318 Y104.884 E7.15466
G1 X149.683 Y105.445 E7.17692
G1 X150.108 Y106.158 E7.20453
G1 X150.237 Y106.395 E7.21351
G1 X150.419 Y106.746 E7.22666
G1 X150.825 Y107.565 E7.25706
G1 X151.09 Y108.122 E7.27757
G1 X151.408 Y108.861 E7.30433
G1 X151.511 Y109.128 E7.31385
G1 X151.645 Y109.496 E7.32688
G1 X151.907 Y110.262 E7.3538
G1 X152.141 Y110.981 E7.37895
G1 X152.38 Y111.836 E7.40848
G1 X152.499 Y112.363 E7.42645
G1 X152.667 Y113.195 E7.45468
G1 X152.797 Y113.891 E7.47823
G1 X152.925 Y114.793 E7.50853
G1 X152.979 Y115.379 E7.5281
G1 X153.034 Y116.188 E7.55507
G1 X153.073 Y116.925 E7.57962
G1 X153.083 Y117.812 E7.60912
G1 X153.061 Y118.374 E7.62783
G1 X153.015 Y119.116 E7.65256
G1 X152.951 Y119.943 E7.68015
G1 X152.847 Y120.82 E7.70952
G1 X152.701 Y121.645 E7.73738
G1 X152.584 Y122.227 E7.75713
G1 X152.443 Y122.895 E7.77984
G1 X152.225 Y123.752 E7.80925
G1 X152.159 Y123.972 E7.81689
G1 X152.057 Y124.292 E7.82806
G1 X151.783 Y125.107 E7.85666
G1 X151.539 Y125.796 E7.88097
G1 X151.221 Y126.589 E7.90938
G1 X151.118 Y126.819 E7.91777
G1 X150.973 Y127.129 E7.92915
G1 X150.606 Y127.88 E7.95695
G1 X150.275 Y128.53 E7.98121
G1 X149.849 Y129.288 E8.01013
G1 X149.699 Y129.531 E8.01963
G1 X149.522 Y129.808 E8.03056
G1 X149.068 Y130.491 E8.05784
G1 X148.652 Y131.096 E8.08226
G1 X148.129 Y131.794 E8.11127
G1 X147.96 Y132.001 E8.12016
G1 X147.741 Y132.26 E8.13144
G1 X147.182 Y132.9 E8.1597
G1 X146.724 Y133.408 E8.18245
G1 X146.151 Y133.996 E8.20976
G1 X145.972 Y134.166 E8.21797
G1 X145.703 Y134.413 E8.23012
G1 X145.033 Y135.004 E8.25983
G1 X144.482 Y135.473 E8.2839
G1 X143.822 Y135.991 E8.3118
G1 X143.609 Y136.145 E8.32054
G1 X143.31 Y136.353 E8.33266
G1 X142.618 Y136.817 E8.36037
G1 X142.059 Y137.181 E8.38256
G1 X141.334 Y137.613 E8.41063
G1 X141.102 Y137.739 E8.41941
G1 X140.761 Y137.916 E8.43219
G1 X139.935 Y138.325 E8.46284
G1 X139.378 Y138.59 E8.48336
G1 X138.639 Y138.908 E8.51012
G1 X138.372 Y139.011 E8.51963
G1 X137.999 Y139.147 E8.53284
G1 X137.233 Y139.408 E8.55975
G1 X136.513 Y139.642 E8.58493
G1 X135.677 Y139.876 E8.61381
G1 X135.436 Y139.933 E8.62205
G1 X135.092 Y140.009 E8.63376
G1 X134.246 Y140.178 E8.66246
G1 X133.601 Y140.298 E8.68428
G1 X132.709 Y140.425 E8.71425
G1 X132.109 Y140.48 E8.73429
G1 X131.271 Y140.536 E8.76222
G1 X130.816 Y140.56 E8.77737
G1 X130.463 Y140.573 E8.78912
G1 X129.072 Y140.598 E8.83539
G1 X105.563 Y140.599 E9.61731
G1 X105.061 Y140.592 E9.63401
G1 X104.712 Y140.581 E9.64562
G1 X103.605 Y140.529 E9.68248
G1 X103.271 Y140.508 E9.69361
G1 X102.546 Y140.451 E9.7178
G1 X101.67 Y140.346 E9.74714
G1 X101.431 Y140.307 E9.7552
G1 X101.107 Y140.249 E9.76614
G1 X100.267 Y140.083 E9.79462
G1 X99.596 Y139.941 E9.81743
G1 X98.736 Y139.721 E9.84696
G1 X98.218 Y139.56 E9.865
G1 X97.388 Y139.281 E9.89412
G1 X96.7 Y139.037 E9.9184
G1 X95.92 Y138.725 E9.94635
G1 X95.676 Y138.616 E9.95523
G1 X95.346 Y138.462 E9.96735
G1 X94.566 Y138.079 E9.99625
G1 X93.959 Y137.769 E10.01892
G1 X93.207 Y137.346 E10.04761
G1 X92.953 Y137.189 E10.05755
G1 X92.669 Y137.007 E10.06877
G1 X91.988 Y136.554 E10.09597
G1 X91.406 Y136.154 E10.11946
G1 X90.681 Y135.608 E10.14964
G1 X90.241 Y135.241 E10.1687
G1 X89.606 Y134.687 E10.19673
G1 X89.095 Y134.227 E10.2196
G1 X88.477 Y133.623 E10.24834
G1 X88.087 Y133.203 E10.2674
G1 X87.496 Y132.533 E10.29712
G1 X87.027 Y131.982 E10.32118
G1 X86.509 Y131.322 E10.34909
G1 X86.355 Y131.109 E10.35783
G1 X86.147 Y130.81 E10.36994
G1 X85.675 Y130.106 E10.39814
G1 X85.303 Y129.533 E10.42086
G1 X84.85 Y128.767 E10.45046
G1 X84.587 Y128.266 E10.46928
G1 X84.175 Y127.435 E10.50013
G1 X83.91 Y126.878 E10.52064
G1 X83.605 Y126.171 E10.54625
G1 X83.501 Y125.904 E10.55578
G1 X83.347 Y125.484 E10.57066
G1 X83.091 Y124.729 E10.59718
G1 X82.857 Y124.008 E10.62239
G1 X82.624 Y123.178 E10.65106
G1 X82.566 Y122.933 E10.65944
G1 X82.49 Y122.587 E10.67122
G1 X82.32 Y121.734 E10.70015
G1 X82.198 Y121.074 E10.72247
G1 X82.073 Y120.198 E10.7519
G1 X82.046 Y119.927 E10.76096
G1 X82.018 Y119.593 E10.77211
G1 X81.961 Y118.735 E10.80071
G1 X81.926 Y118.064 E10.82305
G1 X81.917 Y117.175 E10.85262
G1 X81.926 Y116.892 E10.86204
G1 X81.941 Y116.58 E10.87243
G1 X81.989 Y115.815 E10.89793
G1 X82.049 Y115.048 E10.92351
G1 X82.148 Y114.215 E10.95141
G1 X82.184 Y113.988 E10.95906
G1 X82.25 Y113.612 E10.97176
G1 X82.424 Y112.733 E11.00156
G1 X82.563 Y112.081 E11.02373
G1 X82.77 Y111.27 E11.05157
G1 X82.938 Y110.722 E11.07063
G1 X83.221 Y109.881 E11.10015
G1 X83.466 Y109.192 E11.12447
G1 X83.775 Y108.42 E11.15213
G1 X83.884 Y108.176 E11.16101
G1 X84.04 Y107.842 E11.17328
G1 X84.437 Y107.034 E11.20322
G1 X84.733 Y106.455 E11.22485
G1 X85.154 Y105.707 E11.2534
G1 X85.311 Y105.453 E11.26333
G1 X85.493 Y105.169 E11.27455
G1 X85.946 Y104.488 E11.30175
G1 X86.346 Y103.906 E11.32524
G1 X86.886 Y103.187 E11.35515
G1 X87.064 Y102.97 E11.36448
G1 X87.266 Y102.732 E11.37486
G1 X87.827 Y102.09 E11.40322
G1 X88.278 Y101.59 E11.42562
G1 X88.844 Y101.009 E11.45259
G1 X89.028 Y100.834 E11.46104
G1 X89.307 Y100.578 E11.47363
G1 X89.961 Y100.001 E11.50264
G1 X90.51 Y99.533 E11.52664
G1 X91.188 Y99.002 E11.55528
G1 X91.403 Y98.847 E11.56409
G1 X91.69 Y98.647 E11.57573
G1 X92.39 Y98.178 E11.60375
G1 X92.964 Y97.805 E11.62652
G1 X93.732 Y97.351 E11.6562
G1 X94.239 Y97.084 E11.67525
G1 X95.064 Y96.675 E11.70588
G1 X95.623 Y96.409 E11.72647
G1 X96.338 Y96.101 E11.75236
G1 X96.603 Y95.998 E11.76182
G1 X97.021 Y95.846 E11.77661
G1 X97.764 Y95.593 E11.80272
G1 X98.483 Y95.359 E11.82787
G1 X99.323 Y95.124 E11.85688
G1 X99.564 Y95.067 E11.86512
G1 X99.908 Y94.991 E11.87683
G1 X100.754 Y94.822 E11.90553
G1 X101.399 Y94.702 E11.92735
G1 X102.291 Y94.575 E11.95732
G1 X102.891 Y94.52 E11.97735
G1 X103.729 Y94.464 E12.00529
G1 X104.184 Y94.44 E12.02044
G1 X104.537 Y94.427 E12.03219
G1 X105.928 Y94.402 E12.07846
G1 X129.437 Y94.401 E12.86038
G1 X130.288 Y94.419 E12.88869
G0 F6000 X130.307 Y94.019
G1 F1200 X131.414 Y94.071 E12.92555
G1 X131.759 Y94.093 E12.93705
G1 X132.485 Y94.15 E12.96127
G1 X133.403 Y94.261 E12.99202
G1 X133.641 Y94.3 E13.00004
G1 X133.97 Y94.359 E13.01116
G1 X134.815 Y94.525 E13.0398
G1 X135.486 Y94.667 E13.06261
G1 X136.379 Y94.896 E13.09328
G1 X136.908 Y95.06 E13.1117
G1 X137.748 Y95.342 E13.14117
G1 X138.43 Y95.584 E13.16524
G1 X139.215 Y95.897 E13.19335
G1 X139.465 Y96.008 E13.20244
G1 X139.83 Y96.178 E13.21584
G1 X140.616 Y96.565 E13.24497
G1 X141.223 Y96.875 E13.26764
G1 X142.004 Y97.314 E13.29744
G1 X142.258 Y97.471 E13.30737
G1 X142.552 Y97.66 E13.319
G1 X143.238 Y98.117 E13.34642
G1 X143.82 Y98.517 E13.3699
G1 X144.573 Y99.083 E13.40123
G1 X145.022 Y99.457 E13.42067
G1 X145.668 Y100.021 E13.44919
G1 X146.176 Y100.479 E13.47194
G1 X146.778 Y101.065 E13.49988
G1 X146.936 Y101.231 E13.50751
G1 X147.196 Y101.514 E13.52029
G1 X147.768 Y102.162 E13.54904
G1 X148.253 Y102.729 E13.57385
G1 X148.813 Y103.44 E13.60396
G1 X148.974 Y103.663 E13.6131
G1 X149.188 Y103.97 E13.62555
G1 X149.653 Y104.666 E13.65339
G1 X150.018 Y105.227 E13.67565
G1 X150.46 Y105.967 E13.70432
G1 X150.589 Y106.204 E13.71329
