;FLAVOR:Marlin
;TIME:1843
;Filament used: 1.27752m
;Layer height: 0.2
;MINX:87.877
;MINY:92.877
;MINZ:0.2
;MAXX:147.123
;MAXY:142.123
;MAXZ:7
;Generated with Cura_SteamEngine 4.6.2
M140 S50
M105
M190 S50
M104 S200
M105
M109 S200
M82 ;absolute extrusion mode
; Ender 3 Custom Start G-code
G92 E0 ; Reset Extruder
G28 ; Home all axes
G1 Z2.0 F3000 ; Move Z Axis up little to prevent scratching of Heat Bed
G1 X0.1 Y20 Z0.3 F5000.0 ; Move to start position
G1 X0.1 Y200.0 Z0.3 F1500.0 E15 ; Draw the first line
G1 X0.4 Y200.0 Z0.3 F5000.0 ; Move to side a little
G1 X0.4 Y20 Z0.3 F1500.0 E30 ; Draw the second line
G92 E0 ; Reset Extruder
G1 Z2.0 F3000 ; Move Z Axis up little to prevent scratching of Heat Bed
G1 X5 Y20 Z0.3 F5000.0 ; Move over to prevent blob squish
G92 E0
G92 E0
G1 F2700 E-5
;LAYER_COUNT:35
;LAYER:0
M107
G0 F6000 X133.641 Y93.687 Z0.2
;TYPE:SKIRT
G1 F2700 E0
G1 F1200 X134.253 Y93.714 E0.02038
G1 X134.629 Y93.742 E0.03292
G1 X135.526 Y93.849 E0.06296
G1 X135.975 Y93.933 E0.07815
G1 X136.312 Y94.004 E0.08961
G1 X137.186 Y94.229 E0.11963
G1 X137.633 Y94.377 E0.13529
G1 X137.894 Y94.47 E0.1445
G1 X138.924 Y94.902 E0.18165
G1 X139.231 Y95.051 E0.193
G1 X139.991 Y95.46 E0.22171
G1 X140.181 Y95.573 E0.22906
G1 X141.13 Y96.212 E0.26711
G1 X141.341 Y96.372 E0.27592
G1 X142.238 Y97.138 E0.31515
G1 X142.482 Y97.372 E0.3264
G1 X143.106 Y98.026 E0.35646
G1 X143.396 Y98.374 E0.37153
G1 X143.597 Y98.626 E0.38225
G1 X144.13 Y99.358 E0.41237
G1 X144.261 Y99.556 E0.42026
G1 X144.751 Y100.379 E0.45212
G1 X144.853 Y100.57 E0.45932
G1 X145.326 Y101.587 E0.49663
G1 X145.444 Y101.882 E0.50719
G1 X145.849 Y103.115 E0.55036
G1 X145.938 Y103.459 E0.56218
G1 X146.149 Y104.49 E0.59718
G1 X146.183 Y104.715 E0.60475
G1 X146.277 Y105.595 E0.63418
G1 X146.315 Y106.382 E0.66039
G1 X146.323 Y106.986 E0.68048
G1 X146.323 Y127.937 E1.37731
G1 X146.313 Y128.637 E1.4006
G1 X146.288 Y129.224 E1.42014
G1 X146.261 Y129.599 E1.43264
G1 X146.156 Y130.496 E1.46268
G1 X146.069 Y130.961 E1.47842
G1 X145.997 Y131.304 E1.49007
G1 X145.773 Y132.179 E1.52011
G1 X145.621 Y132.64 E1.53626
G1 X145.526 Y132.906 E1.54565
G1 X145.091 Y133.939 E1.58293
G1 X144.944 Y134.241 E1.59411
G1 X144.54 Y134.991 E1.62244
G1 X144.427 Y135.181 E1.62979
G1 X143.788 Y136.13 E1.66784
G1 X143.628 Y136.341 E1.67665
G1 X142.861 Y137.239 E1.71593
G1 X142.626 Y137.484 E1.72722
G1 X141.973 Y138.107 E1.75724
G1 X141.621 Y138.4 E1.77247
G1 X141.37 Y138.6 E1.78315
G1 X140.642 Y139.13 E1.8131
G1 X140.444 Y139.261 E1.82099
G1 X139.621 Y139.751 E1.85285
G1 X139.43 Y139.853 E1.86005
G1 X138.413 Y140.326 E1.89736
G1 X138.118 Y140.444 E1.90793
G1 X136.868 Y140.853 E1.95167
G1 X136.506 Y140.946 E1.9641
G1 X135.356 Y141.172 E2.00308
G1 X135.123 Y141.204 E2.0109
G1 X134.329 Y141.282 E2.03744
G1 X133.632 Y141.315 E2.06065
G1 X133.013 Y141.323 E2.08124
G1 X102.062 Y141.323 E3.11067
G1 X101.36 Y141.313 E3.13402
G1 X100.75 Y141.286 E3.15433
G1 X100.373 Y141.258 E3.16691
G1 X99.476 Y141.151 E3.19695
G1 X99.025 Y141.067 E3.21221
G1 X98.688 Y140.996 E3.22366
G1 X97.814 Y140.771 E3.25368
G1 X97.36 Y140.621 E3.26958
G1 X97.094 Y140.526 E3.27898
G1 X96.061 Y140.091 E3.31626
G1 X95.759 Y139.944 E3.32743
G1 X94.975 Y139.519 E3.35709
G1 X94.775 Y139.399 E3.36485
G1 X93.845 Y138.769 E3.40221
G1 X93.644 Y138.616 E3.41061
G1 X92.757 Y137.857 E3.44944
G1 X92.505 Y137.615 E3.46106
G1 X91.882 Y136.961 E3.4911
G1 X91.583 Y136.602 E3.50664
G1 X91.386 Y136.354 E3.51718
G1 X90.846 Y135.607 E3.54783
G1 X90.718 Y135.412 E3.55559
G1 X90.237 Y134.6 E3.58698
G1 X90.135 Y134.408 E3.59421
G1 X89.668 Y133.4 E3.63116
G1 X89.55 Y133.104 E3.64176
G1 X89.144 Y131.859 E3.68531
G1 X89.052 Y131.5 E3.69764
G1 X88.827 Y130.35 E3.73662
G1 X88.795 Y130.116 E3.74447
G1 X88.718 Y129.328 E3.7708
G1 X88.685 Y128.614 E3.79458
G1 X88.677 Y128.012 E3.8146
G1 X88.677 Y107.064 E4.51134
G1 X88.687 Y106.357 E4.53485
G1 X88.715 Y105.737 E4.55549
G1 X88.743 Y105.364 E4.56794
G1 X88.933 Y104.025 E4.61292
G1 X89.004 Y103.688 E4.62437
G1 X89.229 Y102.814 E4.65439
G1 X89.381 Y102.356 E4.67044
G1 X89.479 Y102.082 E4.68012
G1 X89.923 Y101.03 E4.7181
G1 X90.067 Y100.736 E4.72898
G1 X90.46 Y100.009 E4.75647
G1 X90.573 Y99.819 E4.76382
G1 X91.212 Y98.87 E4.80188
G1 X91.372 Y98.659 E4.81068
G1 X92.139 Y97.761 E4.84996
G1 X92.374 Y97.516 E4.86125
G1 X93.367 Y96.609 E4.90599
G1 X93.621 Y96.406 E4.9168
G1 X94.392 Y95.847 E4.94847
G1 X94.587 Y95.719 E4.95623
G1 X95.379 Y95.249 E4.98686
G1 X95.57 Y95.147 E4.99407
G1 X96.587 Y94.674 E5.03137
G1 X96.882 Y94.556 E5.04194
G1 X98.132 Y94.147 E5.08568
G1 X98.494 Y94.054 E5.09811
G1 X99.644 Y93.828 E5.13709
G1 X99.877 Y93.796 E5.14492
G1 X100.671 Y93.718 E5.17145
G1 X101.368 Y93.685 E5.19466
G1 X101.987 Y93.677 E5.21525
G1 X132.938 Y93.677 E6.24468
G1 X133.641 Y93.687 E6.26807
G0 F6000 X133.647 Y93.287
G1 F1200 X134.283 Y93.315 E6.28924
G1 X134.659 Y93.343 E6.30178
G1 X135.573 Y93.451 E6.33239
G1 X136.057 Y93.542 E6.34877
G1 X136.394 Y93.613 E6.36023
G1 X137.286 Y93.841 E6.39085
G1 X137.767 Y94 E6.4077
G1 X138.028 Y94.093 E6.41692
G1 X139.098 Y94.542 E6.45551
G1 X139.405 Y94.691 E6.46686
G1 X140.195 Y95.116 E6.4967
G1 X140.385 Y95.229 E6.50405
G1 X141.372 Y95.894 E6.54363
G1 X141.583 Y96.054 E6.55244
G1 X142.515 Y96.85 E6.59321
G1 X142.759 Y97.084 E6.60445
G1 X143.395 Y97.749 E6.63506
G1 X143.709 Y98.124 E6.65132
G1 X143.91 Y98.376 E6.66204
G1 X144.463 Y99.137 E6.69333
G1 X144.594 Y99.335 E6.70123
G1 X145.104 Y100.191 E6.73437
G1 X145.206 Y100.382 E6.74157
G1 X145.698 Y101.438 E6.78032
G1 X145.816 Y101.733 E6.79089
G1 X146.236 Y103.015 E6.83576
G1 X146.325 Y103.359 E6.84757
G1 X146.544 Y104.43 E6.88393
G1 X146.578 Y104.655 E6.8915
G1 X146.676 Y105.57 E6.92211
G1 X146.715 Y106.369 E6.94872
G1 X146.723 Y106.985 E6.96921
G1 X146.723 Y127.942 E7.66624
G1 X146.713 Y128.642 E7.68952
G1 X146.687 Y129.252 E7.70983
G1 X146.66 Y129.627 E7.72233
G1 X146.554 Y130.542 E7.75297
G1 X146.461 Y131.044 E7.76995
G1 X146.389 Y131.387 E7.78161
G1 X146.161 Y132.279 E7.81223
G1 X145.997 Y132.774 E7.82957
G1 X145.902 Y133.04 E7.83897
G1 X145.451 Y134.114 E7.87771
G1 X145.304 Y134.416 E7.88888
G1 X144.884 Y135.195 E7.91832
G1 X144.771 Y135.385 E7.92567
G1 X144.106 Y136.372 E7.96526
G1 X143.946 Y136.583 E7.97406
G1 X143.15 Y137.516 E8.01485
G1 X142.915 Y137.761 E8.02614
G1 X142.249 Y138.397 E8.05677
G1 X141.871 Y138.713 E8.07316
G1 X141.62 Y138.913 E8.08384
G1 X140.863 Y139.463 E8.11496
G1 X140.665 Y139.594 E8.12285
G1 X139.809 Y140.104 E8.15599
G1 X139.618 Y140.206 E8.1632
G1 X138.562 Y140.698 E8.20194
G1 X138.267 Y140.816 E8.21251
G1 X136.968 Y141.241 E8.25797
G1 X136.606 Y141.334 E8.2704
G1 X135.41 Y141.568 E8.31093
G1 X135.177 Y141.6 E8.31876
G1 X134.352 Y141.681 E8.34633
G1 X133.647 Y141.714 E8.3698
G1 X133.013 Y141.723 E8.39089
G1 X102.056 Y141.723 E9.42053
G1 X101.354 Y141.713 E9.44388
G1 X100.72 Y141.685 E9.46498
G1 X100.343 Y141.657 E9.47756
G1 X99.429 Y141.549 E9.50817
G1 X98.943 Y141.458 E9.52461
G1 X98.606 Y141.387 E9.53607
G1 X97.714 Y141.159 E9.56669
G1 X97.226 Y140.997 E9.58379
G1 X96.96 Y140.902 E9.59319
G1 X95.886 Y140.451 E9.63193
G1 X95.584 Y140.304 E9.6431
G1 X94.769 Y139.862 E9.67394
G1 X94.569 Y139.742 E9.6817
G1 X93.603 Y139.087 E9.72051
G1 X93.402 Y138.934 E9.72892
G1 X92.48 Y138.145 E9.76928
G1 X92.228 Y137.903 E9.7809
G1 X91.592 Y137.238 E9.8115
G1 X91.27 Y136.851 E9.82825
G1 X91.073 Y136.603 E9.83878
G1 X90.512 Y135.827 E9.87063
G1 X90.384 Y135.632 E9.87839
G1 X89.884 Y134.788 E9.91102
G1 X89.782 Y134.596 E9.91825
G1 X89.297 Y133.548 E9.95666
G1 X89.179 Y133.252 E9.96725
G1 X88.757 Y131.958 E10.01252
G1 X88.665 Y131.599 E10.02485
G1 X88.431 Y130.404 E10.06535
G1 X88.399 Y130.17 E10.07321
G1 X88.319 Y129.351 E10.10058
G1 X88.285 Y128.627 E10.12468
G1 X88.277 Y128.013 E10.14511
G1 X88.277 Y107.058 E10.84207
G1 X88.287 Y106.351 E10.86559
G1 X88.316 Y105.708 E10.887
G1 X88.344 Y105.335 E10.89944
G1 X88.452 Y104.42 E10.93008
G1 X88.542 Y103.943 E10.94623
G1 X88.613 Y103.606 E10.95768
G1 X88.841 Y102.714 E10.9883
G1 X89.004 Y102.221 E11.00557
G1 X89.102 Y101.947 E11.01525
G1 X89.564 Y100.854 E11.05472
G1 X89.708 Y100.56 E11.06561
G1 X90.116 Y99.805 E11.09415
G1 X90.229 Y99.615 E11.1015
G1 X90.894 Y98.628 E11.14109
G1 X91.054 Y98.417 E11.1499
G1 X91.85 Y97.484 E11.19069
G1 X92.085 Y97.239 E11.20198
G1 X92.751 Y96.603 E11.23261
G1 X93.117 Y96.297 E11.24847
G1 X93.371 Y96.094 E11.25929
G1 X94.172 Y95.513 E11.2922
G1 X94.367 Y95.385 E11.29996
G1 X95.191 Y94.896 E11.33183
G1 X95.382 Y94.794 E11.33903
G1 X96.438 Y94.302 E11.37778
G1 X96.733 Y94.184 E11.38835
G1 X98.032 Y93.759 E11.4338
G1 X98.394 Y93.666 E11.44623
G1 X99.59 Y93.432 E11.48677
G1 X99.823 Y93.4 E11.49459
G1 X100.648 Y93.319 E11.52216
G1 X101.353 Y93.286 E11.54564
G1 X101.987 Y93.277 E11.56673
G1 X132.944 Y93.277 E12.59636
G1 X133.647 Y93.287 E12.61974
G0 F6000 X133.652 Y92.887
G1 F1200 X134.313 Y92.916 E12.64175
G1 X134.689 Y92.944 E12.65429
G1 X135.62 Y93.054 E12.68547
G1 X136.14 Y93.15 E12.70306
G1 X136.477 Y93.221 E12.71451
G1 X137.385 Y93.454 E12.74569
G1 X137.901 Y93.623 E12.76375
G1 X138.162 Y93.716 E12.77297
G1 X139.273 Y94.182 E12.81304
G1 X139.58 Y94.331 E12.82439
G1 X140.4 Y94.773 E12.85537
G1 X140.59 Y94.886 E12.86272
G1 X141.613 Y95.575 E12.90375
G1 X141.824 Y95.735 E12.91255
G1 X142.792 Y96.561 E12.95488
G1 X143.036 Y96.795 E12.96612
G1 X143.684 Y97.472 E12.99729
G1 X144.022 Y97.875 E13.01478
G1 X144.223 Y98.127 E13.02551
G1 X144.797 Y98.916 E13.05796
G1 X144.928 Y99.114 E13.06585
G1 X145.457 Y100.002 E13.10023
G1 X145.559 Y100.193 E13.10743
G1 X146.069 Y101.29 E13.14767
G1 X146.187 Y101.585 E13.15824
G1 X146.623 Y102.915 E13.20479
G1 X146.712 Y103.259 E13.21661
G1 X146.94 Y104.37 E13.25433
G1 X146.974 Y104.595 E13.2619
G1 X147.075 Y105.545 E13.29368
G1 X147.107 Y106.119 E13.3128
G1 X147.123 Y106.985 E13.3416
G1 X147.123 Y127.948 E14.03884
G1 X147.113 Y128.648 E14.06212
G1 X147.086 Y129.281 E14.08319
G1 X147.059 Y129.656 E14.0957
G1 X146.951 Y130.588 E14.1269
G1 X146.852 Y131.126 E14.1451
G1 X146.78 Y131.469 E14.15676
G1 X146.549 Y132.378 E14.18795
G1 X146.374 Y132.909 E14.20655
G1 X146.279 Y133.175 E14.21594
G1 X145.811 Y134.289 E14.25613
G1 X145.664 Y134.591 E14.2673
G1 X145.227 Y135.4 E14.29788
G1 X145.114 Y135.59 E14.30524
G1 X144.425 Y136.613 E14.34626
G1 X144.265 Y136.824 E14.35507
G1 X143.438 Y137.792 E14.39741
G1 X143.203 Y138.037 E14.4087
G1 X142.526 Y138.686 E14.43989
G1 X142.12 Y139.026 E14.45751
G1 X141.869 Y139.226 E14.46818
G1 X141.084 Y139.797 E14.50047
G1 X140.886 Y139.928 E14.50836
G1 X139.998 Y140.457 E14.54274
G1 X139.807 Y140.559 E14.54994
G1 X138.71 Y141.069 E14.59018
G1 X138.415 Y141.187 E14.60075
G1 X137.53 Y141.498 E14.63195
G1 X137.067 Y141.628 E14.64794
G1 X136.705 Y141.721 E14.66037
G1 X135.465 Y141.965 E14.70241
G1 X135.232 Y141.997 E14.71023
G1 X134.376 Y142.08 E14.73883
G1 X133.661 Y142.114 E14.76264
G1 X133.013 Y142.123 E14.7842
G1 X102.05 Y142.123 E15.81403
G1 X101.348 Y142.113 E15.83738
G1 X100.69 Y142.084 E15.85929
G1 X100.313 Y142.056 E15.87186
G1 X99.382 Y141.947 E15.90304
G1 X98.86 Y141.85 E15.9207
G1 X98.523 Y141.779 E15.93215
G1 X97.615 Y141.546 E15.96333
G1 X97.091 Y141.374 E15.98167
G1 X96.825 Y141.279 E15.99107
G1 X95.711 Y140.811 E16.03126
G1 X95.409 Y140.664 E16.04243
G1 X94.564 Y140.205 E16.07441
G1 X94.364 Y140.085 E16.08217
G1 X93.36 Y139.406 E16.12248
G1 X93.159 Y139.253 E16.13088
G1 X92.203 Y138.434 E16.17275
G1 X91.951 Y138.192 E16.18437
G1 X91.303 Y137.514 E16.21557
G1 X90.957 Y137.1 E16.23351
G1 X90.76 Y136.852 E16.24405
G1 X90.177 Y136.046 E16.27713
G1 X90.049 Y135.851 E16.28489
G1 X89.531 Y134.976 E16.31871
G1 X89.429 Y134.784 E16.32594
G1 X88.925 Y133.696 E16.36582
G1 X88.807 Y133.4 E16.37642
G1 X88.497 Y132.515 E16.40761
G1 X88.369 Y132.058 E16.4234
G1 X88.277 Y131.699 E16.43572
G1 X88.034 Y130.458 E16.47778
G1 X88.002 Y130.224 E16.48564
G1 X87.92 Y129.375 E16.51401
G1 X87.886 Y128.641 E16.53845
G1 X87.877 Y128.013 E16.55933
G1 X87.877 Y107.052 E17.2565
G1 X87.887 Y106.345 E17.28002
G1 X87.917 Y105.678 E17.30222
G1 X87.945 Y105.305 E17.31467
G1 X88.055 Y104.373 E17.34588
G1 X88.15 Y103.86 E17.36323
G1 X88.221 Y103.523 E17.37469
G1 X88.454 Y102.615 E17.40586
G1 X88.628 Y102.087 E17.42436
G1 X88.726 Y101.813 E17.43403
G1 X89.204 Y100.678 E17.475
G1 X89.348 Y100.384 E17.48588
G1 X89.773 Y99.6 E17.51554
G1 X89.886 Y99.41 E17.5229
G1 X90.575 Y98.387 E17.56392
G1 X90.735 Y98.176 E17.57273
G1 X91.562 Y97.208 E17.61507
G1 X91.797 Y96.963 E17.62636
G1 X92.474 Y96.314 E17.65756
G1 X92.867 Y95.984 E17.67463
G1 X93.121 Y95.781 E17.68544
G1 X93.953 Y95.178 E17.71962
G1 X94.148 Y95.05 E17.72737
G1 X95.002 Y94.543 E17.76041
G1 X95.193 Y94.441 E17.76761
G1 X96.29 Y93.931 E17.80785
G1 X96.585 Y93.813 E17.81841
G1 X97.47 Y93.502 E17.84961
G1 X97.933 Y93.372 E17.86561
G1 X98.295 Y93.279 E17.87804
G1 X99.535 Y93.035 E17.92007
G1 X99.768 Y93.003 E17.92789
G1 X100.624 Y92.92 E17.9565
G1 X101.339 Y92.886 E17.98031
G1 X101.987 Y92.877 E18.00186
G1 X132.949 Y92.877 E19.03166
G1 X133.652 Y92.887 E19.05505
G1 F2700 E14.05505
;MESH:coupelle_kelly.STL
G0 F6000 X133.494 Y103.212
G0 X133.495 Y104.296
G0 X134.709 Y105.099
G0 X135.181 Y105.725
G0 X135.352 Y106.508
G0 X135.333 Y128.751
G0 X135.061 Y129.49
G0 X134.787 Y129.813
G0 X133.793 Y130.5
;TYPE:WALL-INNER
G1 F2700 E19.05505
G1 F1200 X133.489 Y130.523 E19.06519
G1 X101.518 Y130.524 E20.12855
G1 X101.222 Y130.502 E20.13842
G1 X100.936 Y130.441 E20.14814
G1 X100.666 Y130.341 E20.15772
G1 X100.414 Y130.204 E20.16726
G1 X100.177 Y130.028 E20.17708
G1 X99.98 Y129.832 E20.18632
G1 X99.803 Y129.594 E20.19619
G1 X99.663 Y129.344 E20.20572
G1 X99.561 Y129.075 E20.21529
G1 X99.5 Y128.793 E20.22488
G1 X99.477 Y128.491 E20.23496
G1 X99.476 Y106.517 E20.96581
G1 X99.498 Y106.222 E20.97565
G1 X99.559 Y105.936 E20.98538
G1 X99.66 Y105.664 E20.99503
G1 X99.796 Y105.414 E21.00449
G1 X99.972 Y105.177 E21.01431
G1 X100.173 Y104.975 E21.02379
G1 X100.4 Y104.806 E21.0332
G1 X100.658 Y104.662 E21.04303
G1 X100.925 Y104.561 E21.05253
G1 X101.207 Y104.5 E21.06212
G1 X101.511 Y104.477 E21.07226
G1 X133.482 Y104.476 E22.13562
G1 X133.778 Y104.498 E22.14549
G1 X134.064 Y104.559 E22.15522
G1 X134.334 Y104.659 E22.1648
G1 X134.589 Y104.798 E22.17446
G1 X134.819 Y104.968 E22.18397
G1 X135.023 Y105.171 E22.19354
G1 X135.194 Y105.4 E22.20305
G1 X135.337 Y105.655 E22.21277
G1 X135.438 Y105.924 E22.22233
G1 X135.5 Y106.207 E22.23196
G1 X135.523 Y106.509 E22.24204
G1 X135.524 Y128.478 E22.97273
G1 X135.502 Y128.777 E22.9827
G1 X135.441 Y129.063 E22.99243
G1 X135.342 Y129.331 E23.00193
G1 X135.203 Y129.586 E23.01159
G1 X135.027 Y129.824 E23.02143
G1 X134.832 Y130.02 E23.03063
G1 X134.594 Y130.197 E23.04049
G1 X134.344 Y130.337 E23.05002
G1 X134.075 Y130.439 E23.05959
G1 X133.793 Y130.5 E23.06919
G0 F6000 X133.851 Y130.897
;TYPE:WALL-OUTER
G1 F1200 X133.506 Y130.923 E23.0807
G1 X101.501 Y130.924 E24.14519
G1 X101.169 Y130.899 E24.15626
G1 X100.823 Y130.826 E24.16802
G1 X100.502 Y130.707 E24.17941
G1 X100.195 Y130.54 E24.19103
G1 X99.919 Y130.335 E24.20247
G1 X99.674 Y130.091 E24.21397
G1 X99.468 Y129.815 E24.22542
G1 X99.299 Y129.512 E24.23696
G1 X99.176 Y129.188 E24.24849
G1 X99.103 Y128.851 E24.25996
G1 X99.077 Y128.508 E24.2714
G1 X99.076 Y106.5 E25.00339
G1 X99.101 Y106.169 E25.01443
G1 X99.174 Y105.823 E25.02619
G1 X99.294 Y105.5 E25.03765
G1 X99.46 Y105.195 E25.0492
G1 X99.665 Y104.919 E25.06063
G1 X99.91 Y104.673 E25.07218
G1 X100.187 Y104.466 E25.08368
G1 X100.488 Y104.299 E25.09513
G1 X100.812 Y104.176 E25.10666
G1 X101.149 Y104.103 E25.11813
