;FLAVOR:Marlin
;TIME:1656
;Filament used: 1.20648m
;Layer height: 0.25
;MINX:90.923
;MINY:71.562
;MINZ:0.2
;MAXX:133.08
;MAXY:148.44
;MAXZ:63.95
;Generated with Cura_SteamEngine 4.6.1
M140 S60
M105
M190 S60
M104 S235
M105
M109 S235
M82 ;absolute extrusion mode
; Ender 3 Custom Start G-code
G92 E0 ; Reset Extruder
G28 ; Home all axes
G1 Z2.0 F3000 ; Move Z Axis up little to prevent scratching of Heat Bed
G1 X0.1 Y20 Z0.3 F5000.0 ; Move to start position
G1 X0.1 Y200.0 Z0.3 F1500.0 E15 ; Draw the first line
G1 X0.4 Y200.0 Z0.3 F5000.0 ; Move to side a little
G1 X0.4 Y20 Z0.3 F1500.0 E30 ; Draw the second line
G92 E0 ; Reset Extruder
G1 Z2.0 F3000 ; Move Z Axis up little to prevent scratching of Heat Bed
G1 X5 Y20 Z0.3 F5000.0 ; Move over to prevent blob squish
G92 E0
G92 E0
G1 F3000 E-1
;LAYER_COUNT:256
;LAYER:0
M107
G0 F6000 X100.209 Y83.507 Z0.2
;TYPE:SKIRT
G1 F3000 E0.20788
G1 F1200 X100.709 Y82.917 E0.22151
G1 X101.24 Y82.32 E0.23559
G1 X101.763 Y81.764 E0.24905
G1 X102.312 Y81.209 E0.26281
G1 X102.89 Y80.653 E0.27695
G1 X103.458 Y80.137 E0.29048
G1 X104.046 Y79.631 E0.30415
G1 X104.671 Y79.118 E0.3184
G1 X105.269 Y78.658 E0.3317
G1 X105.912 Y78.186 E0.34576
G1 X106.569 Y77.732 E0.35984
G1 X107.164 Y77.345 E0.37235
G1 X107.821 Y76.94 E0.38596
G1 X108.421 Y76.595 E0.39816
G1 X109.101 Y76.221 E0.41184
G1 X109.722 Y75.905 E0.42412
G1 X110.407 Y75.573 E0.43754
G1 X111.091 Y75.266 E0.45076
G1 X111.747 Y74.993 E0.46328
G1 X112.454 Y74.718 E0.47665
G1 X113.132 Y74.476 E0.48934
G1 X113.838 Y74.244 E0.50244
G1 X114.527 Y74.037 E0.51513
G1 X115.248 Y73.839 E0.52831
G1 X115.957 Y73.665 E0.54118
G1 X117.15 Y73.398 E0.56273
G1 X118.5 Y73.11 E0.58706
G1 X119.766 Y72.862 E0.6098
G1 X121.008 Y72.635 E0.63206
G1 X122.355 Y72.407 E0.65614
G1 X123.654 Y72.206 E0.67931
G1 X124.898 Y72.031 E0.70146
G1 X126.24 Y71.859 E0.72531
G1 X127.501 Y71.715 E0.74768
G1 X128.8 Y71.579 E0.7707
G1 X129.351 Y71.562 E0.78042
G1 X129.898 Y71.625 E0.79013
G1 X130.431 Y71.766 E0.79985
G1 X130.938 Y71.983 E0.80957
G1 X131.407 Y72.271 E0.81927
G1 X131.831 Y72.624 E0.82899
G1 X132.199 Y73.034 E0.83871
G1 X132.503 Y73.493 E0.84841
G1 X132.738 Y73.991 E0.85812
G1 X132.899 Y74.518 E0.86783
G1 X132.973 Y74.968 E0.87587
G1 X133.061 Y75.818 E0.89093
G1 X133.078 Y76.368 E0.90063
G1 X133.015 Y76.916 E0.91036
G1 X132.873 Y77.448 E0.92006
G1 X132.656 Y77.955 E0.92979
G1 X132.368 Y78.425 E0.9395
G1 X132.015 Y78.848 E0.94921
G1 X131.605 Y79.215 E0.95891
G1 X131.146 Y79.52 E0.96863
G1 X130.647 Y79.755 E0.97835
G1 X130.12 Y79.915 E0.98806
G1 X129.68 Y79.988 E0.99592
G1 X127.687 Y80.2 E1.03125
G1 X126.933 Y81.446 E1.05693
G1 X126.458 Y82.163 E1.07209
G1 X126.27 Y82.422 E1.07773
G1 X125.736 Y83.097 E1.0929
G1 X125.523 Y83.343 E1.09864
G1 X124.932 Y83.971 E1.11384
G1 X124.702 Y84.196 E1.11951
G1 X124.062 Y84.77 E1.13467
G1 X123.806 Y84.98 E1.1405
G1 X123.117 Y85.497 E1.15569
G1 X122.858 Y85.676 E1.16124
G1 X122.129 Y86.134 E1.17641
G1 X121.842 Y86.297 E1.18223
G1 X121.074 Y86.691 E1.19745
G1 X120.786 Y86.824 E1.20304
G1 X119.992 Y87.151 E1.21818
G1 X119.678 Y87.264 E1.22406
G1 X118.787 Y87.542 E1.24051
G1 X118.058 Y87.755 E1.2539
G1 X117.449 Y87.963 E1.26524
G1 X116.988 Y88.142 E1.27396
G1 X116.386 Y88.405 E1.28554
G1 X115.754 Y88.716 E1.29796
G1 X115.376 Y88.921 E1.30554
G1 X114.896 Y89.208 E1.3154
G1 X114.16 Y89.693 E1.33094
G1 X113.38 Y90.281 E1.34815
G1 X112.644 Y90.914 E1.36527
G1 X111.953 Y91.592 E1.38233
G1 X111.279 Y92.338 E1.40005
G1 X110.674 Y93.098 E1.41718
G1 X110.084 Y93.937 E1.43526
G1 X109.571 Y94.772 E1.45253
G1 X109.088 Y95.676 E1.4706
G1 X108.453 Y97.026 E1.4969
G1 X107.858 Y98.442 E1.52398
G1 X107.333 Y99.852 E1.5505
G1 X106.873 Y101.278 E1.57691
G1 X106.479 Y102.714 E1.60316
G1 X106.138 Y104.227 E1.6305
G1 X106.018 Y104.872 E1.64207
G1 X105.896 Y105.622 E1.65546
G1 X105.752 Y106.708 E1.67477
G1 X105.647 Y107.816 E1.69439
G1 X105.584 Y108.916 E1.71381
G1 X105.563 Y110.001 E1.73294
G1 X105.583 Y111.079 E1.75195
G1 X105.647 Y112.193 E1.77162
G1 X105.751 Y113.287 E1.79099
G1 X105.894 Y114.372 E1.81028
G1 X106.015 Y115.115 E1.82355
G1 X106.148 Y115.816 E1.83613
G1 X106.475 Y117.273 E1.86245
G1 X106.872 Y118.721 E1.88892
G1 X107.331 Y120.143 E1.91526
G1 X107.859 Y121.565 E1.942
G1 X108.446 Y122.958 E1.96865
G1 X109.095 Y124.338 E1.99553
G1 X109.568 Y125.222 E2.0132
G1 X110.09 Y126.072 E2.03079
G1 X110.661 Y126.884 E2.04828
G1 X111.287 Y127.671 E2.06601
G1 X111.952 Y128.407 E2.0835
G1 X112.643 Y129.085 E2.10056
G1 X113.379 Y129.718 E2.11767
G1 X114.153 Y130.302 E2.13477
G1 X114.987 Y130.849 E2.15235
G1 X115.37 Y131.075 E2.16019
G1 X115.769 Y131.291 E2.16818
G1 X116.367 Y131.586 E2.17994
G1 X116.979 Y131.853 E2.19171
G1 X117.598 Y132.089 E2.20339
G1 X118.07 Y132.249 E2.21217
G1 X119.02 Y132.53 E2.22964
G1 X119.679 Y132.736 E2.24181
G1 X119.992 Y132.849 E2.24767
G1 X120.786 Y133.176 E2.26281
G1 X121.074 Y133.309 E2.2684
G1 X121.84 Y133.702 E2.28358
G1 X122.123 Y133.863 E2.28932
G1 X122.854 Y134.321 E2.30452
G1 X123.119 Y134.503 E2.31019
G1 X123.807 Y135.02 E2.32536
G1 X124.061 Y135.229 E2.33116
G1 X124.702 Y135.804 E2.34634
G1 X124.932 Y136.029 E2.35201
G1 X125.523 Y136.657 E2.36721
G1 X125.735 Y136.902 E2.37293
G1 X126.268 Y137.575 E2.38806
G1 X126.458 Y137.836 E2.39375
G1 X127.021 Y138.693 E2.41182
G1 X127.686 Y139.797 E2.43454
G1 X127.866 Y139.82 E2.43774
G1 X129.685 Y140.015 E2.46999
G1 X130.227 Y140.113 E2.4797
G1 X130.749 Y140.288 E2.48941
G1 X131.24 Y140.538 E2.49912
G1 X131.691 Y140.856 E2.50885
G1 X132.09 Y141.235 E2.51855
G1 X132.431 Y141.668 E2.52826
G1 X132.705 Y142.146 E2.53797
G1 X132.907 Y142.659 E2.54769
G1 X133.033 Y143.195 E2.5574
G1 X133.08 Y143.744 E2.56711
G1 X133.061 Y144.176 E2.57474
G1 X132.975 Y145.024 E2.58976
G1 X132.879 Y145.567 E2.59948
G1 X132.707 Y146.09 E2.60919
G1 X132.46 Y146.583 E2.61891
G1 X132.145 Y147.035 E2.62862
G1 X131.768 Y147.437 E2.63833
G1 X131.336 Y147.779 E2.64805
G1 X130.86 Y148.056 E2.65775
G1 X130.349 Y148.261 E2.66746
G1 X129.813 Y148.39 E2.67718
G1 X129.264 Y148.44 E2.6869
G1 X128.798 Y148.42 E2.69512
G1 X127.537 Y148.288 E2.71747
G1 X126.218 Y148.138 E2.74087
G1 X124.939 Y147.974 E2.7636
G1 X123.682 Y147.796 E2.78598
G1 X122.325 Y147.588 E2.81018
G1 X121.104 Y147.382 E2.83201
G1 X119.763 Y147.138 E2.85603
G1 X118.489 Y146.887 E2.87892
G1 X117.193 Y146.612 E2.90228
G1 X115.871 Y146.315 E2.92616
G1 X115.184 Y146.143 E2.93865
G1 X114.456 Y145.943 E2.95196
G1 X113.771 Y145.735 E2.96458
G1 X113.056 Y145.498 E2.97785
G1 X112.384 Y145.254 E2.99046
G1 X111.684 Y144.982 E3.0037
G1 X111.025 Y144.704 E3.0163
G1 X110.334 Y144.393 E3.02966
G1 X109.663 Y144.068 E3.0428
G1 X109.026 Y143.738 E3.05545
G1 X108.363 Y143.374 E3.06878
G1 X107.756 Y143.018 E3.08119
G1 X107.104 Y142.617 E3.09468
G1 X106.504 Y142.223 E3.10733
G1 X105.847 Y141.768 E3.12142
G1 X105.206 Y141.296 E3.13545
G1 X104.615 Y140.835 E3.14867
G1 X103.993 Y140.328 E3.16281
G1 X103.394 Y139.808 E3.17679
G1 X102.831 Y139.293 E3.19025
G1 X102.261 Y138.744 E3.2042
G1 X101.705 Y138.179 E3.21817
G1 X101.182 Y137.618 E3.23169
G1 X100.662 Y137.03 E3.24553
G1 X100.182 Y136.459 E3.25868
G1 X99.678 Y135.833 E3.27284
G1 X99.209 Y135.212 E3.28656
G1 X98.766 Y134.596 E3.29994
G1 X98.331 Y133.957 E3.31356
G1 X97.913 Y133.31 E3.32714
G1 X97.495 Y132.625 E3.34129
G1 X97.13 Y131.987 E3.35424
G1 X96.75 Y131.291 E3.36822
G1 X96.386 Y130.577 E3.38235
G1 X95.627 Y128.972 E3.41365
G1 X94.941 Y127.379 E3.44422
G1 X94.615 Y126.567 E3.45965
G1 X94.293 Y125.723 E3.47557
G1 X93.989 Y124.876 E3.49143
G1 X93.705 Y124.042 E3.50696
G1 X93.433 Y123.186 E3.5228
G1 X93.18 Y122.34 E3.53836
G1 X92.938 Y121.468 E3.55431
G1 X92.714 Y120.594 E3.57022
G1 X92.51 Y119.735 E3.58578
G1 X92.321 Y118.861 E3.60155
G1 X92.15 Y117.991 E3.61718
G1 X91.996 Y117.107 E3.63299
G1 X91.861 Y116.241 E3.64844
G1 X91.738 Y115.332 E3.66461
G1 X91.638 Y114.443 E3.68038
G1 X91.555 Y113.56 E3.69602
G1 X91.49 Y112.657 E3.71198
G1 X91.445 Y111.78 E3.72746
G1 X91.416 Y110.866 E3.74358
G1 X91.408 Y109.967 E3.75942
G1 X91.417 Y109.081 E3.77504
G1 X91.446 Y108.167 E3.79116
G1 X91.494 Y107.299 E3.80649
G1 X91.56 Y106.389 E3.82257
G1 X91.642 Y105.518 E3.83799
G1 X91.745 Y104.613 E3.85405
G1 X91.868 Y103.712 E3.87008
G1 X92.003 Y102.852 E3.88542
G1 X92.161 Y101.958 E3.90143
G1 X92.329 Y101.107 E3.91672
G1 X92.521 Y100.215 E3.9328
G1 X92.724 Y99.367 E3.94817
G1 X92.95 Y98.492 E3.9641
G1 X93.194 Y97.613 E3.98019
G1 X93.443 Y96.783 E3.99546
G1 X93.721 Y95.911 E4.01159
G1 X94.001 Y95.091 E4.02687
G1 X94.308 Y94.24 E4.04282
G1 X94.63 Y93.396 E4.05874
G1 X94.97 Y92.553 E4.07476
G1 X95.7 Y90.874 E4.10704
G1 X96.439 Y89.317 E4.13742
G1 X96.776 Y88.663 E4.15039
G1 X97.162 Y87.952 E4.16465
G1 X97.535 Y87.311 E4.17772
G1 X97.949 Y86.632 E4.19174
G1 X98.357 Y86.003 E4.20496
G1 X98.812 Y85.337 E4.21918
G1 X99.25 Y84.735 E4.2323
G1 X99.72 Y84.116 E4.246
G1 X100.209 Y83.507 E4.25977
G0 F6000 X100.515 Y83.765
G1 F1200 X101.009 Y83.182 E4.27324
G1 X101.532 Y82.593 E4.28712
G1 X102.048 Y82.045 E4.30039
G1 X102.59 Y81.496 E4.31399
G1 X103.16 Y80.948 E4.32793
G1 X103.72 Y80.44 E4.34126
G1 X104.3 Y79.94 E4.35476
G1 X104.916 Y79.434 E4.36881
G1 X105.506 Y78.98 E4.38193
G1 X106.14 Y78.515 E4.39579
G1 X106.787 Y78.067 E4.40966
G1 X107.375 Y77.685 E4.42203
G1 X108.021 Y77.286 E4.43541
G1 X108.614 Y76.945 E4.44747
G1 X109.283 Y76.577 E4.46093
G1 X109.897 Y76.264 E4.47308
G1 X110.572 Y75.938 E4.48629
G1 X111.246 Y75.635 E4.49932
G1 X111.893 Y75.366 E4.51167
G1 X112.589 Y75.094 E4.52484
G1 X113.258 Y74.856 E4.53736
G1 X113.954 Y74.627 E4.55027
G1 X114.634 Y74.422 E4.56279
G1 X115.344 Y74.228 E4.57577
G1 X116.044 Y74.055 E4.58848
G1 X117.237 Y73.788 E4.61003
G1 X118.577 Y73.503 E4.63418
G1 X119.793 Y73.264 E4.65603
G1 X121.08 Y73.028 E4.67909
G1 X122.368 Y72.81 E4.70212
G1 X123.663 Y72.609 E4.72522
G1 X124.953 Y72.427 E4.74818
G1 X126.237 Y72.262 E4.77101
G1 X127.546 Y72.112 E4.79423
G1 X128.842 Y71.977 E4.8172
G1 X129.363 Y71.963 E4.82639
G1 X129.88 Y72.029 E4.83558
G1 X130.38 Y72.173 E4.84475
G1 X130.853 Y72.392 E4.85394
G1 X131.287 Y72.681 E4.86313
G1 X131.672 Y73.032 E4.87231
G1 X131.999 Y73.438 E4.8815
G1 X132.259 Y73.89 E4.89069
G1 X132.448 Y74.376 E4.89989
G1 X132.575 Y75.009 E4.91127
G1 X132.663 Y75.859 E4.92633
G1 X132.677 Y76.38 E4.93552
G1 X132.611 Y76.897 E4.9447
G1 X132.466 Y77.398 E4.9539
G1 X132.247 Y77.87 E4.96307
G1 X131.959 Y78.304 E4.97225
G1 X131.607 Y78.689 E4.98145
G1 X131.201 Y79.015 E4.99063
G1 X130.749 Y79.276 E4.99983
G1 X130.263 Y79.464 E5.00901
G1 X129.638 Y79.59 E5.02025
G1 X127.707 Y79.794 E5.05448
G1 X127.445 Y79.827 E5.05914
G1 X126.599 Y81.225 E5.08794
G1 X126.124 Y81.942 E5.1031
G1 X125.956 Y82.173 E5.10814
G1 X125.422 Y82.848 E5.12331
G1 X125.232 Y83.069 E5.12845
G1 X124.641 Y83.697 E5.14365
G1 X124.435 Y83.898 E5.14872
G1 X123.795 Y84.472 E5.16388
G1 X123.566 Y84.661 E5.16911
G1 X122.877 Y85.178 E5.1843
G1 X122.645 Y85.337 E5.18925
G1 X121.916 Y85.795 E5.20443
G1 X121.659 Y85.941 E5.20964
G1 X120.891 Y86.335 E5.22486
G1 X120.634 Y86.454 E5.22985
G1 X119.84 Y86.781 E5.24499
G1 X119.558 Y86.882 E5.25027
G1 X118.675 Y87.158 E5.26657
G1 X117.95 Y87.37 E5.27989
G1 X117.302 Y87.592 E5.29196
G1 X116.823 Y87.777 E5.30102
G1 X116.219 Y88.041 E5.31264
G1 X115.585 Y88.353 E5.32509
G1 X115.178 Y88.574 E5.33326
G1 X114.677 Y88.873 E5.34354
G1 X113.932 Y89.364 E5.35927
G1 X113.127 Y89.97 E5.37703
G1 X112.378 Y90.616 E5.39447
G1 X111.659 Y91.321 E5.41222
G1 X110.975 Y92.078 E5.4302
G1 X110.347 Y92.867 E5.44798
G1 X109.755 Y93.708 E5.46611
G1 X109.22 Y94.58 E5.48414
G1 X108.735 Y95.487 E5.50227
G1 X108.089 Y96.861 E5.52904
G1 X107.488 Y98.288 E5.55633
G1 X106.952 Y99.73 E5.58345
G1 X106.49 Y101.162 E5.60997
G1 X106.088 Y102.627 E5.63675
G1 X105.751 Y104.119 E5.66372
G1 X105.621 Y104.823 E5.67634
G1 X105.504 Y105.539 E5.68913
G1 X105.354 Y106.674 E5.70931
G1 X105.248 Y107.781 E5.72891
G1 X105.184 Y108.912 E5.74888
G1 X105.163 Y110.001 E5.76808
G1 X105.184 Y111.108 E5.7876
G1 X105.246 Y112.202 E5.80691
G1 X105.353 Y113.321 E5.82673
G1 X105.503 Y114.456 E5.84691
G1 X105.62 Y115.175 E5.85975
G1 X105.755 Y115.894 E5.87265
G1 X106.089 Y117.38 E5.8995
G1 X106.489 Y118.837 E5.92613
G1 X106.95 Y120.264 E5.95257
G1 X107.493 Y121.728 E5.98009
G1 X108.078 Y123.116 E6.00664
G1 X108.738 Y124.518 E6.03396
G1 X109.217 Y125.415 E6.05188
G1 X109.755 Y126.29 E6.06999
G1 X110.342 Y127.126 E6.088
G1 X110.982 Y127.931 E6.10613
G1 X111.658 Y128.678 E6.12389
G1 X112.377 Y129.383 E6.14164
G1 X113.126 Y130.029 E6.15907
G1 X113.935 Y130.638 E6.17692
G1 X114.758 Y131.179 E6.19428
G1 X115.169 Y131.42 E6.20268
G1 X115.601 Y131.654 E6.21134
G1 X116.192 Y131.947 E6.22297
G1 X116.819 Y132.219 E6.23502
G1 X117.476 Y132.47 E6.24742
G1 X117.956 Y132.632 E6.25635
G1 X118.9 Y132.912 E6.2737
G1 X119.559 Y133.118 E6.28588
G1 X119.84 Y133.219 E6.29114
G1 X120.634 Y133.546 E6.30628
G1 X120.891 Y133.665 E6.31127
G1 X121.657 Y134.058 E6.32645
G1 X121.91 Y134.202 E6.33158
G1 X122.641 Y134.66 E6.34678
G1 X122.879 Y134.823 E6.35187
G1 X123.567 Y135.34 E6.36704
G1 X123.794 Y135.527 E6.37222
G1 X124.435 Y136.102 E6.3874
G1 X124.641 Y136.303 E6.39248
G1 X125.232 Y136.931 E6.40768
G1 X125.421 Y137.15 E6.41278
G1 X125.954 Y137.823 E6.42791
G1 X126.124 Y138.057 E6.43301
G1 X126.678 Y138.899 E6.45078
G1 X127.443 Y140.17 E6.47693
G1 X127.791 Y140.214 E6.48311
G1 X129.642 Y140.412 E6.51593
G1 X130.154 Y140.507 E6.52511
G1 X130.646 Y140.68 E6.5343
G1 X131.106 Y140.925 E6.54349
G1 X131.523 Y141.238 E6.55268
G1 X131.887 Y141.611 E6.56186
G1 X132.19 Y142.035 E6.57105
G1 X132.425 Y142.5 E6.58024
G1 X132.585 Y142.996 E6.58942
G1 X132.668 Y143.51 E6.5986
G1 X132.663 Y144.136 E6.60964
G1 X132.577 Y144.984 E6.62466
G1 X132.484 Y145.497 E6.63385
G1 X132.315 Y145.99 E6.64304
G1 X132.072 Y146.451 E6.65222
G1 X131.762 Y146.87 E6.66141
G1 X131.391 Y147.236 E6.6706
G1 X130.969 Y147.541 E6.67978
G1 X130.505 Y147.778 E6.68896
G1 X130.01 Y147.942 E6.69815
G1 X129.496 Y148.028 E6.70734
G1 X128.84 Y148.023 E6.71891
G1 X127.579 Y147.891 E6.74126
G1 X126.316 Y147.747 E6.76366
G1 X125.041 Y147.585 E6.78632
G1 X123.738 Y147.4 E6.80952
G1 X122.391 Y147.194 E6.83354
G1 X121.17 Y146.988 E6.85537
G1 X119.886 Y146.754 E6.87838
G1 X118.572 Y146.496 E6.90198
G1 X117.276 Y146.221 E6.92533
G1 X115.968 Y145.927 E6.94897
G1 X115.289 Y145.757 E6.96131
G1 X114.572 Y145.56 E6.97441
G1 X113.896 Y145.355 E6.98687
G1 X113.192 Y145.121 E6.99994
G1 X112.529 Y144.881 E7.01237
G1 X111.839 Y144.613 E7.02542
G1 X111.189 Y144.339 E7.03786
G1 X110.508 Y144.033 E7.05102
G1 X109.847 Y143.712 E7.06397
G1 X109.218 Y143.387 E7.07645
G1 X108.565 Y143.029 E7.08958
G1 X107.964 Y142.677 E7.10186
G1 X107.323 Y142.283 E7.11512
G1 X106.731 Y141.894 E7.12761
G1 X106.083 Y141.446 E7.14149
G1 X105.451 Y140.981 E7.15532
G1 X104.867 Y140.525 E7.16839
G1 X104.255 Y140.025 E7.18232
G1 X103.664 Y139.513 E7.1961
G1 X103.108 Y139.004 E7.20939
G1 X102.546 Y138.463 E7.22314
G1 X101.997 Y137.906 E7.23693
G1 X101.481 Y137.352 E7.25027
G1 X100.968 Y136.772 E7.26392
G1 X100.493 Y136.208 E7.27692
G1 X99.997 Y135.591 E7.29088
G1 X99.533 Y134.978 E7.30443
G1 X99.097 Y134.37 E7.31762
G1 X98.667 Y133.74 E7.33106
G1 X98.254 Y133.101 E7.34447
G1 X97.842 Y132.426 E7.35841
G1 X97.481 Y131.794 E7.37124
G1 X97.106 Y131.108 E7.38503
G1 X96.747 Y130.405 E7.39894
G1 X95.994 Y128.813 E7.42999
G1 X95.312 Y127.229 E7.46039
G1 X94.989 Y126.425 E7.47566
G1 X94.67 Y125.587 E7.49147
G1 X94.367 Y124.747 E7.50721
G1 X94.086 Y123.92 E7.5226
G1 X93.817 Y123.071 E7.5383
G1 X93.566 Y122.233 E7.55372
G1 X93.326 Y121.369 E7.56953
