;FLAVOR:Marlin
;TIME:1683
;Filament used: 1.08988m
;Layer height: 0.25
;MINX:89.694
;MINY:71.574
;MINZ:0.2
;MAXX:131.359
;MAXY:148.422
;MAXZ:69.45
;Generated with Cura_SteamEngine 4.6.1
M140 S60
M105
M190 S60
M104 S235
M105
M109 S235
M82 ;absolute extrusion mode
; Ender 3 Custom Start G-code
G92 E0 ; Reset Extruder
G28 ; Home all axes
G1 Z2.0 F3000 ; Move Z Axis up little to prevent scratching of Heat Bed
G1 X0.1 Y20 Z0.3 F5000.0 ; Move to start position
G1 X0.1 Y200.0 Z0.3 F1500.0 E15 ; Draw the first line
G1 X0.4 Y200.0 Z0.3 F5000.0 ; Move to side a little
G1 X0.4 Y20 Z0.3 F1500.0 E30 ; Draw the second line
G92 E0 ; Reset Extruder
G1 Z2.0 F3000 ; Move Z Axis up little to prevent scratching of Heat Bed
G1 X5 Y20 Z0.3 F5000.0 ; Move over to prevent blob squish
G92 E0
G92 E0
G1 F3000 E-1
;LAYER_COUNT:278
;LAYER:0
M107
G0 F6000 X90.663 Y72.939 Z0.2
;TYPE:SKIRT
G1 F3000 E0.20788
G1 F1200 X91.046 Y72.543 E0.21759
G1 X91.482 Y72.206 E0.2273
G1 X91.962 Y71.936 E0.23701
G1 X92.477 Y71.738 E0.24674
G1 X93.014 Y71.617 E0.25644
G1 X93.563 Y71.574 E0.26615
G1 X93.973 Y71.594 E0.27338
G1 X95.235 Y71.725 E0.29575
G1 X96.509 Y71.872 E0.31836
G1 X97.836 Y72.042 E0.34194
G1 X99.092 Y72.22 E0.3643
G1 X100.444 Y72.427 E0.38841
G1 X101.666 Y72.633 E0.41026
G1 X103.015 Y72.878 E0.43443
G1 X104.283 Y73.128 E0.45721
G1 X105.575 Y73.401 E0.48049
G1 X106.889 Y73.698 E0.50423
G1 X107.596 Y73.875 E0.51708
G1 X108.307 Y74.072 E0.53009
G1 X108.999 Y74.282 E0.54283
G1 X109.711 Y74.518 E0.55606
G1 X110.386 Y74.762 E0.56871
G1 X111.084 Y75.034 E0.58191
G1 X111.755 Y75.316 E0.59474
G1 X112.429 Y75.621 E0.60779
G1 X113.09 Y75.94 E0.62072
G1 X113.741 Y76.276 E0.63364
G1 X114.387 Y76.63 E0.64662
G1 X115.03 Y77.005 E0.65974
G1 X115.662 Y77.398 E0.67286
G1 X116.272 Y77.797 E0.68571
G1 X116.915 Y78.243 E0.69951
G1 X117.558 Y78.715 E0.71357
G1 X118.16 Y79.186 E0.72704
G1 X118.776 Y79.689 E0.74106
G1 X119.359 Y80.197 E0.75469
G1 X119.945 Y80.731 E0.76867
G1 X120.507 Y81.272 E0.78242
G1 X121.046 Y81.821 E0.79598
G1 X121.588 Y82.398 E0.80994
G1 X122.1 Y82.978 E0.82357
G1 X122.6 Y83.571 E0.83725
G1 X123.086 Y84.18 E0.85098
G1 X123.558 Y84.802 E0.86475
G1 X124.009 Y85.429 E0.87836
G1 X124.443 Y86.067 E0.89196
G1 X124.863 Y86.717 E0.90561
G1 X125.265 Y87.379 E0.91926
G1 X125.647 Y88.04 E0.93272
G1 X126.025 Y88.736 E0.94668
G1 X126.381 Y89.44 E0.96058
G1 X127.119 Y90.997 E0.99096
G1 X127.822 Y92.62 E1.02214
G1 X128.154 Y93.448 E1.03786
G1 X128.476 Y94.29 E1.05375
G1 X128.777 Y95.128 E1.06945
G1 X129.065 Y95.98 E1.0853
G1 X129.337 Y96.835 E1.10112
G1 X129.588 Y97.676 E1.11659
G1 X129.829 Y98.546 E1.1325
G1 X130.052 Y99.414 E1.1483
G1 X130.256 Y100.273 E1.16387
G1 X130.444 Y101.146 E1.17961
G1 X130.616 Y102.015 E1.19522
G1 X130.77 Y102.9 E1.21106
G1 X130.906 Y103.77 E1.22658
G1 X131.026 Y104.663 E1.24246
G1 X131.13 Y105.571 E1.25857
G1 X131.21 Y106.439 E1.27394
G1 X131.276 Y107.34 E1.28987
G1 X131.322 Y108.231 E1.30559
G1 X131.349 Y109.127 E1.32139
G1 X131.359 Y110.043 E1.33754
G1 X131.348 Y110.907 E1.35277
G1 X131.32 Y111.826 E1.36898
G1 X131.273 Y112.712 E1.38462
G1 X131.206 Y113.605 E1.40041
G1 X131.123 Y114.487 E1.41602
G1 X131.02 Y115.379 E1.43185
G1 X130.898 Y116.282 E1.44792
G1 X130.763 Y117.146 E1.46333
G1 X130.606 Y118.033 E1.47921
G1 X130.436 Y118.895 E1.4947
G1 X130.244 Y119.779 E1.51064
G1 X130.041 Y120.626 E1.526
G1 X129.816 Y121.499 E1.54189
G1 X129.574 Y122.371 E1.55784
G1 X129.322 Y123.211 E1.5733
G1 X129.05 Y124.063 E1.58907
G1 X128.758 Y124.924 E1.60509
G1 X128.462 Y125.738 E1.62036
G1 X128.145 Y126.573 E1.63611
G1 X127.797 Y127.438 E1.65254
G1 X127.066 Y129.118 E1.68484
G1 X126.334 Y130.656 E1.71487
G1 X125.993 Y131.321 E1.72804
G1 X125.607 Y132.031 E1.74229
G1 X125.232 Y132.675 E1.75542
G1 X124.82 Y133.349 E1.76935
G1 X124.409 Y133.983 E1.78267
G1 X123.969 Y134.628 E1.79643
G1 X123.514 Y135.259 E1.81014
G1 X123.043 Y135.874 E1.8238
G1 X122.548 Y136.492 E1.83776
G1 X122.057 Y137.072 E1.85115
G1 X121.535 Y137.658 E1.86499
G1 X120.998 Y138.231 E1.87883
G1 X120.456 Y138.776 E1.89238
G1 X119.888 Y139.324 E1.90629
G1 X119.307 Y139.85 E1.92011
G1 X118.705 Y140.37 E1.93413
G1 X118.116 Y140.85 E1.94752
G1 X117.485 Y141.34 E1.96161
G1 X116.85 Y141.804 E1.97547
G1 X116.214 Y142.24 E1.98906
G1 X115.604 Y142.639 E2.00191
G1 X114.966 Y143.032 E2.01512
G1 X114.326 Y143.403 E2.02816
G1 X113.684 Y143.756 E2.04108
G1 X113.017 Y144.096 E2.05427
G1 X112.364 Y144.409 E2.06704
G1 X111.676 Y144.718 E2.08033
G1 X111.014 Y144.994 E2.09298
G1 X110.324 Y145.262 E2.10603
G1 X109.631 Y145.511 E2.11901
G1 X108.925 Y145.743 E2.13211
G1 X108.231 Y145.951 E2.14488
G1 X107.52 Y146.145 E2.15787
G1 X106.815 Y146.319 E2.17067
G1 X105.554 Y146.604 E2.19346
G1 X104.26 Y146.877 E2.21677
G1 X102.995 Y147.125 E2.2395
G1 X101.696 Y147.362 E2.26277
G1 X100.42 Y147.577 E2.28558
G1 X99.167 Y147.77 E2.30793
G1 X97.865 Y147.954 E2.33111
G1 X96.537 Y148.125 E2.35471
G1 X95.202 Y148.278 E2.3784
G1 X93.968 Y148.405 E2.40027
G1 X93.417 Y148.422 E2.40999
G1 X92.87 Y148.358 E2.41969
G1 X92.337 Y148.216 E2.42942
G1 X91.831 Y147.999 E2.43912
G1 X91.362 Y147.71 E2.44883
G1 X90.939 Y147.357 E2.45855
G1 X90.571 Y146.946 E2.46827
G1 X90.267 Y146.487 E2.47798
G1 X90.033 Y145.988 E2.48769
G1 X89.873 Y145.461 E2.4974
G1 X89.799 Y145.008 E2.50549
G1 X89.713 Y144.159 E2.52053
G1 X89.698 Y143.608 E2.53025
G1 X89.762 Y143.061 E2.53996
G1 X89.905 Y142.529 E2.54967
G1 X90.123 Y142.023 E2.55938
G1 X90.412 Y141.554 E2.56909
G1 X90.765 Y141.131 E2.5788
G1 X91.177 Y140.764 E2.58853
G1 X91.637 Y140.461 E2.59824
G1 X92.135 Y140.227 E2.60794
G1 X92.663 Y140.068 E2.61766
G1 X93.095 Y139.997 E2.62538
G1 X95.115 Y139.78 E2.66119
G1 X95.858 Y138.554 E2.68646
G1 X96.333 Y137.837 E2.70162
G1 X96.523 Y137.576 E2.70731
G1 X97.058 Y136.901 E2.7225
G1 X97.269 Y136.657 E2.72818
G1 X97.86 Y136.029 E2.74338
G1 X98.088 Y135.806 E2.74901
G1 X98.727 Y135.232 E2.76415
G1 X98.985 Y135.02 E2.77003
G1 X99.674 Y134.503 E2.78522
G1 X99.933 Y134.324 E2.79077
G1 X100.662 Y133.866 E2.80595
G1 X100.949 Y133.703 E2.81176
G1 X101.717 Y133.309 E2.82698
G1 X102.006 Y133.176 E2.83259
G1 X102.801 Y132.849 E2.84774
G1 X103.122 Y132.733 E2.85376
G1 X104.196 Y132.401 E2.87357
G1 X104.719 Y132.249 E2.88318
G1 X105.363 Y132.028 E2.89518
G1 X105.801 Y131.858 E2.90346
G1 X106.398 Y131.598 E2.91494
G1 X107.116 Y131.24 E2.92908
G1 X107.508 Y131.024 E2.93697
G1 X107.902 Y130.788 E2.94507
G1 X108.632 Y130.307 E2.96048
G1 X109.408 Y129.722 E2.97761
G1 X110.148 Y129.084 E2.99483
G1 X110.838 Y128.408 E3.01186
G1 X111.507 Y127.667 E3.02946
G1 X112.135 Y126.879 E3.04722
G1 X112.203 Y126.783 E3.04929
G1 X112.708 Y126.061 E3.06483
G1 X113.219 Y125.23 E3.08202
G1 X113.696 Y124.338 E3.09985
G1 X114.343 Y122.963 E3.12664
G1 X114.937 Y121.55 E3.15366
G1 X115.452 Y120.168 E3.17966
G1 X115.529 Y119.926 E3.18414
G1 X115.925 Y118.703 E3.2068
G1 X116.313 Y117.289 E3.23264
G1 X116.651 Y115.79 E3.25973
G1 X116.804 Y114.942 E3.27492
G1 X116.898 Y114.369 E3.28516
G1 X117.041 Y113.285 E3.30443
G1 X117.145 Y112.192 E3.32379
G1 X117.208 Y111.083 E3.34337
G1 X117.229 Y109.999 E3.36248
G1 X117.208 Y108.92 E3.3815
G1 X117.144 Y107.806 E3.40117
G1 X117.04 Y106.711 E3.42056
G1 X116.896 Y105.622 E3.43993
G1 X116.775 Y104.884 E3.45311
G1 X116.648 Y104.203 E3.46532
G1 X116.315 Y102.721 E3.4921
G1 X115.915 Y101.27 E3.51863
G1 X115.46 Y99.858 E3.54478
G1 X114.929 Y98.43 E3.57164
G1 X114.339 Y97.03 E3.59842
G1 X113.7 Y95.669 E3.62492
G1 X113.221 Y94.774 E3.64282
G1 X112.698 Y93.921 E3.66045
G1 X112.142 Y93.13 E3.6775
G1 X111.501 Y92.326 E3.69562
G1 X110.838 Y91.592 E3.71306
G1 X110.147 Y90.914 E3.73012
G1 X109.411 Y90.28 E3.74725
G1 X108.633 Y89.694 E3.76442
G1 X107.821 Y89.161 E3.78154
G1 X107.417 Y88.924 E3.7898
G1 X107.016 Y88.705 E3.79785
G1 X106.432 Y88.418 E3.80932
G1 X105.789 Y88.137 E3.82169
G1 X105.347 Y87.965 E3.83005
G1 X104.726 Y87.752 E3.84162
G1 X103.77 Y87.469 E3.8592
G1 X103.112 Y87.263 E3.87135
G1 X102.801 Y87.151 E3.87718
G1 X102.006 Y86.824 E3.89233
G1 X101.717 Y86.691 E3.89794
G1 X100.949 Y86.297 E3.91316
G1 X100.662 Y86.134 E3.91898
G1 X99.933 Y85.676 E3.93415
G1 X99.674 Y85.497 E3.9397
G1 X98.985 Y84.98 E3.95489
G1 X98.727 Y84.768 E3.96077
G1 X98.088 Y84.194 E3.97591
G1 X97.86 Y83.971 E3.98154
G1 X97.269 Y83.343 E3.99674
G1 X97.06 Y83.102 E4.00236
G1 X96.525 Y82.428 E4.01753
G1 X96.332 Y82.162 E4.02332
G1 X95.77 Y81.306 E4.04137
G1 X95.116 Y80.219 E4.06374
G1 X94.957 Y80.199 E4.06656
G1 X93.095 Y80.002 E4.09957
G1 X92.553 Y79.905 E4.10927
G1 X92.03 Y79.73 E4.119
G1 X91.538 Y79.481 E4.12872
G1 X91.088 Y79.164 E4.13842
G1 X90.688 Y78.785 E4.14813
G1 X90.347 Y78.352 E4.15785
G1 X90.072 Y77.875 E4.16755
G1 X89.869 Y77.362 E4.17728
G1 X89.742 Y76.826 E4.18699
G1 X89.694 Y76.277 E4.19671
G1 X89.714 Y75.837 E4.20447
G1 X89.803 Y74.964 E4.21994
G1 X89.909 Y74.397 E4.23011
G1 X90.089 Y73.876 E4.23982
G1 X90.342 Y73.387 E4.24953
G1 X90.663 Y72.939 E4.25924
G0 F6000 X91.044 Y73.11
G1 F1200 X91.42 Y72.749 E4.26843
G1 X91.847 Y72.45 E4.27762
G1 X92.314 Y72.219 E4.28681
G1 X92.811 Y72.062 E4.29599
G1 X93.326 Y71.984 E4.30518
G1 X93.932 Y71.992 E4.31586
G1 X95.194 Y72.123 E4.33822
G1 X96.464 Y72.269 E4.36076
G1 X97.734 Y72.431 E4.38333
G1 X99.036 Y72.616 E4.40651
G1 X100.377 Y72.821 E4.43042
G1 X101.599 Y73.027 E4.45227
G1 X102.89 Y73.262 E4.4754
G1 X104.154 Y73.51 E4.49811
G1 X105.441 Y73.781 E4.52129
G1 X106.793 Y74.087 E4.54573
G1 X107.489 Y74.26 E4.55837
G1 X108.192 Y74.455 E4.57123
G1 X108.874 Y74.662 E4.58379
G1 X109.576 Y74.894 E4.59683
G1 X110.241 Y75.135 E4.6093
G1 X110.93 Y75.403 E4.62233
G1 X111.591 Y75.681 E4.63497
G1 X112.256 Y75.982 E4.64784
G1 X112.907 Y76.296 E4.66058
G1 X113.549 Y76.628 E4.67332
G1 X114.186 Y76.976 E4.68611
G1 X114.819 Y77.346 E4.69904
G1 X115.443 Y77.733 E4.71198
G1 X116.044 Y78.127 E4.72465
G1 X116.68 Y78.567 E4.73828
G1 X117.312 Y79.03 E4.75209
G1 X117.908 Y79.496 E4.76543
G1 X118.513 Y79.991 E4.77921
G1 X119.09 Y80.493 E4.79269
G1 X119.668 Y81.02 E4.80648
G1 X120.222 Y81.553 E4.82003
G1 X120.755 Y82.095 E4.83343
G1 X121.289 Y82.663 E4.84717
G1 X121.795 Y83.237 E4.86066
G1 X122.288 Y83.82 E4.87412
G1 X122.768 Y84.422 E4.88769
G1 X123.234 Y85.037 E4.90129
G1 X123.679 Y85.654 E4.91471
G1 X124.108 Y86.285 E4.92816
G1 X124.522 Y86.926 E4.94161
G1 X124.919 Y87.579 E4.95508
G1 X125.296 Y88.231 E4.96835
G1 X125.668 Y88.918 E4.98213
G1 X126.02 Y89.611 E4.99583
G1 X126.752 Y91.156 E5.02597
G1 X127.45 Y92.769 E5.05695
G1 X127.78 Y93.592 E5.07258
G1 X128.099 Y94.425 E5.0883
G1 X128.398 Y95.257 E5.10389
G1 X128.684 Y96.101 E5.1196
G1 X128.953 Y96.949 E5.13528
G1 X129.202 Y97.784 E5.15064
G1 X129.442 Y98.645 E5.16639
G1 X129.663 Y99.507 E5.18208
G1 X129.865 Y100.357 E5.19748
G1 X130.052 Y101.224 E5.21312
G1 X130.222 Y102.084 E5.22857
G1 X130.375 Y102.961 E5.24426
G1 X130.509 Y103.823 E5.25964
G1 X130.629 Y104.709 E5.2754
G1 X130.732 Y105.607 E5.29133
G1 X130.811 Y106.469 E5.30659
G1 X130.876 Y107.361 E5.32236
G1 X130.922 Y108.243 E5.33793
G1 X130.949 Y109.132 E5.35361
G1 X130.959 Y110.039 E5.3696
G1 X130.948 Y110.895 E5.38469
G1 X130.92 Y111.806 E5.40075
G1 X130.874 Y112.682 E5.41622
G1 X130.808 Y113.569 E5.4319
G1 X130.726 Y114.441 E5.44734
G1 X130.624 Y115.326 E5.46304
G1 X130.503 Y116.22 E5.47894
G1 X130.369 Y117.077 E5.49423
G1 X130.213 Y117.956 E5.50997
G1 X130.045 Y118.811 E5.52533
G1 X129.854 Y119.687 E5.54113
G1 X129.654 Y120.527 E5.55636
G1 X129.431 Y121.392 E5.5721
G1 X129.191 Y122.257 E5.58793
G1 X128.941 Y123.089 E5.60324
G1 X128.671 Y123.935 E5.6189
G1 X128.382 Y124.788 E5.63477
G1 X128.088 Y125.596 E5.64993
G1 X127.773 Y126.425 E5.66556
G1 X127.43 Y127.279 E5.68178
G1 X126.705 Y128.946 E5.71383
G1 X125.978 Y130.474 E5.74366
G1 X125.641 Y131.131 E5.75667
G1 X125.261 Y131.83 E5.7707
G1 X124.89 Y132.468 E5.78371
G1 X124.485 Y133.132 E5.79742
G1 X124.078 Y133.758 E5.81058
G1 X123.644 Y134.394 E5.82415
G1 X123.196 Y135.016 E5.83767
G1 X122.731 Y135.625 E5.85117
G1 X122.242 Y136.234 E5.86494
G1 X121.758 Y136.806 E5.87815
G1 X121.243 Y137.385 E5.89181
G1 X120.714 Y137.949 E5.90544
G1 X120.178 Y138.489 E5.91885
G1 X119.619 Y139.028 E5.93254
G1 X119.046 Y139.547 E5.94617
G1 X118.452 Y140.06 E5.96001
G1 X117.87 Y140.535 E5.97325
G1 X117.248 Y141.018 E5.98713
G1 X116.624 Y141.474 E6.00075
G1 X115.995 Y141.905 E6.0142
G1 X115.393 Y142.299 E6.02688
G1 X114.765 Y142.686 E6.03988
G1 X114.133 Y143.053 E6.05276
G1 X113.501 Y143.399 E6.06547
G1 X112.843 Y143.735 E6.07849
G1 X112.199 Y144.045 E6.09109
G1 X111.522 Y144.349 E6.10417
G1 X110.868 Y144.621 E6.11666
G1 X110.188 Y144.886 E6.12952
G1 X109.506 Y145.131 E6.1423
G1 X108.809 Y145.36 E6.15523
G1 X108.126 Y145.565 E6.1678
G1 X107.424 Y145.756 E6.18062
G1 X106.727 Y145.929 E6.19328
G1 X105.471 Y146.213 E6.21598
G1 X104.228 Y146.475 E6.23838
G1 X102.968 Y146.723 E6.26101
G1 X101.677 Y146.96 E6.28415
G1 X100.407 Y147.174 E6.30685
G1 X99.107 Y147.374 E6.33004
G1 X97.809 Y147.558 E6.35315
G1 X96.538 Y147.722 E6.37574
G1 X95.156 Y147.881 E6.40026
G1 X93.927 Y148.007 E6.42204
G1 X93.406 Y148.021 E6.43123
G1 X92.889 Y147.954 E6.44042
G1 X92.388 Y147.809 E6.44961
G1 X91.916 Y147.59 E6.45878
G1 X91.482 Y147.301 E6.46798
G1 X91.098 Y146.949 E6.47716
G1 X90.772 Y146.542 E6.48635
G1 X90.512 Y146.09 E6.49554
G1 X90.324 Y145.604 E6.50473
G1 X90.197 Y144.968 E6.51616
G1 X90.111 Y144.119 E6.5312
G1 X90.099 Y143.598 E6.54039
G1 X90.166 Y143.081 E6.54958
G1 X90.311 Y142.58 E6.55877
G1 X90.531 Y142.108 E6.56795
G1 X90.821 Y141.675 E6.57714
G1 X91.174 Y141.291 E6.58634
G1 X91.581 Y140.966 E6.59552
G1 X92.033 Y140.706 E6.60471
G1 X92.519 Y140.519 E6.61389
G1 X93.137 Y140.395 E6.625
G1 X95.014 Y140.197 E6.65827
G1 X95.359 Y140.153 E6.6644
G1 X96.192 Y138.775 E6.69279
G1 X96.667 Y138.058 E6.70795
G1 X96.836 Y137.824 E6.71304
G1 X97.371 Y137.149 E6.72822
G1 X97.56 Y136.931 E6.7333
G1 X98.151 Y136.303 E6.74851
G1 X98.355 Y136.104 E6.75353
G1 X98.994 Y135.53 E6.76867
G1 X99.225 Y135.339 E6.77395
G1 X99.914 Y134.822 E6.78914
G1 X100.146 Y134.663 E6.7941
G1 X100.875 Y134.205 E6.80927
G1 X101.132 Y134.059 E6.81448
G1 X101.9 Y133.665 E6.8297
G1 X102.159 Y133.546 E6.83472
G1 X102.954 Y133.219 E6.84988
G1 X103.241 Y133.115 E6.85526
G1 X104.307 Y132.785 E6.87493
G1 X104.859 Y132.624 E6.88507
G1 X105.48 Y132.412 E6.89663
G1 X105.965 Y132.224 E6.9058
G1 X106.566 Y131.962 E6.91736
G1 X107.298 Y131.596 E6.93179
G1 X107.708 Y131.371 E6.94003
G1 X108.111 Y131.129 E6.94832
G1 X108.861 Y130.635 E6.96415
G1 X109.661 Y130.032 E6.98181
G1 X110.415 Y129.383 E6.99935
G1 X111.132 Y128.679 E7.01706
G1 X111.812 Y127.927 E7.03493
G1 X112.459 Y127.115 E7.05323
G1 X113.037 Y126.29 E7.07099
G1 X113.57 Y125.423 E7.08893
G1 X114.053 Y124.518 E7.10701
G1 X114.707 Y123.128 E7.13409
G1 X115.306 Y121.705 E7.16131
G1 X115.831 Y120.296 E7.18781
G1 X115.91 Y120.048 E7.1924
G1 X116.301 Y118.84 E7.21478
G1 X116.703 Y117.376 E7.24155
G1 X117.04 Y115.88 E7.26858
G1 X117.201 Y114.993 E7.28447
G1 X117.29 Y114.452 E7.29414
G1 X117.44 Y113.319 E7.31428
G1 X117.543 Y112.226 E7.33363
G1 X117.608 Y111.087 E7.35375
G1 X117.629 Y109.999 E7.37293
G1 X117.607 Y108.891 E7.39246
G1 X117.545 Y107.797 E7.41178
G1 X117.438 Y106.674 E7.43167
G1 X117.287 Y105.531 E7.45199
G1 X117.174 Y104.841 E7.46431
G1 X117.034 Y104.093 E7.47773
G1 X116.706 Y102.634 E7.50409
G1 X116.3 Y101.16 E7.53104
G1 X115.837 Y99.722 E7.55767
G1 X115.299 Y98.275 E7.58489
G1 X114.708 Y96.873 E7.61171
G1 X114.056 Y95.487 E7.63871
G1 X113.572 Y94.581 E7.65681
G1 X113.034 Y93.704 E7.67495
G1 X112.454 Y92.879 E7.69273
G1 X111.812 Y92.073 E7.71089
G1 X111.132 Y91.321 E7.72876
