;FLAVOR:Marlin
;TIME:2370
;Filament used: 0.726277m
;Layer height: 0.25
;MINX:98.259
;MINY:90.087
;MINZ:0.2
;MAXX:122.007
;MAXY:129.774
;MAXZ:104.95
;Generated with Cura_SteamEngine 4.6.1
M140 S60
M105
M190 S60
M104 S235
M105
M109 S235
M82 ;absolute extrusion mode
; Ender 3 Custom Start G-code
G92 E0 ; Reset Extruder
G28 ; Home all axes
G1 Z2.0 F3000 ; Move Z Axis up little to prevent scratching of Heat Bed
G1 X0.1 Y20 Z0.3 F5000.0 ; Move to start position
G1 X0.1 Y200.0 Z0.3 F1500.0 E15 ; Draw the first line
G1 X0.4 Y200.0 Z0.3 F5000.0 ; Move to side a little
G1 X0.4 Y20 Z0.3 F1500.0 E30 ; Draw the second line
G92 E0 ; Reset Extruder
G1 Z2.0 F3000 ; Move Z Axis up little to prevent scratching of Heat Bed
G1 X5 Y20 Z0.3 F5000.0 ; Move over to prevent blob squish
G92 E0
G92 E0
G1 F3000 E-1
;LAYER_COUNT:420
;LAYER:0
M107
G0 F6000 X112.223 Y91.728 Z0.2
;TYPE:SKIRT
G1 F3000 E0.20788
G1 F1200 X112.575 Y91.304 E0.21759
G1 X112.983 Y90.934 E0.2273
G1 X113.442 Y90.628 E0.23702
G1 X113.998 Y90.369 E0.24784
G1 X114.141 Y90.316 E0.25052
G1 X114.671 Y90.162 E0.26025
G1 X115.216 Y90.087 E0.26995
G1 X115.767 Y90.091 E0.27966
G1 X116.396 Y90.196 E0.29091
G1 X116.538 Y90.232 E0.29349
G1 X117.061 Y90.405 E0.3032
G1 X117.553 Y90.653 E0.31291
G1 X118.004 Y90.969 E0.32262
G1 X118.494 Y91.448 E0.3347
G1 X118.593 Y91.564 E0.33739
G1 X118.92 Y92.008 E0.34711
G1 X119.179 Y92.495 E0.35683
G1 X119.364 Y93.013 E0.36653
G1 X119.477 Y93.584 E0.37679
G1 X119.641 Y94.968 E0.40135
G1 X120.313 Y101.197 E0.5118
G1 X120.816 Y106.191 E0.60027
G1 X121.443 Y112.943 E0.71981
G1 X121.444 Y113.015 E0.72108
G1 X121.455 Y113.075 E0.72215
G1 X122.001 Y119.561 E0.83689
G1 X122.007 Y120.112 E0.84661
G1 X121.933 Y120.658 E0.85632
G1 X121.782 Y121.188 E0.86603
G1 X121.555 Y121.69 E0.87575
G1 X121.258 Y122.154 E0.88546
G1 X120.897 Y122.571 E0.89518
G1 X120.48 Y122.93 E0.90488
G1 X120.115 Y123.17 E0.91258
G1 X115.434 Y125.874 E1.00787
G1 X114.938 Y126.115 E1.0176
G1 X114.413 Y126.281 E1.0273
G1 X113.869 Y126.369 E1.03702
G1 X113.551 Y126.384 E1.04263
G1 X111.988 Y126.392 E1.07018
G1 X111.344 Y126.419 E1.08154
G1 X110.826 Y126.487 E1.09075
G1 X110.278 Y126.609 E1.10065
G1 X109.773 Y126.766 E1.10997
G1 X109.28 Y126.971 E1.11938
G1 X108.727 Y127.257 E1.13036
G1 X105.211 Y129.276 E1.20183
G1 X104.714 Y129.515 E1.21155
G1 X104.188 Y129.68 E1.22127
G1 X103.644 Y129.767 E1.23098
G1 X103.093 Y129.774 E1.24069
G1 X102.547 Y129.702 E1.2504
G1 X102.017 Y129.551 E1.26012
G1 X101.514 Y129.326 E1.26983
G1 X101.05 Y129.03 E1.27953
G1 X100.633 Y128.67 E1.28924
G1 X100.272 Y128.253 E1.29897
G1 X99.975 Y127.789 E1.30868
G1 X99.749 Y127.286 E1.3184
G1 X99.621 Y126.861 E1.32622
G1 X99.26 Y125.334 E1.35388
G1 X98.953 Y123.804 E1.38139
G1 X98.67 Y122.01 E1.41341
G1 X98.554 Y121.131 E1.42903
G1 X98.521 Y120.581 E1.43875
G1 X98.569 Y120.032 E1.44846
G1 X98.695 Y119.496 E1.45817
G1 X98.898 Y118.984 E1.46788
G1 X98.993 Y118.818 E1.47125
G1 X98.77 Y118.49 E1.47824
G1 X98.529 Y117.995 E1.48795
G1 X98.363 Y117.469 E1.49767
G1 X98.274 Y116.926 E1.50737
G1 X98.259 Y116.582 E1.51344
G1 X98.265 Y114.989 E1.54152
G1 X98.347 Y113.156 E1.57386
G1 X98.5 Y111.383 E1.60523
G1 X98.529 Y111.143 E1.6095
G1 X98.635 Y110.602 E1.61921
G1 X98.818 Y110.083 E1.62891
G1 X99.074 Y109.595 E1.63863
G1 X99.397 Y109.149 E1.64834
G1 X99.782 Y108.754 E1.65806
G1 X100.179 Y108.447 E1.66691
G1 X101.497 Y107.56 E1.69491
G1 X101.924 Y107.285 E1.70386
G1 X103.3 Y106.42 E1.73251
G1 X103.735 Y106.158 E1.74147
G1 X105.135 Y105.333 E1.77011
G1 X105.578 Y105.084 E1.77907
G1 X106.994 Y104.304 E1.80757
G1 X107.445 Y104.067 E1.81655
G1 X108.917 Y103.313 E1.8457
G1 X110.492 Y102.559 E1.87648
G1 X110.995 Y97.781 E1.96117
G1 X111.458 Y93.628 E2.03484
G1 X111.559 Y93.087 E2.04454
G1 X111.737 Y92.565 E2.05426
G1 X112.139 Y91.846 E2.06878
G1 X112.223 Y91.728 E2.07133
G0 F6000 X112.549 Y91.96
G1 F1200 X112.883 Y91.56 E2.08052
G1 X113.274 Y91.216 E2.0897
G1 X113.713 Y90.935 E2.09889
G1 X114.137 Y90.744 E2.10709
G1 X114.28 Y90.691 E2.10978
G1 X114.782 Y90.548 E2.11898
G1 X115.299 Y90.483 E2.12816
G1 X115.82 Y90.498 E2.13735
G1 X116.298 Y90.583 E2.14591
G1 X116.44 Y90.619 E2.14849
G1 X116.933 Y90.786 E2.15767
G1 X117.396 Y91.026 E2.16686
G1 X117.817 Y91.333 E2.17604
G1 X118.19 Y91.708 E2.18537
G1 X118.289 Y91.824 E2.18806
G1 X118.596 Y92.245 E2.19724
G1 X118.835 Y92.708 E2.20643
G1 X119 Y93.202 E2.21561
G1 X119.079 Y93.631 E2.2233
G1 X119.243 Y95.015 E2.24786
G1 X119.915 Y101.24 E2.35824
G1 X120.418 Y106.231 E2.44666
G1 X121.056 Y113.109 E2.56843
G1 X121.602 Y119.595 E2.68317
G1 X121.606 Y120.116 E2.69235
G1 X121.53 Y120.632 E2.70154
G1 X121.376 Y121.129 E2.71072
G1 X121.148 Y121.598 E2.71991
G1 X120.851 Y122.026 E2.72909
G1 X120.492 Y122.404 E2.73828
G1 X119.915 Y122.824 E2.75086
G1 X115.234 Y125.528 E2.84616
G1 X114.764 Y125.753 E2.85534
G1 X114.265 Y125.904 E2.86453
G1 X113.55 Y125.984 E2.87721
G1 X111.969 Y125.992 E2.90508
G1 X111.318 Y126.019 E2.91657
G1 X110.745 Y126.095 E2.92676
G1 X110.18 Y126.22 E2.93696
G1 X109.634 Y126.391 E2.94705
G1 X109.122 Y126.603 E2.95681
G1 X108.513 Y126.918 E2.9689
G1 X105.011 Y128.929 E3.04009
G1 X104.541 Y129.153 E3.04927
G1 X104.042 Y129.303 E3.05845
G1 X103.525 Y129.375 E3.06765
G1 X103.004 Y129.367 E3.07684
G1 X102.491 Y129.279 E3.08601
G1 X101.996 Y129.114 E3.09521
G1 X101.533 Y128.875 E3.1044
G1 X101.112 Y128.568 E3.11358
G1 X100.742 Y128.2 E3.12278
G1 X100.433 Y127.781 E3.13196
G1 X100.192 Y127.319 E3.14114
G1 X100.01 Y126.768 E3.15137
G1 X99.652 Y125.255 E3.17878
G1 X99.348 Y123.742 E3.20598
G1 X99.066 Y121.958 E3.23782
G1 X98.95 Y121.079 E3.25345
G1 X98.922 Y120.558 E3.26265
G1 X98.973 Y120.04 E3.27182
G1 X99.103 Y119.535 E3.28102
G1 X99.309 Y119.056 E3.29021
G1 X99.475 Y118.791 E3.29572
G1 X99.197 Y118.422 E3.30386
G1 X98.95 Y117.963 E3.31305
G1 X98.776 Y117.472 E3.32223
G1 X98.679 Y116.96 E3.33142
G1 X98.659 Y116.582 E3.33809
G1 X98.664 Y115.006 E3.36588
G1 X98.745 Y113.19 E3.39792
G1 X98.898 Y111.431 E3.42904
G1 X98.927 Y111.191 E3.43331
G1 X99.029 Y110.68 E3.44249
G1 X99.207 Y110.191 E3.45166
G1 X99.459 Y109.734 E3.46086
G1 X99.777 Y109.322 E3.47004
G1 X100.155 Y108.963 E3.47923
G1 X100.403 Y108.779 E3.48467
G1 X101.714 Y107.897 E3.51252
G1 X102.141 Y107.622 E3.52148
G1 X103.507 Y106.762 E3.54993
G1 X103.942 Y106.5 E3.55888
G1 X105.331 Y105.682 E3.5873
G1 X105.774 Y105.433 E3.59626
G1 X107.18 Y104.658 E3.62456
G1 X107.631 Y104.421 E3.63354
G1 X109.089 Y103.674 E3.66242
G1 X110.866 Y102.823 E3.69715
G1 X111.393 Y97.823 E3.78578
G1 X111.856 Y93.673 E3.85939
G1 X111.953 Y93.161 E3.86857
G1 X112.128 Y92.67 E3.87776
G1 X112.465 Y92.078 E3.88977
G1 X112.549 Y91.96 E3.89232
G0 F6000 X112.875 Y92.192
G1 F1200 X113.19 Y91.818 E3.90094
G1 X113.563 Y91.5 E3.90958
G1 X113.981 Y91.247 E3.9182
G1 X114.276 Y91.119 E3.92386
G1 X114.419 Y91.066 E3.92655
G1 X114.891 Y90.934 E3.93519
G1 X115.377 Y90.88 E3.94381
G1 X115.866 Y90.906 E3.95244
G1 X116.199 Y90.971 E3.95842
G1 X116.341 Y91.007 E3.96101
G1 X116.804 Y91.166 E3.96964
G1 X117.235 Y91.397 E3.97826
G1 X117.623 Y91.696 E3.98689
G1 X117.886 Y91.967 E3.99355
G1 X117.985 Y92.083 E3.99624
G1 X118.271 Y92.48 E4.00486
G1 X118.489 Y92.919 E4.0135
G1 X118.633 Y93.387 E4.02213
G1 X118.682 Y93.678 E4.02734
G1 X118.846 Y95.062 E4.0519
G1 X119.518 Y101.283 E4.1622
G1 X120.02 Y106.272 E4.25059
G1 X120.646 Y113.017 E4.37
G1 X120.647 Y113.084 E4.37119
G1 X120.657 Y113.142 E4.37222
G1 X121.203 Y119.628 E4.48696
G1 X121.205 Y120.118 E4.4956
G1 X121.126 Y120.601 E4.50423
G1 X120.97 Y121.065 E4.51286
G1 X120.741 Y121.497 E4.52148
G1 X120.444 Y121.887 E4.53012
G1 X120.088 Y122.223 E4.53875
G1 X119.715 Y122.478 E4.54671
G1 X115.034 Y125.182 E4.642
G1 X114.591 Y125.391 E4.65064
G1 X114.121 Y125.526 E4.65926
G1 X113.548 Y125.584 E4.66941
G1 X111.95 Y125.592 E4.69758
G1 X111.283 Y125.62 E4.70935
G1 X110.676 Y125.7 E4.72014
G1 X110.09 Y125.83 E4.73072
G1 X109.494 Y126.016 E4.74173
G1 X108.939 Y126.246 E4.75232
G1 X108.336 Y126.558 E4.76429
G1 X104.812 Y128.582 E4.83593
G1 X104.369 Y128.791 E4.84456
G1 X103.898 Y128.924 E4.85319
G1 X103.412 Y128.98 E4.86181
G1 X102.923 Y128.955 E4.87044
G1 X102.445 Y128.851 E4.87907
G1 X101.99 Y128.671 E4.88769
G1 X101.57 Y128.419 E4.89633
G1 X101.197 Y128.102 E4.90495
G1 X100.88 Y127.729 E4.91358
G1 X100.628 Y127.309 E4.92222
G1 X100.4 Y126.676 E4.93408
G1 X100.044 Y125.175 E4.96127
G1 X99.743 Y123.679 E4.98817
G1 X99.463 Y121.906 E5.01981
G1 X99.347 Y121.027 E5.03544
G1 X99.323 Y120.538 E5.04407
G1 X99.378 Y120.051 E5.05271
G1 X99.512 Y119.58 E5.06134
G1 X99.721 Y119.138 E5.06996
G1 X99.989 Y118.75 E5.07828
G1 X99.922 Y118.692 E5.07984
G1 X99.608 Y118.317 E5.08846
G1 X99.359 Y117.895 E5.0971
G1 X99.182 Y117.438 E5.10574
G1 X99.082 Y116.959 E5.11436
G1 X99.059 Y116.583 E5.121
G1 X99.064 Y115.023 E5.1485
G1 X99.144 Y113.224 E5.18025
G1 X99.295 Y111.479 E5.21112
G1 X99.324 Y111.239 E5.21538
G1 X99.422 Y110.76 E5.224
G1 X99.597 Y110.302 E5.23264
G1 X99.844 Y109.88 E5.24126
G1 X100.156 Y109.503 E5.24989
G1 X100.626 Y109.111 E5.26068
G1 X101.931 Y108.233 E5.2884
G1 X102.358 Y107.958 E5.29736
G1 X103.713 Y107.105 E5.32558
G1 X104.148 Y106.843 E5.33453
G1 X105.527 Y106.031 E5.36274
G1 X105.97 Y105.782 E5.3717
G1 X107.366 Y105.012 E5.39981
G1 X107.817 Y104.775 E5.40879
G1 X109.262 Y104.035 E5.43741
G1 X111.129 Y103.142 E5.47389
G1 X111.232 Y103.086 E5.47595
G1 X111.251 Y102.98 E5.47785
G1 X111.79 Y97.865 E5.56852
G1 X112.254 Y93.717 E5.64209
G1 X112.347 Y93.237 E5.65071
G1 X112.518 Y92.778 E5.65935
G1 X112.791 Y92.31 E5.6689
G1 X112.875 Y92.192 E5.67145
G0 F6000 X113.201 Y92.424
G1 F1200 X113.497 Y92.078 E5.67948
G1 X113.848 Y91.788 E5.6875
G1 X114.415 Y91.494 E5.69876
G1 X114.558 Y91.441 E5.70145
G1 X114.998 Y91.321 E5.70949
G1 X115.452 Y91.279 E5.71753
G1 X116.101 Y91.359 E5.72906
G1 X116.243 Y91.395 E5.73164
G1 X116.673 Y91.545 E5.73967
G1 X117.07 Y91.768 E5.74769
G1 X117.423 Y92.057 E5.75573
G1 X117.582 Y92.227 E5.75984
G1 X117.681 Y92.343 E5.76253
G1 X117.945 Y92.714 E5.77055
G1 X118.14 Y93.126 E5.77859
G1 X118.285 Y93.725 E5.78945
G1 X118.449 Y95.109 E5.81402
G1 X119.12 Y101.326 E5.92425
G1 X119.622 Y106.312 E6.01259
G1 X120.248 Y113.054 E6.13194
G1 X120.248 Y113.126 E6.13321
G1 X120.259 Y113.176 E6.13412
G1 X120.805 Y119.662 E6.24885
G1 X120.803 Y120.118 E6.25689
G1 X120.722 Y120.566 E6.26492
G1 X120.564 Y120.993 E6.27294
G1 X120.333 Y121.386 E6.28098
G1 X120.038 Y121.733 E6.28901
G1 X119.515 Y122.131 E6.30059
G1 X114.834 Y124.835 E6.39589
G1 X114.421 Y125.028 E6.40392
G1 X113.98 Y125.145 E6.41197
G1 X113.546 Y125.184 E6.41965
G1 X111.958 Y125.192 E6.44764
G1 X111.247 Y125.222 E6.46019
G1 X110.609 Y125.306 E6.47153
G1 X109.976 Y125.446 E6.48296
G1 X109.358 Y125.639 E6.49437
G1 X108.776 Y125.88 E6.50547
G1 X108.158 Y126.2 E6.51774
G1 X104.613 Y128.236 E6.58981
G1 X104.199 Y128.427 E6.59784
G1 X103.759 Y128.543 E6.60586
G1 X103.305 Y128.581 E6.6139
G1 X102.851 Y128.539 E6.62193
G1 X102.412 Y128.418 E6.62996
G1 X102 Y128.222 E6.638
G1 X101.629 Y127.958 E6.64603
G1 X101.31 Y127.633 E6.65406
G1 X101.053 Y127.257 E6.66209
G1 X100.865 Y126.842 E6.67012
G1 X100.789 Y126.583 E6.67488
G1 X100.436 Y125.095 E6.70183
G1 X100.138 Y123.616 E6.72843
G1 X99.859 Y121.853 E6.75989
G1 X99.743 Y120.974 E6.77552
G1 X99.724 Y120.519 E6.78355
G1 X99.784 Y120.067 E6.79159
G1 X99.921 Y119.633 E6.79961
G1 X100.133 Y119.23 E6.80764
G1 X100.412 Y118.869 E6.81568
G1 X100.58 Y118.716 E6.81969
G1 X100.308 Y118.509 E6.82571
G1 X100 Y118.174 E6.83373
G1 X99.754 Y117.79 E6.84177
G1 X99.579 Y117.369 E6.84981
G1 X99.481 Y116.924 E6.85784
G1 X99.459 Y116.583 E6.86387
G1 X99.463 Y115.04 E6.89107
G1 X99.542 Y113.258 E6.92251
G1 X99.692 Y111.527 E6.95314
G1 X99.721 Y111.287 E6.9574
G1 X99.815 Y110.841 E6.96543
G1 X99.985 Y110.419 E6.97345
G1 X100.227 Y110.032 E6.9815
G1 X100.532 Y109.694 E6.98952
G1 X100.849 Y109.443 E6.99665
G1 X102.147 Y108.569 E7.02424
G1 X102.574 Y108.294 E7.03319
G1 X103.92 Y107.448 E7.06121
G1 X104.355 Y107.186 E7.07017
G1 X105.723 Y106.379 E7.09816
G1 X106.166 Y106.13 E7.10712
G1 X107.553 Y105.366 E7.13504
G1 X108.004 Y105.129 E7.14402
G1 X109.435 Y104.396 E7.17236
G1 X111.298 Y103.504 E7.20877
G1 X111.46 Y103.416 E7.21202
G1 X111.544 Y103.34 E7.21402
G1 X111.59 Y103.27 E7.21549
G1 X111.623 Y103.181 E7.21717
G1 X111.648 Y103.034 E7.2198
G1 X112.188 Y97.907 E7.31067
G1 X112.651 Y93.762 E7.3842
G1 X112.741 Y93.315 E7.39223
G1 X112.908 Y92.891 E7.40027
G1 X113.117 Y92.542 E7.40744
G1 X113.201 Y92.424 E7.40999
G0 F6000 X113.527 Y92.656
G1 F1200 X113.801 Y92.339 E7.41738
G1 X114.131 Y92.081 E7.42476
G1 X114.554 Y91.869 E7.4331
G1 X114.697 Y91.816 E7.43579
G1 X115.102 Y91.709 E7.44317
G1 X115.521 Y91.68 E7.45058
G1 X116.003 Y91.746 E7.45915
G1 X116.145 Y91.782 E7.46174
G1 X116.539 Y91.924 E7.46912
G1 X116.9 Y92.137 E7.47651
G1 X117.277 Y92.487 E7.48558
G1 X117.376 Y92.603 E7.48826
G1 X117.617 Y92.946 E7.49565
G1 X117.788 Y93.329 E7.50305
G1 X117.888 Y93.772 E7.51105
G1 X118.052 Y95.156 E7.53562
G1 X118.722 Y101.369 E7.64578
G1 X119.224 Y106.352 E7.73406
G1 X119.85 Y113.091 E7.85337
G1 X119.85 Y113.146 E7.85434
G1 X119.86 Y113.209 E7.85546
G1 X120.406 Y119.695 E7.9702
G1 X120.401 Y120.114 E7.97759
G1 X120.317 Y120.525 E7.98498
G1 X120.157 Y120.912 E7.99236
G1 X119.926 Y121.262 E7.99976
G1 X119.633 Y121.561 E8.00714
G1 X119.314 Y121.785 E8.01401
G1 X114.633 Y124.489 E8.1093
G1 X114.252 Y124.663 E8.11668
G1 X113.845 Y124.762 E8.12407
G1 X113.544 Y124.784 E8.12939
G1 X111.939 Y124.792 E8.15768
G1 X111.212 Y124.823 E8.17051
G1 X110.54 Y124.912 E8.18246
G1 X109.875 Y125.058 E8.19446
G1 X109.228 Y125.261 E8.20641
G1 X108.604 Y125.519 E8.21832
G1 X107.964 Y125.85 E8.23102
G1 X104.414 Y127.889 E8.30318
G1 X104.032 Y128.062 E8.31058
G1 X103.625 Y128.16 E8.31796
G1 X103.206 Y128.178 E8.32535
G1 X102.791 Y128.117 E8.33274
G1 X102.396 Y127.978 E8.34012
G1 X102.034 Y127.767 E8.34751
G1 X101.718 Y127.491 E8.35491
G1 X101.461 Y127.161 E8.36228
G1 X101.271 Y126.787 E8.36967
G1 X101.178 Y126.49 E8.37516
G1 X100.828 Y125.016 E8.40187
G1 X100.533 Y123.554 E8.42816
G1 X100.256 Y121.801 E8.45944
G1 X100.14 Y120.922 E8.47507
G1 X100.125 Y120.503 E8.48246
G1 X100.19 Y120.089 E8.48985
G1 X100.332 Y119.695 E8.49723
G1 X100.546 Y119.335 E8.50462
G1 X100.824 Y119.022 E8.512
G1 X101.157 Y118.767 E8.51939
G1 X101.356 Y118.668 E8.52331
G1 X101.014 Y118.523 E8.52986
G1 X100.666 Y118.29 E8.53724
G1 X100.368 Y117.995 E8.54463
G1 X100.132 Y117.649 E8.55201
G1 X99.966 Y117.264 E8.5594
G1 X99.875 Y116.855 E8.56679
G1 X99.859 Y116.584 E8.57157
G1 X99.863 Y115.057 E8.59849
G1 X99.941 Y113.292 E8.62964
G1 X100.089 Y111.575 E8.66002
G1 X100.118 Y111.335 E8.66428
G1 X100.208 Y110.926 E8.67166
G1 X100.373 Y110.541 E8.67904
G1 X100.609 Y110.194 E8.68644
G1 X101.073 Y109.774 E8.69747
G1 X102.326 Y108.93 E8.7241
G1 X102.791 Y108.63 E8.73386
G1 X104.089 Y107.813 E8.76089
G1 X104.561 Y107.528 E8.77061
G1 X105.88 Y106.751 E8.7976
G1 X106.362 Y106.479 E8.80736
G1 X107.7 Y105.741 E8.83429
G1 X108.19 Y105.484 E8.84405
G1 X109.607 Y104.757 E8.87212
G1 X111.491 Y103.856 E8.90893
G1 X111.673 Y103.757 E8.91259
G1 X111.734 Y103.712 E8.91392
G1 X111.835 Y103.616 E8.91638
G1 X111.88 Y103.561 E8.91763
G1 X111.942 Y103.463 E8.91968
G1 X111.982 Y103.374 E8.9214
G1 X112.012 Y103.277 E8.92319
G1 X112.045 Y103.084 E8.92664
G1 X112.586 Y97.949 E9.01766
G1 X113.049 Y93.806 E9.09114
G1 X113.135 Y93.396 E9.09853
G1 X113.297 Y93.009 E9.10592
G1 X113.443 Y92.774 E9.1108
G1 X113.527 Y92.656 E9.11335
G0 F6000 X113.853 Y92.888
G1 F1200 X114.104 Y92.604 E9.12004
G1 X114.409 Y92.379 E9.12672
