;FLAVOR:Marlin
;TIME:1913
;Filament used: 0.518293m
;Layer height: 0.25
;MINX:103.391
;MINY:91.892
;MINZ:0.2
;MAXX:116.611
;MAXY:128.117
;MAXZ:93.45
;Generated with Cura_SteamEngine 4.6.1
M140 S60
M105
M190 S60
M104 S235
M105
M109 S235
M82 ;absolute extrusion mode
; Ender 3 Custom Start G-code
G92 E0 ; Reset Extruder
G28 ; Home all axes
G1 Z2.0 F3000 ; Move Z Axis up little to prevent scratching of Heat Bed
G1 X0.1 Y20 Z0.3 F5000.0 ; Move to start position
G1 X0.1 Y200.0 Z0.3 F1500.0 E15 ; Draw the first line
G1 X0.4 Y200.0 Z0.3 F5000.0 ; Move to side a little
G1 X0.4 Y20 Z0.3 F1500.0 E30 ; Draw the second line
G92 E0 ; Reset Extruder
G1 Z2.0 F3000 ; Move Z Axis up little to prevent scratching of Heat Bed
G1 X5 Y20 Z0.3 F5000.0 ; Move over to prevent blob squish
G92 E0
G92 E0
G1 F3000 E-1
;LAYER_COUNT:378
;LAYER:0
M107
G0 F6000 X106.93 Y93.431 Z0.2
;TYPE:SKIRT
G1 F3000 E0.20788
G1 F1200 X107.295 Y93.018 E0.21759
G1 X107.716 Y92.663 E0.2273
G1 X108.184 Y92.372 E0.23701
G1 X108.651 Y92.166 E0.24601
G1 X108.794 Y92.114 E0.24869
G1 X109.324 Y91.964 E0.2584
G1 X109.871 Y91.892 E0.26813
G1 X110.422 Y91.899 E0.27784
G1 X110.966 Y91.987 E0.28756
G1 X111.596 Y92.195 E0.29925
G1 X111.798 Y92.282 E0.30313
G1 X112.287 Y92.536 E0.31284
G1 X112.734 Y92.858 E0.32255
G1 X113.13 Y93.241 E0.33227
G1 X113.466 Y93.678 E0.34198
G1 X113.736 Y94.159 E0.35171
G1 X113.926 Y94.652 E0.36102
G1 X113.992 Y94.866 E0.36497
G1 X114.138 Y95.567 E0.37759
G1 X114.515 Y98.963 E0.43782
G1 X114.886 Y102.454 E0.49971
G1 X115.252 Y106.05 E0.56342
G1 X115.597 Y109.616 E0.62658
G1 X116.057 Y114.676 E0.71614
G1 X116.058 Y114.751 E0.71747
G1 X116.068 Y114.805 E0.71843
G1 X116.611 Y121.329 E0.83384
G1 X116.611 Y121.909 E0.84406
G1 X116.529 Y122.453 E0.85376
G1 X116.37 Y122.981 E0.86348
G1 X116.135 Y123.48 E0.8732
G1 X115.831 Y123.939 E0.88291
G1 X115.464 Y124.35 E0.89262
G1 X115.042 Y124.703 E0.90232
G1 X114.722 Y124.91 E0.90904
G1 X110.054 Y127.605 E1.00405
G1 X109.558 Y127.845 E1.01377
G1 X109.033 Y128.011 E1.02347
G1 X108.489 Y128.099 E1.03319
G1 X108.166 Y128.114 E1.03889
G1 X107.191 Y128.117 E1.05607
G1 X106.641 Y128.079 E1.06579
G1 X106.103 Y127.961 E1.0755
G1 X105.587 Y127.767 E1.08522
G1 X105.105 Y127.501 E1.09492
G1 X104.666 Y127.167 E1.10465
G1 X104.28 Y126.774 E1.11436
G1 X103.955 Y126.329 E1.12407
G1 X103.698 Y125.842 E1.13378
G1 X103.514 Y125.322 E1.1435
G1 X103.408 Y124.782 E1.1532
G1 X103.391 Y124.02 E1.16664
G1 X103.785 Y118.986 E1.25565
G1 X104.295 Y113.048 E1.36071
G1 X104.844 Y107.181 E1.46458
G1 X105.243 Y103.209 E1.53495
G1 X105.871 Y97.353 E1.63877
G1 X106.078 Y95.487 E1.67187
G1 X106.179 Y94.946 E1.68157
G1 X106.357 Y94.424 E1.69129
G1 X106.533 Y94.063 E1.69837
G1 X106.628 Y93.892 E1.70182
G1 X106.93 Y93.431 E1.71153
G0 F6000 X107.265 Y93.651
G1 F1200 X107.615 Y93.265 E1.72072
G1 X108.021 Y92.937 E1.72992
G1 X108.471 Y92.675 E1.7391
G1 X108.788 Y92.542 E1.74516
G1 X108.931 Y92.49 E1.74784
G1 X109.433 Y92.35 E1.75703
G1 X109.951 Y92.288 E1.76623
G1 X110.471 Y92.306 E1.7754
G1 X110.983 Y92.404 E1.78459
G1 X111.438 Y92.562 E1.79308
G1 X111.64 Y92.649 E1.79695
G1 X112.101 Y92.892 E1.80614
G1 X112.52 Y93.201 E1.81532
G1 X112.887 Y93.572 E1.82452
G1 X113.193 Y93.994 E1.83371
G1 X113.431 Y94.458 E1.8429
G1 X113.544 Y94.77 E1.84875
G1 X113.61 Y94.984 E1.8527
G1 X113.74 Y95.611 E1.86398
G1 X114.117 Y99.007 E1.92422
G1 X114.488 Y102.496 E1.98607
G1 X114.854 Y106.09 E2.04975
G1 X115.199 Y109.655 E2.11288
G1 X115.669 Y114.838 E2.20462
G1 X116.214 Y121.385 E2.32043
G1 X116.21 Y121.906 E2.32962
G1 X116.126 Y122.421 E2.33882
G1 X115.965 Y122.916 E2.34799
G1 X115.73 Y123.381 E2.35718
G1 X115.426 Y123.805 E2.36637
G1 X115.062 Y124.177 E2.37555
G1 X114.522 Y124.564 E2.38726
G1 X109.854 Y127.259 E2.48228
G1 X109.384 Y127.484 E2.49146
G1 X108.885 Y127.634 E2.50065
G1 X108.164 Y127.714 E2.51343
G1 X107.189 Y127.717 E2.53062
G1 X106.67 Y127.679 E2.53979
G1 X106.162 Y127.561 E2.54899
G1 X105.678 Y127.368 E2.55817
G1 X105.229 Y127.103 E2.56736
G1 X104.827 Y126.772 E2.57654
G1 X104.479 Y126.384 E2.58573
G1 X104.195 Y125.947 E2.59492
G1 X103.981 Y125.471 E2.60412
G1 X103.842 Y124.969 E2.6133
G1 X103.782 Y124.451 E2.62249
G1 X103.789 Y124.052 E2.62953
G1 X104.183 Y119.018 E2.71854
G1 X104.693 Y113.082 E2.82356
G1 X105.242 Y107.218 E2.92738
G1 X105.641 Y103.249 E2.9977
G1 X106.268 Y97.396 E3.10147
G1 X106.476 Y95.532 E3.13453
G1 X106.573 Y95.02 E3.14372
G1 X106.747 Y94.529 E3.1529
G1 X106.883 Y94.257 E3.15826
G1 X106.978 Y94.086 E3.16171
G1 X107.265 Y93.651 E3.17089
G0 F6000 X107.599 Y93.873
G1 F1200 X107.934 Y93.516 E3.17952
G1 X108.322 Y93.217 E3.18816
G1 X108.925 Y92.918 E3.20002
G1 X109.068 Y92.866 E3.20271
G1 X109.54 Y92.736 E3.21134
G1 X110.027 Y92.686 E3.21997
G1 X110.515 Y92.715 E3.22858
G1 X110.993 Y92.823 E3.23722
G1 X111.28 Y92.93 E3.24262
G1 X111.482 Y93.017 E3.2465
G1 X111.914 Y93.246 E3.25512
G1 X112.303 Y93.543 E3.26374
G1 X112.639 Y93.899 E3.27237
G1 X112.912 Y94.306 E3.28101
G1 X113.162 Y94.888 E3.29218
G1 X113.228 Y95.102 E3.29613
G1 X113.343 Y95.655 E3.30608
G1 X113.72 Y99.051 E3.36632
G1 X114.09 Y102.538 E3.42813
G1 X114.457 Y106.131 E3.4918
G1 X114.801 Y109.693 E3.55488
G1 X115.261 Y114.748 E3.64435
G1 X115.262 Y114.818 E3.64559
G1 X115.271 Y114.871 E3.64654
G1 X115.815 Y121.413 E3.76226
G1 X115.809 Y121.902 E3.77088
G1 X115.723 Y122.384 E3.77951
G1 X115.56 Y122.846 E3.78814
G1 X115.324 Y123.274 E3.79676
G1 X115.021 Y123.659 E3.8054
G1 X114.66 Y123.99 E3.81403
G1 X114.322 Y124.217 E3.82121
G1 X109.654 Y126.912 E3.91622
G1 X109.212 Y127.121 E3.92484
G1 X108.741 Y127.256 E3.93348
G1 X108.163 Y127.314 E3.94372
G1 X107.188 Y127.317 E3.96091
G1 X106.7 Y127.279 E3.96953
G1 X106.225 Y127.161 E3.97816
G1 X105.775 Y126.968 E3.98679
G1 X105.363 Y126.705 E3.99541
G1 X104.999 Y126.378 E4.00404
G1 X104.693 Y125.996 E4.01266
G1 X104.453 Y125.569 E4.0213
G1 X104.285 Y125.109 E4.02993
G1 X104.195 Y124.628 E4.03856
G1 X104.188 Y124.083 E4.04816
G1 X104.582 Y119.049 E4.13717
G1 X105.092 Y113.116 E4.24215
G1 X105.64 Y107.256 E4.3459
G1 X106.039 Y103.289 E4.41618
G1 X106.666 Y97.438 E4.51991
G1 X106.873 Y95.576 E4.55294
G1 X106.967 Y95.096 E4.56156
G1 X107.233 Y94.451 E4.57386
G1 X107.328 Y94.28 E4.57731
G1 X107.599 Y93.873 E4.58592
G0 F6000 X107.933 Y94.097
G1 F1200 X108.25 Y93.77 E4.59395
G1 X108.619 Y93.503 E4.60198
G1 X109.061 Y93.294 E4.6106
G1 X109.204 Y93.242 E4.61328
G1 X109.645 Y93.124 E4.62133
G1 X110.099 Y93.085 E4.62936
G1 X110.552 Y93.126 E4.63738
G1 X111.121 Y93.297 E4.64785
G1 X111.323 Y93.384 E4.65173
G1 X111.725 Y93.6 E4.65978
G1 X112.082 Y93.883 E4.66781
G1 X112.384 Y94.224 E4.67584
G1 X112.622 Y94.613 E4.68387
G1 X112.78 Y95.006 E4.69134
G1 X112.846 Y95.22 E4.69529
G1 X112.945 Y95.699 E4.70391
G1 X113.322 Y99.095 E4.76414
G1 X113.692 Y102.58 E4.82592
G1 X114.059 Y106.171 E4.88955
G1 X114.403 Y109.732 E4.95262
G1 X114.862 Y114.785 E5.04206
G1 X114.862 Y114.859 E5.04336
G1 X115.416 Y121.44 E5.15978
G1 X115.407 Y121.896 E5.16782
G1 X115.319 Y122.343 E5.17585
G1 X115.155 Y122.768 E5.18388
G1 X114.918 Y123.157 E5.19191
G1 X114.618 Y123.499 E5.19993
G1 X114.122 Y123.871 E5.21086
G1 X109.454 Y126.566 E5.30588
G1 X109.041 Y126.758 E5.31391
G1 X108.601 Y126.875 E5.32193
G1 X108.162 Y126.914 E5.3297
G1 X107.187 Y126.917 E5.34689
G1 X106.733 Y126.878 E5.35492
G1 X106.293 Y126.761 E5.36295
G1 X105.88 Y126.569 E5.37098
G1 X105.506 Y126.308 E5.37902
G1 X105.185 Y125.985 E5.38704
G1 X104.924 Y125.611 E5.39508
G1 X104.733 Y125.198 E5.4031
G1 X104.617 Y124.757 E5.41114
G1 X104.587 Y124.114 E5.42249
G1 X104.981 Y119.08 E5.5115
G1 X105.491 Y113.15 E5.61642
G1 X106.038 Y107.293 E5.72011
G1 X106.437 Y103.329 E5.79034
G1 X107.064 Y97.481 E5.89402
G1 X107.271 Y95.62 E5.92703
G1 X107.361 Y95.174 E5.93505
G1 X107.582 Y94.645 E5.94516
G1 X107.677 Y94.474 E5.9486
G1 X107.933 Y94.097 E5.95664
G0 F6000 X108.264 Y94.323
G1 F1200 X108.563 Y94.029 E5.96403
G1 X108.912 Y93.797 E5.97142
G1 X109.198 Y93.669 E5.97694
G1 X109.341 Y93.617 E5.97962
G1 X109.747 Y93.512 E5.98702
G1 X110.165 Y93.486 E5.9944
G1 X110.581 Y93.54 E6.00179
G1 X110.963 Y93.664 E6.00887
G1 X111.165 Y93.751 E6.01275
G1 X111.533 Y93.953 E6.02015
G1 X111.855 Y94.221 E6.02753
G1 X112.121 Y94.545 E6.03492
G1 X112.32 Y94.913 E6.0423
G1 X112.397 Y95.124 E6.04626
G1 X112.463 Y95.338 E6.05021
G1 X112.548 Y95.743 E6.0575
G1 X112.925 Y99.139 E6.11773
G1 X113.295 Y102.623 E6.17949
G1 X113.661 Y106.212 E6.24309
G1 X114.005 Y109.77 E6.3061
G1 X114.464 Y114.821 E6.39551
G1 X114.464 Y114.879 E6.39653
G1 X114.473 Y114.937 E6.39756
G1 X115.017 Y121.468 E6.51309
G1 X115.006 Y121.887 E6.52048
G1 X114.915 Y122.296 E6.52786
G1 X114.749 Y122.68 E6.53524
G1 X114.513 Y123.027 E6.54264
G1 X114.215 Y123.322 E6.55003
G1 X113.922 Y123.524 E6.5563
G1 X109.254 Y126.219 E6.65132
G1 X108.873 Y126.393 E6.6587
G1 X108.465 Y126.492 E6.6661
G1 X108.161 Y126.514 E6.67147
G1 X107.186 Y126.517 E6.68866
G1 X106.769 Y126.478 E6.69605
G1 X106.366 Y126.361 E6.70344
G1 X105.993 Y126.17 E6.71083
G1 X105.663 Y125.912 E6.71821
G1 X105.389 Y125.595 E6.7256
G1 X105.179 Y125.233 E6.73298
G1 X105.041 Y124.837 E6.74037
G1 X104.982 Y124.422 E6.74776
G1 X104.986 Y124.145 E6.75264
G1 X105.38 Y119.111 E6.84165
G1 X105.889 Y113.185 E6.9465
G1 X106.437 Y107.33 E7.05016
G1 X106.835 Y103.369 E7.12034
G1 X107.462 Y97.524 E7.22396
G1 X107.669 Y95.665 E7.25694
G1 X107.754 Y95.254 E7.26433
G1 X107.932 Y94.84 E7.27228
G1 X108.027 Y94.669 E7.27573
G1 X108.264 Y94.323 E7.28312
G0 F6000 X108.594 Y94.553
G1 F1200 X108.872 Y94.295 E7.28981
G1 X109.335 Y94.045 E7.29908
G1 X109.478 Y93.993 E7.30176
G1 X109.846 Y93.902 E7.30845
G1 X110.224 Y93.89 E7.31511
G1 X110.597 Y93.957 E7.32179
G1 X110.805 Y94.032 E7.32569
G1 X111.007 Y94.119 E7.32957
G1 X111.337 Y94.305 E7.33625
G1 X111.621 Y94.555 E7.34291
G1 X111.847 Y94.86 E7.34961
G1 X112.015 Y95.242 E7.35696
G1 X112.081 Y95.456 E7.36091
G1 X112.15 Y95.787 E7.36687
G1 X112.527 Y99.183 E7.4271
G1 X112.897 Y102.665 E7.48883
G1 X113.263 Y106.252 E7.55239
G1 X113.607 Y109.809 E7.61538
G1 X114.066 Y114.857 E7.70474
G1 X114.065 Y114.92 E7.70585
G1 X114.075 Y114.971 E7.70676
G1 X114.618 Y121.495 E7.82216
G1 X114.604 Y121.874 E7.82885
G1 X114.511 Y122.241 E7.83552
G1 X114.343 Y122.581 E7.84221
G1 X114.108 Y122.878 E7.84888
G1 X113.722 Y123.178 E7.8575
G1 X109.054 Y125.873 E7.95252
G1 X108.708 Y126.027 E7.95919
G1 X108.16 Y126.114 E7.96898
G1 X107.185 Y126.117 E7.98616
G1 X106.808 Y126.078 E7.99284
G1 X106.447 Y125.961 E7.99953
G1 X106.119 Y125.772 E8.00621
G1 X105.838 Y125.518 E8.01288
G1 X105.616 Y125.21 E8.01958
G1 X105.464 Y124.863 E8.02625
G1 X105.388 Y124.492 E8.03293
G1 X105.384 Y124.177 E8.03848
G1 X105.778 Y119.143 E8.12749
G1 X106.288 Y113.219 E8.23231
G1 X106.835 Y107.367 E8.33592
G1 X107.233 Y103.409 E8.40604
G1 X107.859 Y97.566 E8.50963
G1 X108.066 Y95.709 E8.54257
G1 X108.147 Y95.339 E8.54924
G1 X108.282 Y95.034 E8.55512
G1 X108.377 Y94.863 E8.55857
G1 X108.594 Y94.553 E8.56524
G0 F6000 X108.922 Y94.787
G1 F1200 X109.177 Y94.57 E8.57114
G1 X109.472 Y94.421 E8.57697
G1 X109.615 Y94.369 E8.57965
G1 X109.94 Y94.293 E8.58553
G1 X110.274 Y94.297 E8.59142
G1 X110.647 Y94.399 E8.59824
G1 X110.849 Y94.486 E8.60212
G1 X111.138 Y94.654 E8.60801
G1 X111.379 Y94.885 E8.61389
G1 X111.558 Y95.167 E8.61978
G1 X111.633 Y95.359 E8.62342
G1 X111.699 Y95.573 E8.62736
G1 X111.752 Y95.832 E8.63202
G1 X112.129 Y99.228 E8.69226
G1 X112.499 Y102.707 E8.75393
G1 X112.865 Y106.293 E8.81747
G1 X113.208 Y109.847 E8.88041
G1 X113.667 Y114.893 E8.96973
G1 X113.665 Y114.958 E8.97088
G1 X114.215 Y121.474 E9.08615
G1 X114.202 Y121.856 E9.09288
G1 X114.106 Y122.176 E9.09877
G1 X113.938 Y122.465 E9.10467
G1 X113.705 Y122.705 E9.11056
G1 X113.522 Y122.831 E9.11448
G1 X108.854 Y125.526 E9.2095
G1 X108.547 Y125.658 E9.21539
G1 X108.158 Y125.714 E9.22231
G1 X107.183 Y125.717 E9.2395
G1 X106.852 Y125.678 E9.24538
G1 X106.538 Y125.562 E9.25128
G1 X106.262 Y125.375 E9.25715
G1 X106.037 Y125.127 E9.26306
G1 X105.878 Y124.834 E9.26893
G1 X105.792 Y124.511 E9.27483
G1 X105.783 Y124.208 E9.28017
G1 X106.177 Y119.174 E9.36918
G1 X106.686 Y113.253 E9.47394
G1 X107.233 Y107.405 E9.57748
G1 X107.631 Y103.449 E9.64756
G1 X108.257 Y97.609 E9.7511
G1 X108.464 Y95.753 E9.78402
G1 X108.54 Y95.428 E9.78991
G1 X108.631 Y95.228 E9.79378
G1 X108.726 Y95.057 E9.79723
G1 X108.922 Y94.787 E9.80311
G0 F6000 X109.246 Y95.027
G1 F1200 X109.473 Y94.858 E9.8081
G1 X109.608 Y94.797 E9.81071
G1 X109.751 Y94.745 E9.81339
G1 X110.027 Y94.687 E9.81836
G1 X110.309 Y94.709 E9.82335
G1 X110.489 Y94.767 E9.82668
G1 X110.691 Y94.854 E9.83056
G1 X110.931 Y95.001 E9.83552
G1 X111.121 Y95.209 E9.84049
G1 X111.251 Y95.477 E9.84574
G1 X111.317 Y95.691 E9.84968
G1 X111.355 Y95.876 E9.85301
G1 X111.732 Y99.272 E9.91325
G1 X112.101 Y102.749 E9.97488
G1 X112.467 Y106.334 E10.03841
G1 X112.81 Y109.886 E10.10131
G1 X113.269 Y114.929 E10.19058
G1 X113.266 Y114.992 E10.19169
G1 X113.817 Y121.507 E10.30694
G1 X113.799 Y121.832 E10.31268
G1 X113.701 Y122.096 E10.31765
G1 X113.533 Y122.323 E10.32262
G1 X113.322 Y122.485 E10.32731
G1 X108.654 Y125.18 E10.42233
G1 X108.392 Y125.285 E10.42731
G1 X108.157 Y125.314 E10.43148
G1 X107.182 Y125.317 E10.44867
G1 X106.903 Y125.278 E10.45363
G1 X106.645 Y125.163 E10.45861
G1 X106.43 Y124.98 E10.46359
G1 X106.275 Y124.744 E10.46857
G1 X106.192 Y124.475 E10.47353
G1 X106.182 Y124.239 E10.47769
G1 X106.576 Y119.205 E10.5667
G1 X107.085 Y113.287 E10.67141
G1 X107.631 Y107.442 E10.77489
G1 X108.029 Y103.489 E10.84493
G1 X108.655 Y97.651 E10.94843
G1 X108.861 Y95.797 E10.98131
G1 X108.981 Y95.422 E10.98825
G1 X109.076 Y95.251 E10.9917
G1 X109.246 Y95.027 E10.99666
G0 F6000 X109.426 Y95.446
G1 F1200 X109.564 Y95.277 E11.00051
G1 X109.745 Y95.173 E11.00419
G1 X109.888 Y95.121 E11.00687
G1 X110.103 Y95.085 E11.01071
G1 X110.33 Y95.134 E11.0148
G1 X110.532 Y95.221 E11.01868
G1 X110.714 Y95.342 E11.02253
G1 X110.868 Y95.595 E11.02775
G1 X110.934 Y95.809 E11.0317
G1 X110.957 Y95.92 E11.0337
G1 X111.334 Y99.316 E11.09393
G1 X111.704 Y102.792 E11.15555
G1 X112.069 Y106.374 E11.21902
G1 X112.412 Y109.924 E11.28189
G1 X112.871 Y114.966 E11.37114
G1 X112.865 Y115.023 E11.37215
G1 X113.418 Y121.54 E11.48744
G1 X113.396 Y121.794 E11.49194
G1 X113.295 Y121.988 E11.49579
G1 X113.122 Y122.139 E11.49984
G1 X108.454 Y124.834 E11.59486
G1 X108.156 Y124.914 E11.6003
G1 X107.181 Y124.917 E11.61748
G1 X106.966 Y124.878 E11.62134
G1 X106.78 Y124.765 E11.62517
G1 X106.646 Y124.592 E11.62903
G1 X106.583 Y124.384 E11.63286
G1 X106.581 Y124.27 E11.63487
G1 X106.975 Y119.236 E11.72388
G1 X107.483 Y113.322 E11.82852
G1 X108.03 Y107.479 E11.93197
G1 X108.427 Y103.529 E12.00195
G1 X109.052 Y97.694 E12.10539
G1 X109.259 Y95.842 E12.13824
G1 X109.331 Y95.617 E12.14241
G1 X109.426 Y95.446 E12.14586
G0 F6000 X109.775 Y95.64
G1 F1200 X109.882 Y95.549 E12.14833
G1 X110.025 Y95.497 E12.15102
G1 X110.172 Y95.501 E12.15361
G1 X110.374 Y95.588 E12.15749
G1 X110.486 Y95.713 E12.16044
G1 X110.552 Y95.927 E12.16439
G1 X110.937 Y99.36 E12.22529
G1 X111.306 Y102.833 E12.28685
G1 X111.671 Y106.415 E12.35032
G1 X112.014 Y109.963 E12.41316
G1 X112.472 Y115.002 E12.50235
G1 X112.458 Y115.064 E12.50347
G1 X112.48 Y115.103 E12.50426
G1 X113.019 Y121.573 E12.61871
G1 X112.991 Y121.726 E12.62145
G1 X112.922 Y121.792 E12.62313
G1 X108.254 Y124.487 E12.71815
G1 X108.155 Y124.514 E12.71996
G1 X107.18 Y124.517 E12.73715
G1 X107.061 Y124.478 E12.73935
G1 X106.988 Y124.377 E12.74155
G1 X106.98 Y124.301 E12.7429
G1 X107.374 Y119.267 E12.83191
G1 X107.882 Y113.356 E12.93649
G1 X108.428 Y107.516 E13.03989
