;FLAVOR:Marlin
;TIME:3272
;Filament used: 0.958652m
;Layer height: 0.25
;MINX:92.57
;MINY:88.598
;MINZ:0.2
;MAXX:127.431
;MAXY:131.402
;MAXZ:147.95
;Generated with Cura_SteamEngine 4.6.1
M140 S60
M105
M190 S60
M104 S235
M105
M109 S235
M82 ;absolute extrusion mode
; Ender 3 Custom Start G-code
G92 E0 ; Reset Extruder
G28 ; Home all axes
G1 Z2.0 F3000 ; Move Z Axis up little to prevent scratching of Heat Bed
G1 X0.1 Y20 Z0.3 F5000.0 ; Move to start position
G1 X0.1 Y200.0 Z0.3 F1500.0 E15 ; Draw the first line
G1 X0.4 Y200.0 Z0.3 F5000.0 ; Move to side a little
G1 X0.4 Y20 Z0.3 F1500.0 E30 ; Draw the second line
G92 E0 ; Reset Extruder
G1 Z2.0 F3000 ; Move Z Axis up little to prevent scratching of Heat Bed
G1 X5 Y20 Z0.3 F5000.0 ; Move over to prevent blob squish
G92 E0
G92 E0
G1 F3000 E-1
;LAYER_COUNT:596
;LAYER:0
M107
G0 F6000 X96.034 Y90.009 Z0.2
;TYPE:SKIRT
G1 F3000 E0.20788
G1 F1200 X96.418 Y89.614 E0.21759
G1 X96.856 Y89.28 E0.2273
G1 X97.416 Y88.976 E0.23853
G1 X97.553 Y88.916 E0.24117
G1 X98.072 Y88.732 E0.25087
G1 X98.613 Y88.625 E0.26059
G1 X99.163 Y88.598 E0.2703
G1 X99.759 Y88.659 E0.28086
G1 X99.907 Y88.686 E0.28351
G1 X100.44 Y88.824 E0.29322
G1 X100.948 Y89.037 E0.30293
G1 X101.42 Y89.322 E0.31265
G1 X101.963 Y89.789 E0.32527
G1 X102.065 Y89.895 E0.32787
G1 X102.417 Y90.319 E0.33758
G1 X102.705 Y90.789 E0.3473
G1 X102.921 Y91.296 E0.35701
G1 X103.102 Y92.096 E0.37147
G1 X103.577 Y96.232 E0.44486
G1 X104.085 Y101.075 E0.5307
G1 X105.747 Y101.872 E0.56319
G1 X107.661 Y102.862 E0.60118
G1 X109.537 Y103.904 E0.63901
G1 X111.029 Y104.785 E0.66955
G1 X111.388 Y105.005 E0.67697
G1 X112.864 Y105.936 E0.70773
G1 X113.169 Y106.136 E0.71416
G1 X114.666 Y107.144 E0.74598
G1 X114.964 Y107.354 E0.7524
G1 X116.452 Y108.42 E0.78467
G1 X116.743 Y108.639 E0.79109
G1 X118.194 Y109.746 E0.82326
G1 X118.479 Y109.974 E0.8297
G1 X119.899 Y111.126 E0.86193
G1 X120.176 Y111.362 E0.86834
G1 X121.57 Y112.569 E0.90085
G1 X123.187 Y114.049 E0.93949
G1 X124.676 Y115.496 E0.97609
G1 X124.868 Y115.696 E0.98098
G1 X125.284 Y116.164 E0.99202
G1 X125.548 Y116.497 E0.99951
G1 X125.906 Y117.004 E1.01045
G1 X126.136 Y117.373 E1.01811
G1 X126.435 Y117.92 E1.0291
G1 X126.62 Y118.309 E1.03669
G1 X126.856 Y118.888 E1.04772
G1 X126.995 Y119.294 E1.05528
G1 X127.163 Y119.892 E1.06623
G1 X127.256 Y120.31 E1.07378
G1 X127.356 Y120.925 E1.08476
G1 X127.401 Y121.352 E1.09233
G1 X127.431 Y121.974 E1.10331
G1 X127.429 Y122.371 E1.11031
G1 X127.4 Y122.884 E1.11936
G1 X127.359 Y123.266 E1.12614
G1 X127.261 Y123.883 E1.13715
G1 X127.168 Y124.308 E1.14482
G1 X127.001 Y124.907 E1.15578
G1 X126.858 Y125.325 E1.16357
G1 X126.622 Y125.902 E1.17456
G1 X126.443 Y126.278 E1.1819
G1 X126.145 Y126.826 E1.19289
G1 X125.916 Y127.197 E1.20058
G1 X125.556 Y127.709 E1.21161
G1 X125.288 Y128.046 E1.2192
G1 X124.875 Y128.511 E1.23017
G1 X124.574 Y128.814 E1.2377
G1 X124.11 Y129.231 E1.24869
G1 X123.767 Y129.506 E1.25644
G1 X123.256 Y129.868 E1.26748
G1 X122.888 Y130.098 E1.27513
G1 X122.34 Y130.399 E1.28615
G1 X121.962 Y130.58 E1.29354
G1 X121.386 Y130.818 E1.30453
G1 X120.968 Y130.963 E1.31233
G1 X120.37 Y131.132 E1.32328
G1 X119.95 Y131.225 E1.33086
G1 X119.332 Y131.326 E1.3419
G1 X118.908 Y131.371 E1.34942
G1 X118.286 Y131.402 E1.3604
G1 X117.906 Y131.402 E1.36709
G1 X117.43 Y131.378 E1.3755
G1 X117.073 Y131.343 E1.38182
G1 X116.49 Y131.258 E1.39221
G1 X116.078 Y131.175 E1.39961
G1 X115.511 Y131.027 E1.40994
G1 X115.131 Y130.906 E1.41697
G1 X114.579 Y130.698 E1.42737
G1 X114.202 Y130.532 E1.43463
G1 X113.677 Y130.266 E1.44501
G1 X113.5 Y130.17 E1.44856
G1 X105.858 Y125.776 E1.60395
G1 X105.3 Y125.487 E1.61503
G1 X104.808 Y125.284 E1.62441
G1 X104.295 Y125.124 E1.63388
G1 X103.759 Y125.005 E1.64356
G1 X103.22 Y124.934 E1.65315
G1 X102.616 Y124.908 E1.6638
G1 X101.072 Y124.908 E1.69102
G1 X100.522 Y124.868 E1.70074
G1 X99.984 Y124.749 E1.71045
G1 X99.469 Y124.553 E1.72017
G1 X99.176 Y124.401 E1.72599
G1 X94.472 Y121.693 E1.82167
G1 X94.016 Y121.384 E1.83138
G1 X93.609 Y121.013 E1.84108
G1 X93.26 Y120.586 E1.85081
G1 X92.977 Y120.114 E1.86051
G1 X92.764 Y119.606 E1.87022
G1 X92.628 Y119.072 E1.87993
G1 X92.57 Y118.524 E1.88964
G1 X92.581 Y118.083 E1.89742
G1 X93.124 Y111.594 E2.01221
G1 X93.135 Y111.526 E2.01342
G1 X93.181 Y110.941 E2.02377
G1 X93.767 Y104.646 E2.13521
G1 X94.267 Y99.686 E2.22309
G1 X95.087 Y92.166 E2.35644
G1 X95.187 Y91.624 E2.36615
G1 X95.363 Y91.102 E2.37586
G1 X95.635 Y90.576 E2.3863
G1 X95.71 Y90.455 E2.38881
G1 X96.034 Y90.009 E2.39853
G0 F6000 X96.358 Y90.245
G1 F1200 X96.726 Y89.876 E2.40772
G1 X97.147 Y89.568 E2.41691
G1 X97.576 Y89.343 E2.42545
G1 X97.713 Y89.283 E2.42809
G1 X98.205 Y89.111 E2.43728
G1 X98.718 Y89.016 E2.44647
G1 X99.238 Y89.001 E2.45564
G1 X99.687 Y89.052 E2.46361
G1 X99.835 Y89.079 E2.46626
G1 X100.339 Y89.212 E2.47545
G1 X100.817 Y89.42 E2.48464
G1 X101.257 Y89.698 E2.49381
G1 X101.675 Y90.067 E2.50364
G1 X101.777 Y90.173 E2.50624
G1 X102.108 Y90.575 E2.51541
G1 X102.375 Y91.023 E2.52461
G1 X102.569 Y91.506 E2.53378
G1 X102.705 Y92.142 E2.54525
G1 X103.18 Y96.278 E2.61864
G1 X103.711 Y101.34 E2.70836
G1 X105.564 Y102.228 E2.74458
G1 X107.467 Y103.212 E2.78235
G1 X109.334 Y104.248 E2.81998
G1 X110.78 Y105.102 E2.84959
G1 X111.175 Y105.343 E2.85774
G1 X112.644 Y106.271 E2.88837
G1 X112.949 Y106.471 E2.8948
G1 X114.436 Y107.471 E2.92639
G1 X114.734 Y107.681 E2.93282
G1 X116.211 Y108.739 E2.96484
G1 X116.502 Y108.958 E2.97126
G1 X117.944 Y110.058 E3.00324
G1 X118.229 Y110.286 E3.00967
G1 X119.64 Y111.431 E3.0417
G1 X119.917 Y111.667 E3.04812
G1 X121.301 Y112.864 E3.08037
G1 X122.909 Y114.336 E3.1188
G1 X124.398 Y115.783 E3.1554
G1 X124.569 Y115.962 E3.15977
G1 X124.985 Y116.43 E3.1708
G1 X125.221 Y116.728 E3.1775
G1 X125.579 Y117.235 E3.18845
G1 X125.785 Y117.565 E3.1953
G1 X126.084 Y118.112 E3.20629
G1 X126.25 Y118.46 E3.21309
G1 X126.486 Y119.039 E3.22411
G1 X126.61 Y119.402 E3.23087
G1 X126.778 Y120 E3.24182
G1 X126.861 Y120.374 E3.24858
G1 X126.961 Y120.989 E3.25956
G1 X127.001 Y121.371 E3.26633
G1 X127.031 Y121.993 E3.27731
G1 X127.03 Y122.349 E3.28358
G1 X127.001 Y122.862 E3.29264
G1 X126.964 Y123.203 E3.29869
G1 X126.866 Y123.82 E3.3097
G1 X126.783 Y124.2 E3.31656
G1 X126.616 Y124.799 E3.32752
G1 X126.488 Y125.173 E3.33449
G1 X126.252 Y125.75 E3.34547
G1 X126.092 Y126.087 E3.35205
G1 X125.794 Y126.635 E3.36305
G1 X125.588 Y126.967 E3.36993
G1 X125.228 Y127.479 E3.38097
G1 X124.989 Y127.781 E3.38776
G1 X124.576 Y128.246 E3.39872
G1 X124.307 Y128.517 E3.40545
G1 X123.843 Y128.934 E3.41645
G1 X123.535 Y129.179 E3.42339
G1 X123.024 Y129.541 E3.43442
G1 X122.696 Y129.747 E3.44125
G1 X122.148 Y130.048 E3.45227
G1 X121.809 Y130.21 E3.4589
G1 X121.233 Y130.448 E3.46988
G1 X120.86 Y130.578 E3.47685
G1 X120.262 Y130.747 E3.4878
G1 X119.885 Y130.83 E3.49461
G1 X119.267 Y130.931 E3.50564
G1 X118.888 Y130.972 E3.51236
G1 X118.266 Y131.003 E3.52334
G1 X117.926 Y131.003 E3.52934
G1 X117.45 Y130.979 E3.53774
G1 X117.13 Y130.947 E3.54341
G1 X116.547 Y130.862 E3.55379
G1 X116.179 Y130.788 E3.56041
G1 X115.612 Y130.64 E3.57074
G1 X115.272 Y130.532 E3.57703
G1 X114.72 Y130.324 E3.58743
G1 X114.382 Y130.175 E3.59394
G1 X113.699 Y129.824 E3.60747
G1 X106.035 Y125.418 E3.76331
G1 X105.467 Y125.123 E3.77459
G1 X104.94 Y124.906 E3.78464
G1 X104.397 Y124.736 E3.79467
G1 X103.83 Y124.611 E3.8049
G1 X103.267 Y124.537 E3.81491
G1 X102.61 Y124.508 E3.82651
G1 X101.072 Y124.508 E3.85362
G1 X100.552 Y124.468 E3.86281
G1 X100.045 Y124.349 E3.87199
G1 X99.376 Y124.055 E3.88487
G1 X94.672 Y121.347 E3.98055
G1 X94.241 Y121.053 E3.98975
G1 X93.861 Y120.697 E3.99893
G1 X93.539 Y120.286 E4.00813
G1 X93.284 Y119.832 E4.01731
G1 X93.102 Y119.344 E4.02649
G1 X92.996 Y118.834 E4.03567
G1 X92.98 Y118.116 E4.04833
G1 X93.58 Y110.975 E4.17466
G1 X94.166 Y104.683 E4.28605
G1 X94.665 Y99.726 E4.37388
G1 X95.485 Y92.209 E4.50717
G1 X95.581 Y91.697 E4.51635
G1 X95.754 Y91.206 E4.52553
G1 X95.975 Y90.787 E4.53388
G1 X96.05 Y90.666 E4.53639
G1 X96.358 Y90.245 E4.54559
G0 F6000 X96.681 Y90.483
G1 F1200 X97.032 Y90.142 E4.55421
G1 X97.434 Y89.862 E4.56285
G1 X97.736 Y89.709 E4.56882
G1 X97.873 Y89.649 E4.57145
G1 X98.336 Y89.49 E4.58008
G1 X98.819 Y89.408 E4.58872
G1 X99.308 Y89.406 E4.59734
G1 X99.615 Y89.446 E4.6028
G1 X99.763 Y89.473 E4.60545
G1 X100.236 Y89.6 E4.61408
G1 X100.682 Y89.802 E4.62271
G1 X101.089 Y90.073 E4.63133
G1 X101.387 Y90.344 E4.63843
G1 X101.489 Y90.45 E4.64103
G1 X101.798 Y90.829 E4.64965
G1 X102.042 Y91.254 E4.65828
G1 X102.213 Y91.712 E4.6669
G1 X102.307 Y92.188 E4.67545
G1 X102.782 Y96.324 E4.74884
G1 X103.325 Y101.489 E4.84039
G1 X103.343 Y101.598 E4.84234
G1 X103.491 Y101.678 E4.84531
G1 X105.38 Y102.583 E4.88223
G1 X107.273 Y103.562 E4.9198
G1 X109.131 Y104.593 E4.95725
G1 X110.577 Y105.447 E4.98686
G1 X110.923 Y105.658 E4.994
G1 X112.425 Y106.605 E5.0253
G1 X112.73 Y106.805 E5.03173
G1 X114.205 Y107.798 E5.06308
G1 X114.503 Y108.008 E5.0695
G1 X115.971 Y109.059 E5.10133
G1 X116.262 Y109.278 E5.10775
G1 X117.694 Y110.37 E5.13949
G1 X117.994 Y110.61 E5.14627
G1 X119.381 Y111.735 E5.17775
G1 X119.658 Y111.971 E5.18416
G1 X121.031 Y113.159 E5.21617
G1 X122.63 Y114.623 E5.25438
G1 X124.119 Y116.07 E5.29098
G1 X124.27 Y116.228 E5.29484
G1 X124.686 Y116.696 E5.30588
G1 X124.895 Y116.959 E5.3118
G1 X125.253 Y117.466 E5.32274
G1 X125.434 Y117.757 E5.32878
G1 X125.733 Y118.304 E5.33977
G1 X125.879 Y118.611 E5.34576
G1 X126.115 Y119.19 E5.35678
G1 X126.225 Y119.511 E5.36276
G1 X126.393 Y120.109 E5.37371
G1 X126.466 Y120.439 E5.37967
G1 X126.566 Y121.054 E5.39065
G1 X126.602 Y121.39 E5.39661
G1 X126.632 Y122.012 E5.40759
G1 X126.63 Y122.326 E5.41312
G1 X126.601 Y122.839 E5.42218
G1 X126.569 Y123.141 E5.42754
G1 X126.471 Y123.758 E5.43855
G1 X126.398 Y124.093 E5.44459
G1 X126.231 Y124.692 E5.45555
G1 X126.118 Y125.022 E5.4617
G1 X125.882 Y125.599 E5.47269
G1 X125.741 Y125.896 E5.47849
G1 X125.443 Y126.444 E5.48948
G1 X125.261 Y126.737 E5.49556
G1 X124.901 Y127.249 E5.5066
G1 X124.69 Y127.515 E5.51258
G1 X124.277 Y127.98 E5.52354
G1 X124.039 Y128.219 E5.52949
G1 X123.575 Y128.636 E5.54049
G1 X123.304 Y128.853 E5.54661
G1 X122.793 Y129.215 E5.55765
G1 X122.503 Y129.396 E5.56367
G1 X121.955 Y129.697 E5.57469
G1 X121.657 Y129.841 E5.58053
G1 X121.081 Y130.079 E5.59151
G1 X120.751 Y130.193 E5.59767
G1 X120.153 Y130.362 E5.60862
G1 X119.821 Y130.436 E5.61462
G1 X119.203 Y130.537 E5.62566
G1 X118.868 Y130.572 E5.6316
G1 X118.246 Y130.603 E5.64257
G1 X117.946 Y130.603 E5.64786
G1 X117.47 Y130.579 E5.65626
G1 X117.188 Y130.552 E5.66126
G1 X116.605 Y130.467 E5.67164
G1 X116.28 Y130.401 E5.67749
G1 X115.713 Y130.253 E5.68782
G1 X115.413 Y130.157 E5.69337
G1 X114.861 Y129.949 E5.70377
G1 X114.563 Y129.818 E5.70951
G1 X113.899 Y129.477 E5.72267
G1 X106.231 Y125.068 E5.87859
G1 X105.639 Y124.761 E5.89034
G1 X105.085 Y124.533 E5.9009
G1 X104.487 Y124.346 E5.91195
G1 X103.91 Y124.218 E5.92237
G1 X103.29 Y124.137 E5.93339
G1 X102.628 Y124.108 E5.94507
G1 X101.072 Y124.108 E5.9725
G1 X100.584 Y124.068 E5.98113
G1 X100.109 Y123.949 E5.98976
G1 X99.575 Y123.708 E6.00009
G1 X94.871 Y121 E6.09577
G1 X94.468 Y120.722 E6.1044
G1 X94.116 Y120.382 E6.11303
G1 X93.824 Y119.99 E6.12165
G1 X93.599 Y119.555 E6.13028
G1 X93.448 Y119.089 E6.13891
G1 X93.375 Y118.605 E6.14754
G1 X93.378 Y118.15 E6.15556
G1 X93.978 Y111.01 E6.28187
G1 X94.564 Y104.72 E6.39323
G1 X95.063 Y99.766 E6.481
G1 X95.883 Y92.253 E6.61422
G1 X95.975 Y91.772 E6.62286
G1 X96.145 Y91.313 E6.63148
G1 X96.315 Y90.997 E6.63781
G1 X96.39 Y90.876 E6.64032
G1 X96.681 Y90.483 E6.64894
G0 F6000 X97.003 Y90.722
G1 F1200 X97.336 Y90.411 E6.65697
G1 X97.897 Y90.075 E6.6685
G1 X98.034 Y90.015 E6.67114
G1 X98.466 Y89.87 E6.67917
G1 X98.916 Y89.802 E6.68719
G1 X99.544 Y89.839 E6.69828
G1 X99.692 Y89.866 E6.70093
G1 X100.131 Y89.987 E6.70896
G1 X100.542 Y90.183 E6.71699
G1 X100.914 Y90.447 E6.72503
G1 X101.098 Y90.621 E6.72949
G1 X101.2 Y90.727 E6.73208
G1 X101.486 Y91.082 E6.74012
G1 X101.706 Y91.481 E6.74815
G1 X101.853 Y91.913 E6.7562
G1 X101.91 Y92.233 E6.76193
G1 X102.385 Y96.369 E6.83531
G1 X102.929 Y101.547 E6.92709
G1 X102.951 Y101.685 E6.92956
G1 X102.972 Y101.751 E6.93078
G1 X103.01 Y101.825 E6.93224
G1 X103.099 Y101.919 E6.93453
G1 X103.297 Y102.029 E6.93852
G1 X105.197 Y102.939 E6.97566
G1 X107.08 Y103.912 E7.01302
G1 X108.927 Y104.937 E7.05025
G1 X110.373 Y105.791 E7.07986
G1 X110.714 Y105.999 E7.0869
G1 X112.167 Y106.915 E7.11718
G1 X112.511 Y107.14 E7.12442
G1 X113.975 Y108.125 E7.15553
G1 X114.273 Y108.335 E7.16195
G1 X115.73 Y109.379 E7.19355
G1 X116.021 Y109.598 E7.19997
G1 X117.444 Y110.683 E7.23152
G1 X117.729 Y110.911 E7.23795
G1 X119.121 Y112.04 E7.26954
G1 X119.398 Y112.276 E7.27596
G1 X120.761 Y113.455 E7.30773
G1 X122.351 Y114.909 E7.34571
G1 X123.84 Y116.356 E7.38231
G1 X123.971 Y116.494 E7.38566
G1 X124.387 Y116.962 E7.3967
G1 X124.568 Y117.189 E7.40182
G1 X124.926 Y117.696 E7.41276
G1 X125.083 Y117.949 E7.41801
G1 X125.382 Y118.496 E7.429
G1 X125.509 Y118.762 E7.43419
G1 X125.745 Y119.341 E7.44521
G1 X125.84 Y119.619 E7.45039
G1 X126.008 Y120.217 E7.46134
G1 X126.071 Y120.503 E7.4665
G1 X126.171 Y121.118 E7.47749
G1 X126.202 Y121.41 E7.48266
G1 X126.232 Y122.032 E7.49364
G1 X126.231 Y122.304 E7.49844
G1 X126.202 Y122.817 E7.50749
G1 X126.174 Y123.078 E7.51212
G1 X126.076 Y123.695 E7.52313
G1 X126.012 Y123.985 E7.52837
G1 X125.845 Y124.584 E7.53933
G1 X125.747 Y124.87 E7.54466
G1 X125.511 Y125.447 E7.55565
G1 X125.389 Y125.705 E7.56068
G1 X125.091 Y126.253 E7.57168
G1 X124.934 Y126.506 E7.57693
G1 X124.574 Y127.018 E7.58796
G1 X124.391 Y127.25 E7.59317
G1 X123.978 Y127.715 E7.60413
G1 X123.772 Y127.922 E7.60928
G1 X123.308 Y128.339 E7.62028
G1 X123.073 Y128.527 E7.62558
G1 X122.562 Y128.889 E7.63662
G1 X122.311 Y129.046 E7.64184
G1 X121.763 Y129.347 E7.65286
G1 X121.504 Y129.471 E7.65792
G1 X120.928 Y129.709 E7.66891
G1 X120.642 Y129.808 E7.67424
G1 X120.044 Y129.977 E7.6852
G1 X119.756 Y130.041 E7.6904
G1 X119.138 Y130.142 E7.70144
G1 X118.848 Y130.173 E7.70658
G1 X118.226 Y130.204 E7.71756
G1 X117.966 Y130.204 E7.72214
G1 X117.49 Y130.18 E7.73054
G1 X117.246 Y130.156 E7.73486
G1 X116.663 Y130.071 E7.74525
G1 X116.381 Y130.014 E7.75032
G1 X115.814 Y129.866 E7.76065
G1 X115.554 Y129.783 E7.76546
G1 X115.002 Y129.575 E7.77586
G1 X114.744 Y129.461 E7.78083
G1 X114.098 Y129.13 E7.79363
G1 X106.426 Y124.719 E7.94963
G1 X105.802 Y124.395 E7.96202
G1 X105.222 Y124.157 E7.97307
G1 X104.602 Y123.962 E7.98453
G1 X103.968 Y123.822 E7.99598
G1 X103.337 Y123.739 E8.0072
G1 X102.623 Y123.708 E8.01979
G1 X101.072 Y123.708 E8.04713
G1 X100.618 Y123.668 E8.05517
G1 X100.178 Y123.55 E8.0632
G1 X99.775 Y123.361 E8.07105
G1 X95.071 Y120.653 E8.16673
G1 X94.697 Y120.392 E8.17476
G1 X94.375 Y120.07 E8.18279
G1 X94.114 Y119.697 E8.19082
G1 X93.923 Y119.283 E8.19885
G1 X93.806 Y118.843 E8.20688
G1 X93.777 Y118.183 E8.21853
G1 X94.32 Y111.694 E8.33331
G1 X94.332 Y111.627 E8.33451
G1 X94.377 Y111.044 E8.34482
G1 X94.962 Y104.757 E8.45613
G1 X95.461 Y99.806 E8.54384
G1 X96.28 Y92.296 E8.67701
G1 X96.369 Y91.849 E8.68505
G1 X96.535 Y91.425 E8.69307
G1 X96.655 Y91.208 E8.69745
G1 X96.73 Y91.087 E8.69996
G1 X97.003 Y90.722 E8.70799
G0 F6000 X97.324 Y90.964
G1 F1200 X97.636 Y90.685 E8.71537
G1 X98.057 Y90.442 E8.72394
G1 X98.194 Y90.382 E8.72657
G1 X98.593 Y90.251 E8.73398
G1 X99.008 Y90.198 E8.74135
G1 X99.472 Y90.233 E8.74955
G1 X99.62 Y90.26 E8.75221
G1 X100.023 Y90.374 E8.75959
G1 X100.397 Y90.562 E8.76697
G1 X100.81 Y90.899 E8.77636
G1 X100.912 Y91.005 E8.77896
