;FLAVOR:Marlin
;TIME:2402
;Filament used: 0.886391m
;Layer height: 0.25
;MINX:99.569
;MINY:86.914
;MINZ:0.2
;MAXX:116.914
;MAXY:133.094
;MAXZ:108.95
;Generated with Cura_SteamEngine 4.6.1
M140 S60
M105
M190 S60
M104 S235
M105
M109 S235
M82 ;absolute extrusion mode
; Ender 3 Custom Start G-code
G92 E0 ; Reset Extruder
G28 ; Home all axes
G1 Z2.0 F3000 ; Move Z Axis up little to prevent scratching of Heat Bed
G1 X0.1 Y20 Z0.3 F5000.0 ; Move to start position
G1 X0.1 Y200.0 Z0.3 F1500.0 E15 ; Draw the first line
G1 X0.4 Y200.0 Z0.3 F5000.0 ; Move to side a little
G1 X0.4 Y20 Z0.3 F1500.0 E30 ; Draw the second line
G92 E0 ; Reset Extruder
G1 Z2.0 F3000 ; Move Z Axis up little to prevent scratching of Heat Bed
G1 X5 Y20 Z0.3 F5000.0 ; Move over to prevent blob squish
G92 E0
G92 E0
G1 F3000 E-1
;LAYER_COUNT:436
;LAYER:0
M107
G0 F6000 X101.774 Y88.505 Z0.2
;TYPE:SKIRT
G1 F3000 E0.20788
G1 F1200 X102.139 Y88.092 E0.21759
G1 X102.592 Y87.713 E0.228
G1 X102.707 Y87.631 E0.23049
G1 X103.177 Y87.344 E0.2402
G1 X103.685 Y87.129 E0.24992
G1 X104.207 Y86.991 E0.25944
G1 X104.281 Y86.977 E0.26077
G1 X104.828 Y86.914 E0.27048
G1 X105.379 Y86.931 E0.28019
G1 X105.921 Y87.028 E0.2899
G1 X106.46 Y87.208 E0.29992
G1 X106.655 Y87.29 E0.30365
G1 X107.146 Y87.54 E0.31336
G1 X107.596 Y87.858 E0.32307
G1 X107.995 Y88.238 E0.33279
G1 X108.335 Y88.672 E0.3425
G1 X108.569 Y89.069 E0.35063
G1 X108.626 Y89.181 E0.35284
G1 X108.839 Y89.689 E0.36255
G1 X108.945 Y90.067 E0.36947
G1 X109.236 Y91.356 E0.39277
G1 X109.847 Y93.973 E0.44014
G1 X110.792 Y97.991 E0.5129
G1 X111.708 Y102.112 E0.58732
G1 X112.557 Y106.16 E0.66023
G1 X113.381 Y110.239 E0.73359
G1 X114.187 Y114.303 E0.80662
G1 X114.978 Y118.374 E0.87973
G1 X115.747 Y122.455 E0.95293
G1 X116.491 Y126.548 E1.02626
G1 X116.858 Y128.635 E1.06362
G1 X116.914 Y129.183 E1.07333
G1 X116.89 Y129.734 E1.08305
G1 X116.787 Y130.275 E1.09276
G1 X116.607 Y130.795 E1.10246
G1 X116.353 Y131.284 E1.11217
G1 X116.031 Y131.732 E1.1219
G1 X115.648 Y132.128 E1.13161
G1 X115.211 Y132.464 E1.14133
G1 X114.731 Y132.734 E1.15103
G1 X114.217 Y132.931 E1.16074
G1 X113.679 Y133.052 E1.17046
G1 X113.116 Y133.094 E1.18041
G1 X112.609 Y133.094 E1.18935
G1 X112.059 Y133.054 E1.19907
G1 X111.521 Y132.935 E1.20878
G1 X111.006 Y132.739 E1.2185
G1 X110.54 Y132.481 E1.22789
G1 X101.297 Y126.482 E1.42213
G1 X100.858 Y126.15 E1.43183
G1 X100.472 Y125.757 E1.44154
G1 X100.146 Y125.313 E1.45125
G1 X99.888 Y124.826 E1.46097
G1 X99.703 Y124.307 E1.47068
G1 X99.595 Y123.766 E1.4804
G1 X99.569 Y123.142 E1.49141
G1 X100.082 Y110.301 E1.71795
G1 X100.343 Y103.361 E1.84038
G1 X100.479 Y99.921 E1.90107
G1 X100.697 Y95.193 E1.9845
G1 X100.952 Y90.728 E2.06334
G1 X101.023 Y90.182 E2.07304
G1 X101.19 Y89.605 E2.08363
G1 X101.242 Y89.467 E2.08623
G1 X101.473 Y88.967 E2.09594
G1 X101.774 Y88.505 E2.10566
G0 F6000 X102.127 Y88.703
G1 F1200 X102.48 Y88.32 E2.11484
G1 X102.824 Y88.039 E2.12267
G1 X102.939 Y87.957 E2.12516
G1 X103.385 Y87.688 E2.13434
G1 X103.867 Y87.49 E2.14353
G1 X104.355 Y87.37 E2.15239
G1 X104.873 Y87.313 E2.16157
G1 X105.394 Y87.335 E2.17076
G1 X105.905 Y87.437 E2.17995
G1 X106.305 Y87.577 E2.18742
G1 X106.5 Y87.659 E2.19115
G1 X106.963 Y87.897 E2.20033
G1 X107.385 Y88.203 E2.20952
G1 X107.755 Y88.57 E2.2187
G1 X108.064 Y88.99 E2.22789
G1 X108.212 Y89.251 E2.23318
G1 X108.269 Y89.363 E2.2354
G1 X108.469 Y89.844 E2.24458
G1 X108.555 Y90.155 E2.25027
G1 X108.847 Y91.447 E2.27362
G1 X109.458 Y94.065 E2.32101
G1 X110.403 Y98.083 E2.39377
G1 X111.317 Y102.199 E2.46809
G1 X112.166 Y106.242 E2.54092
G1 X112.989 Y110.318 E2.61422
G1 X113.795 Y114.381 E2.68724
G1 X114.586 Y118.451 E2.76032
G1 X115.354 Y122.529 E2.83347
G1 X116.097 Y126.619 E2.90675
G1 X116.464 Y128.704 E2.94407
G1 X116.515 Y129.223 E2.95326
G1 X116.486 Y129.743 E2.96244
G1 X116.378 Y130.253 E2.97163
G1 X116.193 Y130.74 E2.98082
G1 X115.936 Y131.194 E2.99001
G1 X115.612 Y131.602 E2.9992
G1 X115.23 Y131.957 E3.00839
G1 X114.798 Y132.249 E3.01758
G1 X114.327 Y132.471 E3.02676
G1 X113.827 Y132.619 E3.03595
G1 X113.116 Y132.694 E3.04856
G1 X112.609 Y132.694 E3.05749
G1 X112.089 Y132.654 E3.06669
G1 X111.582 Y132.535 E3.07587
G1 X111.099 Y132.34 E3.08505
G1 X110.758 Y132.146 E3.09197
G1 X101.515 Y126.147 E3.28621
G1 X101.101 Y125.831 E3.29539
G1 X100.74 Y125.455 E3.30458
G1 X100.441 Y125.028 E3.31377
G1 X100.21 Y124.56 E3.32297
G1 X100.054 Y124.063 E3.33215
G1 X99.975 Y123.548 E3.34133
G1 X99.969 Y123.158 E3.34821
G1 X100.376 Y113.035 E3.5268
G1 X100.384 Y112.963 E3.52808
G1 X100.742 Y103.376 E3.69719
G1 X100.879 Y99.936 E3.75788
G1 X101.097 Y95.211 E3.84126
G1 X101.352 Y90.751 E3.92001
G1 X101.421 Y90.234 E3.92921
G1 X101.564 Y89.746 E3.93817
G1 X101.616 Y89.608 E3.94077
G1 X101.837 Y89.136 E3.94996
G1 X102.127 Y88.703 E3.95914
G0 F6000 X102.479 Y88.904
G1 F1200 X102.819 Y88.552 E3.96777
G1 X103.056 Y88.364 E3.9731
G1 X103.171 Y88.282 E3.97559
G1 X103.592 Y88.032 E3.98422
G1 X104.047 Y87.853 E3.99284
G1 X104.429 Y87.763 E3.99976
G1 X104.916 Y87.712 E4.00839
G1 X105.405 Y87.74 E4.01703
G1 X105.882 Y87.848 E4.02565
G1 X106.15 Y87.946 E4.03068
G1 X106.345 Y88.028 E4.03441
G1 X106.779 Y88.253 E4.04302
G1 X107.171 Y88.547 E4.05166
G1 X107.51 Y88.9 E4.06029
G1 X107.856 Y89.432 E4.07148
G1 X107.913 Y89.544 E4.07369
G1 X108.098 Y89.997 E4.08232
G1 X108.165 Y90.244 E4.08683
G1 X108.458 Y91.538 E4.11022
G1 X109.07 Y94.162 E4.15771
G1 X110.013 Y98.174 E4.23036
G1 X110.927 Y102.286 E4.30462
G1 X111.774 Y106.324 E4.37735
G1 X112.597 Y110.397 E4.4506
G1 X113.403 Y114.459 E4.5236
G1 X114.193 Y118.527 E4.59665
G1 X114.961 Y122.604 E4.66978
G1 X115.704 Y126.691 E4.74301
G1 X116.071 Y128.774 E4.78029
G1 X116.116 Y129.261 E4.78891
G1 X116.081 Y129.749 E4.79754
G1 X115.968 Y130.226 E4.80618
G1 X115.778 Y130.677 E4.81481
G1 X115.518 Y131.091 E4.82342
G1 X115.194 Y131.458 E4.83205
G1 X114.814 Y131.767 E4.84069
G1 X114.389 Y132.01 E4.84932
G1 X113.931 Y132.181 E4.85794
G1 X113.45 Y132.275 E4.86658
G1 X113.116 Y132.294 E4.87247
G1 X112.609 Y132.294 E4.88141
G1 X112.121 Y132.254 E4.89004
G1 X111.646 Y132.135 E4.89867
G1 X111.197 Y131.941 E4.9073
G1 X110.976 Y131.81 E4.91182
G1 X101.733 Y125.811 E5.10607
G1 X101.345 Y125.512 E5.1147
G1 X101.012 Y125.154 E5.12332
G1 X100.741 Y124.747 E5.13194
G1 X100.539 Y124.3 E5.14059
G1 X100.414 Y123.827 E5.14921
G1 X100.368 Y123.174 E5.16075
G1 X100.881 Y110.332 E5.38731
G1 X101.142 Y103.391 E5.50975
G1 X101.278 Y99.952 E5.57042
G1 X101.496 Y95.23 E5.65375
G1 X101.751 Y90.774 E5.73243
G1 X101.819 Y90.289 E5.74106
G1 X101.939 Y89.887 E5.74845
G1 X101.991 Y89.749 E5.75105
G1 X102.2 Y89.307 E5.75967
G1 X102.479 Y88.904 E5.76831
G0 F6000 X102.828 Y89.11
G1 F1200 X103.289 Y88.69 E5.77931
G1 X103.404 Y88.608 E5.7818
G1 X103.796 Y88.377 E5.78982
G1 X104.43 Y88.17 E5.80157
G1 X104.504 Y88.156 E5.8029
G1 X104.957 Y88.111 E5.81093
G1 X105.411 Y88.146 E5.81895
G1 X105.995 Y88.314 E5.82967
G1 X106.19 Y88.396 E5.83339
G1 X106.593 Y88.609 E5.84143
G1 X106.952 Y88.889 E5.84945
G1 X107.258 Y89.227 E5.85749
G1 X107.499 Y89.614 E5.86553
G1 X107.556 Y89.726 E5.86774
G1 X107.775 Y90.332 E5.8791
G1 X108.068 Y91.628 E5.90253
G1 X108.679 Y94.248 E5.94995
G1 X109.624 Y98.266 E6.02271
G1 X110.536 Y102.372 E6.09685
G1 X111.383 Y106.406 E6.16952
G1 X112.205 Y110.476 E6.24271
G1 X113.01 Y114.537 E6.31569
G1 X113.8 Y118.603 E6.38871
G1 X114.568 Y122.678 E6.4618
G1 X115.31 Y126.762 E6.53497
G1 X115.677 Y128.843 E6.57222
G1 X115.716 Y129.297 E6.58026
G1 X115.676 Y129.751 E6.58829
G1 X115.557 Y130.191 E6.59633
G1 X115.363 Y130.603 E6.60435
G1 X115.1 Y130.975 E6.61238
G1 X114.776 Y131.295 E6.62041
G1 X114.401 Y131.554 E6.62845
G1 X113.986 Y131.744 E6.63649
G1 X113.545 Y131.858 E6.64452
G1 X113.116 Y131.894 E6.65211
G1 X112.609 Y131.894 E6.66105
G1 X112.155 Y131.854 E6.66908
G1 X111.715 Y131.736 E6.67711
G1 X111.194 Y131.475 E6.68738
G1 X101.951 Y125.476 E6.88163
G1 X101.592 Y125.195 E6.88966
G1 X101.287 Y124.856 E6.8977
G1 X101.046 Y124.469 E6.90574
G1 X100.877 Y124.047 E6.91375
G1 X100.784 Y123.6 E6.9218
G1 X100.768 Y123.191 E6.92902
G1 X101.175 Y113.068 E7.10761
G1 X101.183 Y113.002 E7.10878
G1 X101.18 Y112.948 E7.10973
G1 X101.281 Y110.347 E7.15562
G1 X101.542 Y103.406 E7.27806
G1 X101.678 Y99.968 E7.33871
G1 X101.896 Y95.248 E7.422
G1 X102.15 Y90.797 E7.50059
G1 X102.216 Y90.346 E7.50863
G1 X102.313 Y90.028 E7.51449
G1 X102.365 Y89.89 E7.51709
G1 X102.562 Y89.48 E7.52511
G1 X102.828 Y89.11 E7.53314
G0 F6000 X103.176 Y89.321
G1 F1200 X103.521 Y89.016 E7.54126
G1 X103.636 Y88.934 E7.54375
G1 X103.999 Y88.724 E7.55114
G1 X104.504 Y88.563 E7.56048
G1 X104.578 Y88.549 E7.56181
G1 X104.995 Y88.511 E7.56919
G1 X105.412 Y88.553 E7.57658
G1 X105.84 Y88.683 E7.58446
G1 X106.035 Y88.765 E7.58819
G1 X106.404 Y88.963 E7.59557
G1 X106.729 Y89.228 E7.60297
G1 X106.997 Y89.55 E7.61035
G1 X107.143 Y89.795 E7.61538
G1 X107.2 Y89.907 E7.61759
G1 X107.385 Y90.42 E7.62721
G1 X107.682 Y91.734 E7.65095
G1 X108.289 Y94.339 E7.69811
G1 X109.235 Y98.357 E7.77087
G1 X110.146 Y102.459 E7.84494
G1 X110.991 Y106.488 E7.91751
G1 X111.812 Y110.556 E7.99067
G1 X112.618 Y114.615 E8.06361
G1 X113.408 Y118.679 E8.1366
G1 X114.175 Y122.752 E8.20966
G1 X114.917 Y126.834 E8.28279
G1 X115.283 Y128.912 E8.31999
G1 X115.316 Y129.33 E8.32738
G1 X115.269 Y129.747 E8.33478
G1 X115.144 Y130.147 E8.34216
G1 X114.946 Y130.516 E8.34954
G1 X114.681 Y130.84 E8.35692
G1 X114.359 Y131.109 E8.36432
G1 X113.992 Y131.312 E8.37171
G1 X113.594 Y131.441 E8.37909
G1 X113.116 Y131.494 E8.38757
G1 X112.609 Y131.494 E8.3965
G1 X112.192 Y131.454 E8.40389
G1 X111.79 Y131.336 E8.41127
G1 X111.411 Y131.139 E8.4188
G1 X102.168 Y125.14 E8.61305
G1 X101.84 Y124.88 E8.62042
G1 X101.567 Y124.562 E8.62781
G1 X101.36 Y124.198 E8.63519
G1 X101.225 Y123.801 E8.64259
G1 X101.168 Y123.207 E8.6531
G1 X101.575 Y113.084 E8.8317
G1 X101.585 Y113.012 E8.83298
G1 X101.681 Y110.363 E8.8797
G1 X101.942 Y103.421 E9.00216
G1 X102.078 Y99.984 E9.0628
G1 X102.295 Y95.267 E9.14604
G1 X102.55 Y90.819 E9.22457
G1 X102.613 Y90.405 E9.23196
G1 X102.687 Y90.169 E9.23632
G1 X102.739 Y90.031 E9.23891
G1 X102.924 Y89.655 E9.2463
G1 X103.176 Y89.321 E9.25368
G0 F6000 X103.284 Y89.834
G1 F1200 X103.521 Y89.538 E9.26036
G1 X103.753 Y89.341 E9.26573
G1 X103.868 Y89.259 E9.26822
G1 X104.198 Y89.073 E9.27489
G1 X104.578 Y88.956 E9.2819
G1 X104.652 Y88.942 E9.28323
G1 X105.03 Y88.912 E9.28992
G1 X105.406 Y88.96 E9.2966
G1 X105.685 Y89.052 E9.30178
G1 X105.88 Y89.134 E9.3055
G1 X106.212 Y89.317 E9.31219
G1 X106.498 Y89.565 E9.31886
G1 X106.786 Y89.977 E9.32772
G1 X106.843 Y90.089 E9.32994
G1 X106.995 Y90.508 E9.33779
G1 X107.289 Y91.81 E9.36132
G1 X107.9 Y94.431 E9.40876
G1 X108.845 Y98.449 E9.48153
G1 X109.755 Y102.546 E9.55551
G1 X110.6 Y106.57 E9.62799
G1 X111.42 Y110.635 E9.70109
G1 X112.226 Y114.693 E9.77402
G1 X113.015 Y118.756 E9.84698
G1 X113.782 Y122.826 E9.91999
G1 X114.523 Y126.905 E9.99307
G1 X114.889 Y128.982 E10.03025
G1 X114.915 Y129.36 E10.03693
G1 X114.861 Y129.735 E10.04361
G1 X114.73 Y130.091 E10.05029
G1 X114.528 Y130.411 E10.05696
G1 X114.263 Y130.682 E10.06364
G1 X113.947 Y130.891 E10.07032
G1 X113.594 Y131.029 E10.077
G1 X113.116 Y131.094 E10.08551
G1 X112.609 Y131.094 E10.09445
G1 X112.232 Y131.054 E10.10113
G1 X111.872 Y130.936 E10.10781
G1 X111.629 Y130.804 E10.11268
G1 X102.386 Y124.805 E10.30692
G1 X102.092 Y124.566 E10.3136
G1 X101.854 Y124.271 E10.32029
G1 X101.683 Y123.933 E10.32696
G1 X101.587 Y123.567 E10.33363
G1 X101.567 Y123.223 E10.33971
G1 X102.08 Y110.378 E10.56632
G1 X102.341 Y103.436 E10.68878
G1 X102.477 Y100 E10.74939
G1 X102.695 Y95.285 E10.8326
G1 X102.949 Y90.842 E10.91105
G1 X103.062 Y90.31 E10.92063
G1 X103.114 Y90.172 E10.92323
G1 X103.284 Y89.834 E10.9299
G0 F6000 X103.642 Y90.017
G1 F1200 X103.985 Y89.667 E10.93854
G1 X104.1 Y89.585 E10.94103
G1 X104.393 Y89.425 E10.94692
G1 X104.653 Y89.349 E10.95169
G1 X104.727 Y89.335 E10.95302
G1 X105.06 Y89.313 E10.9589
G1 X105.53 Y89.42 E10.9674
G1 X105.725 Y89.502 E10.97113
G1 X106.015 Y89.668 E10.97702
G1 X106.258 Y89.897 E10.9829
G1 X106.43 Y90.158 E10.98841
G1 X106.487 Y90.27 E10.99063
G1 X106.605 Y90.596 E10.99674
G1 X106.902 Y91.91 E11.02049
G1 X107.51 Y94.522 E11.06776
G1 X108.456 Y98.54 E11.14053
G1 X109.365 Y102.632 E11.21442
G1 X110.208 Y106.653 E11.28684
G1 X111.028 Y110.714 E11.35987
G1 X111.833 Y114.771 E11.43278
G1 X112.622 Y118.832 E11.50571
G1 X113.389 Y122.9 E11.57868
G1 X114.129 Y126.977 E11.65173
G1 X114.495 Y129.051 E11.68885
G1 X114.513 Y129.385 E11.69475
G1 X114.452 Y129.713 E11.70063
G1 X114.314 Y130.018 E11.70653
G1 X114.109 Y130.281 E11.71241
G1 X113.847 Y130.488 E11.71829
G1 X113.543 Y130.627 E11.72419
G1 X113.116 Y130.694 E11.73181
G1 X112.609 Y130.694 E11.74074
G1 X112.277 Y130.654 E11.74664
G1 X111.847 Y130.468 E11.7549
G1 X102.604 Y124.469 E11.94914
G1 X102.347 Y124.255 E11.95504
G1 X102.149 Y123.987 E11.96091
G1 X102.02 Y123.679 E11.9668
G1 X101.967 Y123.239 E11.97461
G1 X102.374 Y113.116 E12.1532
G1 X102.382 Y113.064 E12.15413
G1 X102.379 Y112.995 E12.15534
G1 X102.48 Y110.394 E12.20123
G1 X102.741 Y103.451 E12.32371
G1 X102.877 Y100.016 E12.38431
G1 X103.094 Y95.303 E12.46747
G1 X103.348 Y90.865 E12.54583
G1 X103.436 Y90.451 E12.55329
G1 X103.488 Y90.313 E12.55589
G1 X103.642 Y90.017 E12.56178
G0 F6000 X103.998 Y90.207
G1 F1200 X104.217 Y89.993 E12.56717
G1 X104.332 Y89.911 E12.56966
G1 X104.583 Y89.781 E12.57465
G1 X104.727 Y89.742 E12.57728
G1 X104.801 Y89.728 E12.5786
G1 X105.083 Y89.716 E12.58358
G1 X105.375 Y89.789 E12.58889
G1 X105.57 Y89.871 E12.59261
G1 X105.812 Y90.016 E12.59759
G1 X106.073 Y90.339 E12.60491
G1 X106.13 Y90.451 E12.60712
G1 X106.214 Y90.685 E12.61151
G1 X106.509 Y91.992 E12.63512
G1 X107.122 Y94.616 E12.68263
G1 X108.066 Y98.632 E12.75535
G1 X108.974 Y102.719 E12.82915
G1 X109.817 Y106.735 E12.90149
G1 X110.636 Y110.793 E12.97446
G1 X111.441 Y114.848 E13.04734
G1 X112.23 Y118.908 E13.12025
G1 X112.996 Y122.974 E13.19318
G1 X113.736 Y127.048 E13.26617
G1 X114.101 Y129.121 E13.30328
G1 X114.11 Y129.403 E13.30825
G1 X114.04 Y129.676 E13.31322
G1 X113.897 Y129.919 E13.31819
G1 X113.691 Y130.112 E13.32317
G1 X113.44 Y130.24 E13.32813
G1 X113.116 Y130.294 E13.33392
G1 X112.609 Y130.294 E13.34286
G1 X112.33 Y130.254 E13.34783
G1 X112.065 Y130.133 E13.35296
G1 X102.822 Y124.134 E13.54721
G1 X102.609 Y123.948 E13.55219
G1 X102.457 Y123.711 E13.55716
G1 X102.377 Y123.44 E13.56214
G1 X102.367 Y123.255 E13.5654
G1 X102.774 Y113.132 E13.74399
G1 X102.783 Y113.082 E13.74489
G1 X102.779 Y113.01 E13.74616
G1 X102.88 Y110.409 E13.79205
G1 X103.141 Y103.466 E13.91452
G1 X103.277 Y100.031 E13.97512
G1 X103.494 Y95.322 E14.05822
G1 X103.748 Y90.888 E14.13651
G1 X103.81 Y90.592 E14.14184
G1 X103.862 Y90.454 E14.14444
G1 X103.998 Y90.207 E14.14941
G0 F6000 X104.349 Y90.409
G1 F1200 X104.45 Y90.318 E14.15181
G1 X104.565 Y90.236 E14.1543
G1 X104.801 Y90.135 E14.15882
G1 X104.875 Y90.121 E14.16015
G1 X105.094 Y90.121 E14.16401
G1 X105.22 Y90.158 E14.16633
G1 X105.415 Y90.24 E14.17005
G1 X105.597 Y90.36 E14.1739
G1 X105.717 Y90.521 E14.17744
G1 X105.774 Y90.633 E14.17965
G1 X105.824 Y90.773 E14.18227
G1 X106.12 Y92.083 E14.20595
G1 X106.732 Y94.706 E14.25343
G1 X107.677 Y98.724 E14.32619
G1 X108.584 Y102.806 E14.3999
G1 X109.425 Y106.817 E14.47214
G1 X110.244 Y110.872 E14.54507
G1 X111.049 Y114.926 E14.61793
G1 X111.837 Y118.985 E14.69081
G1 X112.603 Y123.048 E14.7637
G1 X113.342 Y127.12 E14.83665
G1 X113.707 Y129.19 E14.8737
G1 X113.705 Y129.408 E14.87755
G1 X113.625 Y129.611 E14.88139
G1 X113.478 Y129.772 E14.88524
