;FLAVOR:Marlin
;TIME:2403
;Filament used: 0.886932m
;Layer height: 0.25
;MINX:103.086
;MINY:86.912
;MINZ:0.2
;MAXX:120.43
;MAXY:133.094
;MAXZ:108.95
;Generated with Cura_SteamEngine 4.6.1
M140 S60
M105
M190 S60
M104 S235
M105
M109 S235
M82 ;absolute extrusion mode
; Ender 3 Custom Start G-code
G92 E0 ; Reset Extruder
G28 ; Home all axes
G1 Z2.0 F3000 ; Move Z Axis up little to prevent scratching of Heat Bed
G1 X0.1 Y20 Z0.3 F5000.0 ; Move to start position
G1 X0.1 Y200.0 Z0.3 F1500.0 E15 ; Draw the first line
G1 X0.4 Y200.0 Z0.3 F5000.0 ; Move to side a little
G1 X0.4 Y20 Z0.3 F1500.0 E30 ; Draw the second line
G92 E0 ; Reset Extruder
G1 Z2.0 F3000 ; Move Z Axis up little to prevent scratching of Heat Bed
G1 X5 Y20 Z0.3 F5000.0 ; Move over to prevent blob squish
G92 E0
G92 E0
G1 F3000 E-1
;LAYER_COUNT:436
;LAYER:0
M107
G0 F6000 X111.68 Y88.651 Z0.2
;TYPE:SKIRT
G1 F3000 E0.20788
G1 F1200 X112.023 Y88.22 E0.21759
G1 X112.424 Y87.843 E0.22729
G1 X112.809 Y87.569 E0.23562
G1 X112.931 Y87.493 E0.23815
G1 X113.418 Y87.236 E0.24786
G1 X113.938 Y87.053 E0.25758
G1 X114.526 Y86.941 E0.26813
G1 X114.599 Y86.933 E0.26942
G1 X115.15 Y86.912 E0.27914
G1 X115.697 Y86.972 E0.28884
G1 X116.231 Y87.11 E0.29857
G1 X116.748 Y87.329 E0.30846
G1 X116.937 Y87.426 E0.31221
G1 X117.408 Y87.713 E0.32193
G1 X117.832 Y88.064 E0.33163
G1 X118.201 Y88.473 E0.34134
G1 X118.507 Y88.932 E0.35107
G1 X118.758 Y89.467 E0.36149
G1 X118.81 Y89.605 E0.36408
G1 X118.966 Y90.133 E0.37379
G1 X119.048 Y90.727 E0.38436
G1 X119.307 Y95.243 E0.4641
G1 X119.52 Y99.897 E0.54622
G1 X119.66 Y103.432 E0.60859
G1 X120.023 Y112.997 E0.77732
G1 X120.43 Y123.144 E0.95633
G1 X120.412 Y123.694 E0.96603
G1 X120.315 Y124.237 E0.97576
G1 X120.14 Y124.759 E0.98546
G1 X119.891 Y125.251 E0.99518
G1 X119.574 Y125.702 E1.0049
G1 X119.196 Y126.102 E1.0146
G1 X118.702 Y126.483 E1.0256
G1 X109.464 Y132.481 E1.21976
G1 X108.982 Y132.747 E1.22946
G1 X108.466 Y132.94 E1.23918
G1 X107.927 Y133.057 E1.2489
G1 X107.395 Y133.094 E1.2583
G1 X106.885 Y133.094 E1.26729
G1 X106.335 Y133.054 E1.27701
G1 X105.797 Y132.935 E1.28672
G1 X105.282 Y132.739 E1.29644
G1 X104.801 Y132.471 E1.30614
G1 X104.363 Y132.137 E1.31585
G1 X103.979 Y131.742 E1.32556
G1 X103.655 Y131.296 E1.33528
G1 X103.4 Y130.808 E1.34499
G1 X103.217 Y130.288 E1.35471
G1 X103.112 Y129.747 E1.36442
G1 X103.086 Y129.197 E1.37413
G1 X103.142 Y128.636 E1.38406
G1 X103.501 Y126.593 E1.42063
G1 X104.24 Y122.525 E1.49351
G1 X105.011 Y118.437 E1.56685
G1 X105.803 Y114.36 E1.64006
G1 X106.608 Y110.293 E1.71314
G1 X107.429 Y106.229 E1.78623
G1 X108.295 Y102.098 E1.86063
G1 X109.193 Y98.057 E1.93361
G1 X110.759 Y91.375 E2.05459
G1 X111.05 Y90.085 E2.0779
G1 X111.209 Y89.557 E2.08762
G1 X111.342 Y89.252 E2.09348
G1 X111.403 Y89.127 E2.09594
G1 X111.68 Y88.651 E2.10564
G0 F6000 X112.026 Y88.853
G1 F1200 X112.356 Y88.45 E2.11483
G1 X112.743 Y88.101 E2.12401
G1 X113.02 Y87.908 E2.12996
G1 X113.142 Y87.832 E2.1325
G1 X113.604 Y87.591 E2.14168
G1 X114.098 Y87.424 E2.15087
G1 X114.57 Y87.338 E2.15933
G1 X114.643 Y87.33 E2.16063
G1 X115.163 Y87.313 E2.1698
G1 X115.681 Y87.376 E2.179
G1 X116.182 Y87.517 E2.18817
G1 X116.565 Y87.685 E2.19554
G1 X116.754 Y87.782 E2.19929
G1 X117.199 Y88.055 E2.20849
G1 X117.596 Y88.392 E2.21767
G1 X117.937 Y88.787 E2.22687
G1 X118.213 Y89.228 E2.23604
G1 X118.384 Y89.608 E2.24339
G1 X118.436 Y89.746 E2.24599
G1 X118.581 Y90.246 E2.25516
G1 X118.648 Y90.75 E2.26413
G1 X118.907 Y95.266 E2.34386
G1 X119.12 Y99.916 E2.42592
G1 X119.26 Y103.447 E2.48821
G1 X119.623 Y113.013 E2.65696
G1 X120.03 Y123.16 E2.83598
G1 X120.011 Y123.681 E2.84517
G1 X119.913 Y124.192 E2.85434
G1 X119.737 Y124.683 E2.86353
G1 X119.489 Y125.141 E2.87271
G1 X119.173 Y125.556 E2.88191
G1 X118.798 Y125.918 E2.8911
G1 X118.485 Y126.148 E2.89794
G1 X109.247 Y132.146 E3.0921
G1 X108.789 Y132.395 E3.10129
G1 X108.299 Y132.572 E3.11048
G1 X107.787 Y132.671 E3.11967
G1 X107.395 Y132.694 E3.12659
G1 X106.885 Y132.694 E3.13558
G1 X106.365 Y132.654 E3.14478
G1 X105.858 Y132.535 E3.15396
G1 X105.375 Y132.34 E3.16314
G1 X104.927 Y132.074 E3.17232
G1 X104.525 Y131.742 E3.18151
G1 X104.179 Y131.352 E3.1907
G1 X103.896 Y130.914 E3.1999
G1 X103.683 Y130.439 E3.20907
G1 X103.546 Y129.936 E3.21826
G1 X103.487 Y129.418 E3.22745
G1 X103.536 Y128.706 E3.24003
G1 X103.895 Y126.663 E3.2766
G1 X104.634 Y122.596 E3.34946
G1 X105.404 Y118.511 E3.42274
G1 X106.195 Y114.437 E3.4959
G1 X107.001 Y110.371 E3.56897
G1 X107.821 Y106.308 E3.64204
G1 X108.686 Y102.18 E3.71638
G1 X109.583 Y98.144 E3.78927
G1 X111.149 Y91.467 E3.91016
G1 X111.44 Y90.172 E3.93356
G1 X111.593 Y89.674 E3.94274
G1 X111.701 Y89.428 E3.94748
G1 X111.762 Y89.303 E3.94993
G1 X112.026 Y88.853 E3.95913
G0 F6000 X112.372 Y89.057
G1 F1200 X112.687 Y88.683 E3.96775
G1 X113.232 Y88.248 E3.98004
G1 X113.354 Y88.172 E3.98257
G1 X113.789 Y87.948 E3.9912
G1 X114.255 Y87.797 E3.99983
G1 X114.686 Y87.728 E4.00753
G1 X115.175 Y87.714 E4.01615
G1 X115.66 Y87.781 E4.02478
G1 X116.128 Y87.925 E4.03341
G1 X116.383 Y88.041 E4.03835
G1 X116.572 Y88.138 E4.0421
G1 X116.988 Y88.396 E4.05073
G1 X117.356 Y88.719 E4.05936
G1 X117.667 Y89.097 E4.06799
G1 X117.912 Y89.52 E4.0766
G1 X118.009 Y89.749 E4.08099
G1 X118.061 Y89.887 E4.08359
G1 X118.196 Y90.358 E4.09222
G1 X118.249 Y90.773 E4.0996
G1 X118.508 Y95.289 E4.17934
G1 X118.721 Y99.934 E4.2613
G1 X118.861 Y103.463 E4.32356
G1 X119.218 Y112.988 E4.49158
G1 X119.631 Y123.176 E4.67132
G1 X119.61 Y123.665 E4.67995
G1 X119.511 Y124.144 E4.68858
G1 X119.334 Y124.601 E4.69721
G1 X119.086 Y125.023 E4.70584
G1 X118.773 Y125.399 E4.71447
G1 X118.267 Y125.812 E4.72598
G1 X109.029 Y131.81 E4.92014
G1 X108.598 Y132.042 E4.92877
G1 X108.135 Y132.201 E4.9374
G1 X107.652 Y132.283 E4.94603
G1 X107.395 Y132.294 E4.95057
G1 X106.885 Y132.294 E4.95956
G1 X106.397 Y132.254 E4.96819
G1 X105.922 Y132.135 E4.97682
G1 X105.473 Y131.941 E4.98544
G1 X105.061 Y131.676 E4.99408
G1 X104.698 Y131.348 E5.0027
G1 X104.393 Y130.965 E5.01133
G1 X104.155 Y130.537 E5.01997
G1 X103.989 Y130.077 E5.02859
G1 X103.9 Y129.596 E5.03721
G1 X103.891 Y129.106 E5.04585
G1 X103.93 Y128.775 E5.05173
G1 X104.289 Y126.732 E5.08829
G1 X105.027 Y122.668 E5.1611
G1 X105.797 Y118.585 E5.23435
G1 X106.588 Y114.513 E5.30747
G1 X107.393 Y110.449 E5.3805
G1 X108.213 Y106.387 E5.45355
G1 X109.078 Y102.262 E5.52785
G1 X109.973 Y98.231 E5.60063
G1 X111.538 Y91.558 E5.72146
G1 X111.83 Y90.26 E5.74491
G1 X112.061 Y89.603 E5.75719
G1 X112.122 Y89.478 E5.75964
G1 X112.372 Y89.057 E5.76827
G0 F6000 X112.716 Y89.263
G1 F1200 X113.016 Y88.92 E5.7763
G1 X113.443 Y88.587 E5.78585
G1 X113.565 Y88.511 E5.78838
G1 X113.972 Y88.305 E5.79642
G1 X114.408 Y88.173 E5.80445
G1 X114.73 Y88.125 E5.81019
G1 X115.185 Y88.116 E5.81821
G1 X115.636 Y88.186 E5.82626
G1 X116.2 Y88.397 E5.83687
G1 X116.389 Y88.494 E5.84062
G1 X116.775 Y88.737 E5.84866
G1 X117.112 Y89.043 E5.85668
G1 X117.391 Y89.403 E5.86471
G1 X117.635 Y89.89 E5.87431
G1 X117.687 Y90.028 E5.87691
G1 X117.81 Y90.467 E5.88495
G1 X117.85 Y90.796 E5.89079
G1 X118.109 Y95.312 E5.97053
G1 X118.321 Y99.952 E6.05241
G1 X118.461 Y103.479 E6.11463
G1 X118.824 Y113.045 E6.28338
G1 X119.231 Y123.192 E6.46239
G1 X119.209 Y123.647 E6.47042
G1 X119.108 Y124.091 E6.47845
G1 X118.932 Y124.511 E6.48648
G1 X118.684 Y124.894 E6.49452
G1 X118.374 Y125.227 E6.50254
G1 X118.049 Y125.477 E6.50977
G1 X108.811 Y131.475 E6.70393
G1 X108.408 Y131.688 E6.71197
G1 X107.975 Y131.829 E6.71999
G1 X107.395 Y131.894 E6.73028
G1 X106.885 Y131.894 E6.73927
G1 X106.431 Y131.854 E6.74731
G1 X105.991 Y131.736 E6.75534
G1 X105.579 Y131.542 E6.76336
G1 X105.206 Y131.279 E6.77141
G1 X104.885 Y130.956 E6.77944
G1 X104.626 Y130.581 E6.78747
G1 X104.436 Y130.167 E6.7955
G1 X104.321 Y129.726 E6.80353
G1 X104.285 Y129.272 E6.81156
G1 X104.324 Y128.844 E6.81914
G1 X104.683 Y126.801 E6.8557
G1 X105.421 Y122.739 E6.92848
G1 X106.19 Y118.659 E7.00167
G1 X106.981 Y114.589 E7.07476
G1 X107.786 Y110.527 E7.14775
G1 X108.605 Y106.466 E7.22078
G1 X109.469 Y102.344 E7.29502
G1 X110.364 Y98.318 E7.36772
G1 X111.923 Y91.672 E7.48806
G1 X112.22 Y90.348 E7.51198
G1 X112.42 Y89.779 E7.52261
G1 X112.481 Y89.654 E7.52506
G1 X112.716 Y89.263 E7.5331
G0 F6000 X113.06 Y89.472
G1 F1200 X113.342 Y89.162 E7.54049
G1 X113.655 Y88.927 E7.54739
G1 X113.777 Y88.851 E7.54992
G1 X114.152 Y88.664 E7.55731
G1 X114.7 Y88.531 E7.56725
G1 X114.773 Y88.523 E7.56855
G1 X115.192 Y88.517 E7.57593
G1 X115.605 Y88.591 E7.58333
G1 X116.018 Y88.753 E7.59115
G1 X116.207 Y88.85 E7.59489
G1 X116.559 Y89.076 E7.60227
G1 X116.863 Y89.364 E7.60965
G1 X117.106 Y89.706 E7.61705
G1 X117.261 Y90.031 E7.62339
G1 X117.313 Y90.169 E7.62599
G1 X117.422 Y90.574 E7.63339
G1 X117.45 Y90.819 E7.63773
G1 X117.709 Y95.335 E7.71747
G1 X117.922 Y99.97 E7.79926
G1 X118.061 Y103.495 E7.86145
G1 X118.424 Y113.061 E8.0302
G1 X118.831 Y123.208 E8.20921
G1 X118.808 Y123.626 E8.21659
G1 X118.706 Y124.033 E8.22399
G1 X118.529 Y124.412 E8.23136
G1 X118.283 Y124.752 E8.23876
G1 X117.831 Y125.141 E8.24927
G1 X108.593 Y131.139 E8.44343
G1 X108.221 Y131.333 E8.45083
G1 X107.82 Y131.453 E8.45821
G1 X107.395 Y131.494 E8.46573
G1 X106.885 Y131.494 E8.47472
G1 X106.468 Y131.454 E8.48211
G1 X106.066 Y131.336 E8.48949
G1 X105.694 Y131.143 E8.49688
G1 X105.365 Y130.884 E8.50426
G1 X105.091 Y130.567 E8.51165
G1 X104.882 Y130.204 E8.51903
G1 X104.746 Y129.807 E8.52643
G1 X104.687 Y129.392 E8.53382
G1 X104.718 Y128.913 E8.54228
G1 X105.077 Y126.87 E8.57885
G1 X105.814 Y122.811 E8.65157
G1 X106.583 Y118.733 E8.72472
G1 X107.373 Y114.665 E8.79777
G1 X108.178 Y110.604 E8.87075
G1 X108.998 Y106.546 E8.94373
G1 X109.861 Y102.426 E9.01793
G1 X110.754 Y98.405 E9.09054
G1 X112.317 Y91.741 E9.2112
G1 X112.611 Y90.436 E9.23478
G1 X112.78 Y89.954 E9.24379
G1 X112.841 Y89.829 E9.24624
G1 X113.06 Y89.472 E9.25362
G0 F6000 X113.401 Y89.683
G1 F1200 X113.665 Y89.411 E9.2603
G1 X113.866 Y89.266 E9.26467
G1 X113.988 Y89.19 E9.26721
G1 X114.329 Y89.025 E9.27388
G1 X114.744 Y88.929 E9.28139
G1 X114.817 Y88.921 E9.28269
G1 X115.196 Y88.919 E9.28937
G1 X115.567 Y88.997 E9.29605
G1 X115.835 Y89.109 E9.30117
G1 X116.024 Y89.206 E9.30492
G1 X116.341 Y89.413 E9.31159
G1 X116.608 Y89.682 E9.31827
G1 X116.886 Y90.172 E9.3282
G1 X116.938 Y90.31 E9.3308
G1 X117.051 Y90.842 E9.34039
G1 X117.31 Y95.358 E9.42013
G1 X117.522 Y99.989 E9.50185
G1 X117.662 Y103.511 E9.56398
G1 X118.021 Y112.981 E9.73104
G1 X118.017 Y113.033 E9.73196
G1 X118.432 Y123.224 E9.91175
G1 X118.407 Y123.602 E9.91843
G1 X118.303 Y123.967 E9.92512
G1 X118.126 Y124.301 E9.93178
G1 X117.882 Y124.592 E9.93848
G1 X117.613 Y124.806 E9.94454
G1 X108.375 Y130.804 E10.1387
G1 X108.037 Y130.975 E10.14537
G1 X107.671 Y131.073 E10.15205
G1 X107.395 Y131.094 E10.15693
G1 X106.885 Y131.094 E10.16592
G1 X106.508 Y131.054 E10.17261
G1 X106.148 Y130.936 E10.17928
G1 X105.821 Y130.746 E10.18595
G1 X105.54 Y130.491 E10.19264
G1 X105.32 Y130.182 E10.19933
G1 X105.168 Y129.835 E10.206
G1 X105.093 Y129.464 E10.21268
G1 X105.112 Y128.982 E10.22118
G1 X105.471 Y126.939 E10.25775
G1 X106.208 Y122.882 E10.33043
G1 X106.976 Y118.808 E10.40351
G1 X107.766 Y114.742 E10.47653
G1 X108.57 Y110.682 E10.54949
G1 X109.39 Y106.625 E10.62245
G1 X110.252 Y102.508 E10.6966
G1 X111.145 Y98.491 E10.76914
G1 X112.707 Y91.832 E10.88971
G1 X113.001 Y90.524 E10.91334
G1 X113.139 Y90.13 E10.9207
G1 X113.2 Y90.005 E10.92315
G1 X113.401 Y89.683 E10.92984
G0 F6000 X113.741 Y89.899
G1 F1200 X114.078 Y89.606 E10.93771
G1 X114.2 Y89.53 E10.94025
G1 X114.502 Y89.388 E10.94613
G1 X114.787 Y89.326 E10.95127
G1 X114.86 Y89.318 E10.95257
G1 X115.195 Y89.322 E10.95847
G1 X115.652 Y89.464 E10.96691
G1 X115.841 Y89.561 E10.97065
G1 X116.118 Y89.748 E10.97654
G1 X116.343 Y89.996 E10.98245
G1 X116.512 Y90.313 E10.98878
G1 X116.564 Y90.451 E10.99138
G1 X116.652 Y90.865 E10.99884
G1 X116.911 Y95.381 E11.07858
G1 X117.123 Y100.007 E11.16021
G1 X117.262 Y103.527 E11.22231
G1 X117.621 Y112.996 E11.38935
G1 X117.616 Y113.052 E11.39034
G1 X118.032 Y123.24 E11.57008
G1 X118.005 Y123.573 E11.57597
G1 X117.901 Y123.89 E11.58185
G1 X117.724 Y124.174 E11.58775
G1 X117.395 Y124.47 E11.59555
G1 X108.157 Y130.468 E11.78971
G1 X107.857 Y130.615 E11.7956
G1 X107.395 Y130.694 E11.80386
G1 X106.885 Y130.694 E11.81285
G1 X106.553 Y130.654 E11.81875
G1 X106.241 Y130.537 E11.82462
G1 X105.964 Y130.349 E11.83052
G1 X105.741 Y130.101 E11.8364
G1 X105.582 Y129.807 E11.84229
G1 X105.498 Y129.483 E11.84819
G1 X105.506 Y129.052 E11.85579
G1 X105.865 Y127.009 E11.89236
G1 X106.602 Y122.954 E11.96501
G1 X107.369 Y118.882 E12.03805
G1 X108.159 Y114.818 E12.11103
G1 X108.963 Y110.76 E12.18396
G1 X109.782 Y106.704 E12.2569
G1 X110.644 Y102.59 E12.331
G1 X111.535 Y98.578 E12.40344
G1 X113.096 Y91.923 E12.52394
G1 X113.391 Y90.612 E12.54763
G1 X113.499 Y90.305 E12.55337
G1 X113.56 Y90.18 E12.55582
G1 X113.741 Y89.899 E12.56171
G0 F6000 X114.078 Y90.122
G1 F1200 X114.289 Y89.945 E12.56656
G1 X114.411 Y89.869 E12.5691
G1 X114.669 Y89.755 E12.57407
G1 X114.831 Y89.724 E12.57698
G1 X114.904 Y89.716 E12.57827
G1 X115.186 Y89.725 E12.58325
G1 X115.47 Y89.82 E12.58852
G1 X115.659 Y89.917 E12.59227
G1 X115.889 Y90.08 E12.59724
G1 X116.065 Y90.301 E12.60222
G1 X116.138 Y90.454 E12.60521
G1 X116.19 Y90.592 E12.60781
G1 X116.252 Y90.888 E12.61314
G1 X116.511 Y95.404 E12.69288
G1 X116.723 Y100.025 E12.77442
G1 X116.862 Y103.542 E12.83647
G1 X117.221 Y113.011 E13.0035
G1 X117.215 Y113.068 E13.00451
G1 X117.632 Y123.256 E13.18426
G1 X117.604 Y123.537 E13.18924
G1 X117.498 Y123.798 E13.1942
G1 X117.323 Y124.02 E13.19918
G1 X117.178 Y124.135 E13.20245
G1 X107.94 Y130.133 E13.39661
G1 X107.684 Y130.251 E13.40158
G1 X107.395 Y130.294 E13.40673
G1 X106.885 Y130.294 E13.41572
G1 X106.606 Y130.254 E13.42069
G1 X106.349 Y130.138 E13.42566
G1 X106.134 Y129.955 E13.43063
G1 X105.98 Y129.719 E13.4356
G1 X105.897 Y129.449 E13.44058
G1 X105.9 Y129.121 E13.44636
G1 X106.259 Y127.078 E13.48293
G1 X106.995 Y123.025 E13.55554
G1 X107.762 Y118.956 E13.62853
G1 X108.551 Y114.894 E13.70148
G1 X109.355 Y110.838 E13.77437
G1 X110.174 Y106.783 E13.84729
G1 X111.035 Y102.672 E13.92133
G1 X111.926 Y98.665 E13.99369
G1 X113.485 Y92.015 E14.11409
G1 X113.781 Y90.699 E14.13787
G1 X113.858 Y90.48 E14.14196
G1 X113.919 Y90.355 E14.14442
G1 X114.078 Y90.122 E14.14939
G0 F6000 X114.279 Y90.531
G1 F1200 X114.409 Y90.355 E14.15325
G1 X114.501 Y90.285 E14.15528
G1 X114.623 Y90.209 E14.15782
G1 X114.875 Y90.122 E14.16252
G1 X114.948 Y90.114 E14.16381
G1 X115.165 Y90.13 E14.16765
G1 X115.287 Y90.176 E14.16994
G1 X115.476 Y90.273 E14.17369
G1 X115.649 Y90.406 E14.17754
G1 X115.763 Y90.595 E14.18143
G1 X115.815 Y90.733 E14.18403
G1 X115.853 Y90.911 E14.18724
G1 X116.112 Y95.427 E14.26697
G1 X116.323 Y100.044 E14.34845
G1 X116.463 Y103.558 E14.41044
G1 X116.822 Y113.025 E14.57744
G1 X116.814 Y113.079 E14.57841
G1 X117.233 Y123.272 E14.75824
G1 X117.201 Y123.488 E14.76209
G1 X117.095 Y123.678 E14.76592
G1 X116.96 Y123.799 E14.76912
G1 X107.722 Y129.797 E14.96328
G1 X107.52 Y129.881 E14.96713
G1 X107.395 Y129.894 E14.96935
G1 X106.885 Y129.894 E14.97834
G1 X106.67 Y129.854 E14.9822
G1 X106.484 Y129.741 E14.98603
G1 X106.351 Y129.568 E14.98988
G1 X106.289 Y129.359 E14.99372
G1 X106.294 Y129.19 E14.9967
G1 X106.653 Y127.147 E15.03327
G1 X107.389 Y123.097 E15.10583
G1 X108.155 Y119.03 E15.17878
G1 X108.944 Y114.971 E15.25167
G1 X109.747 Y110.915 E15.32456
G1 X110.566 Y106.862 E15.39745
G1 X111.427 Y102.754 E15.47144
G1 X112.316 Y98.752 E15.5437
G1 X113.875 Y92.106 E15.66404
