;FLAVOR:Marlin
;TIME:2868
;Filament used: 1.20475m
;Layer height: 0.25
;MINX:102.182
;MINY:85.793
;MINZ:0.2
;MAXX:121.863
;MAXY:134.21
;MAXZ:128.95
;Generated with Cura_SteamEngine 4.6.1
M140 S60
M105
M190 S60
M104 S235
M105
M109 S235
M82 ;absolute extrusion mode
; Ender 3 Custom Start G-code
G92 E0 ; Reset Extruder
G28 ; Home all axes
G1 Z2.0 F3000 ; Move Z Axis up little to prevent scratching of Heat Bed
G1 X0.1 Y20 Z0.3 F5000.0 ; Move to start position
G1 X0.1 Y200.0 Z0.3 F1500.0 E15 ; Draw the first line
G1 X0.4 Y200.0 Z0.3 F5000.0 ; Move to side a little
G1 X0.4 Y20 Z0.3 F1500.0 E30 ; Draw the second line
G92 E0 ; Reset Extruder
G1 Z2.0 F3000 ; Move Z Axis up little to prevent scratching of Heat Bed
G1 X5 Y20 Z0.3 F5000.0 ; Move over to prevent blob squish
G92 E0
G92 E0
G1 F3000 E-1
;LAYER_COUNT:516
;LAYER:0
M107
G0 F6000 X114.081 Y87.385 Z0.2
;TYPE:SKIRT
G1 F3000 E0.20788
G1 F1200 X114.45 Y86.976 E0.21759
G1 X114.993 Y86.544 E0.22982
G1 X115.188 Y86.416 E0.23393
G1 X115.669 Y86.148 E0.24364
G1 X116.184 Y85.952 E0.25335
G1 X116.722 Y85.833 E0.26306
G1 X117.272 Y85.793 E0.27278
G1 X117.821 Y85.833 E0.28249
G1 X118.255 Y85.922 E0.2903
G1 X118.427 Y85.968 E0.29344
G1 X118.947 Y86.149 E0.30314
G1 X119.436 Y86.403 E0.31285
G1 X119.883 Y86.725 E0.32257
G1 X120.279 Y87.108 E0.33228
G1 X120.5 Y87.379 E0.33844
G1 X120.591 Y87.502 E0.34114
G1 X120.886 Y87.967 E0.35085
G1 X121.11 Y88.471 E0.36057
G1 X121.259 Y89.001 E0.37027
G1 X121.334 Y89.629 E0.38142
G1 X121.435 Y92.514 E0.43231
G1 X121.506 Y95.363 E0.48255
G1 X121.587 Y100.002 E0.56434
G1 X121.737 Y114.18 E0.81428
G1 X121.863 Y123.841 E0.98459
G1 X121.83 Y124.391 E0.99431
G1 X121.718 Y124.931 E1.00403
G1 X121.529 Y125.448 E1.01373
G1 X121.267 Y125.933 E1.02345
G1 X120.938 Y126.375 E1.03316
G1 X120.548 Y126.765 E1.04289
G1 X120.133 Y127.077 E1.05204
G1 X110.093 Y133.597 E1.26307
G1 X109.61 Y133.863 E1.27279
G1 X109.094 Y134.056 E1.2825
G1 X108.555 Y134.173 E1.29222
G1 X108.023 Y134.21 E1.30162
G1 X107.554 Y134.21 E1.30989
G1 X107.004 Y134.17 E1.31961
G1 X106.466 Y134.051 E1.32932
G1 X105.951 Y133.855 E1.33904
G1 X105.47 Y133.587 E1.34874
G1 X105.032 Y133.253 E1.35845
G1 X104.648 Y132.858 E1.36816
G1 X104.324 Y132.412 E1.37788
G1 X104.069 Y131.924 E1.38759
G1 X103.886 Y131.404 E1.3973
G1 X103.781 Y130.863 E1.40702
G1 X103.755 Y130.313 E1.41673
G1 X103.832 Y129.644 E1.4286
G1 X104.682 Y125.514 E1.50293
G1 X105.499 Y121.669 E1.57222
G1 X106.502 Y117.095 E1.65476
G1 X107.478 Y112.751 E1.73325
G1 X108.226 Y109.468 E1.7926
G1 X109.319 Y104.762 E1.87777
G1 X110.178 Y101.178 E1.94274
G1 X110.78 Y98.765 E1.98658
G1 X111.404 Y96.352 E2.03051
G1 X112.81 Y91.034 E2.12748
G1 X113.374 Y88.836 E2.16748
G1 X113.538 Y88.341 E2.17667
G1 X113.774 Y87.843 E2.18638
G1 X114.081 Y87.385 E2.1961
G0 F6000 X114.431 Y87.587
G1 F1200 X114.788 Y87.207 E2.2053
G1 X115.212 Y86.879 E2.21475
G1 X115.407 Y86.751 E2.21886
G1 X115.864 Y86.499 E2.22806
G1 X116.353 Y86.32 E2.23724
G1 X116.864 Y86.218 E2.24642
G1 X117.385 Y86.195 E2.25561
G1 X118.151 Y86.308 E2.26926
G1 X118.323 Y86.354 E2.2724
G1 X118.815 Y86.527 E2.2816
G1 X119.275 Y86.773 E2.29079
G1 X119.691 Y87.086 E2.29997
G1 X120.178 Y87.617 E2.31267
G1 X120.269 Y87.74 E2.31537
G1 X120.546 Y88.181 E2.32455
G1 X120.752 Y88.66 E2.33374
G1 X120.883 Y89.164 E2.34292
G1 X120.934 Y89.643 E2.35141
G1 X121.035 Y92.528 E2.4023
G1 X121.106 Y95.373 E2.45246
G1 X121.187 Y100.009 E2.5342
G1 X121.336 Y114.19 E2.78419
G1 X121.463 Y123.846 E2.95442
G1 X121.429 Y124.366 E2.96361
G1 X121.317 Y124.875 E2.9728
G1 X121.128 Y125.361 E2.98199
G1 X120.868 Y125.812 E2.99117
G1 X120.541 Y126.218 E3.00035
G1 X120.156 Y126.57 E3.00955
G1 X119.915 Y126.741 E3.01476
G1 X109.875 Y133.261 E3.22579
G1 X109.417 Y133.511 E3.23499
G1 X108.927 Y133.688 E3.24417
G1 X108.415 Y133.787 E3.25336
G1 X108.023 Y133.81 E3.26028
G1 X107.554 Y133.81 E3.26855
G1 X107.034 Y133.77 E3.27775
G1 X106.527 Y133.651 E3.28693
G1 X106.044 Y133.456 E3.29611
G1 X105.596 Y133.19 E3.30529
G1 X105.194 Y132.858 E3.31448
G1 X104.848 Y132.468 E3.32367
G1 X104.565 Y132.03 E3.33287
G1 X104.352 Y131.555 E3.34204
G1 X104.215 Y131.052 E3.35123
G1 X104.156 Y130.534 E3.36042
G1 X104.177 Y130.013 E3.36961
G1 X104.224 Y129.725 E3.37476
G1 X105.074 Y125.595 E3.44909
G1 X105.89 Y121.752 E3.51834
G1 X106.893 Y117.181 E3.60084
G1 X107.869 Y112.838 E3.6793
G1 X108.616 Y109.556 E3.73864
G1 X109.708 Y104.853 E3.82375
G1 X110.567 Y101.271 E3.88868
G1 X111.168 Y98.862 E3.93245
G1 X111.791 Y96.452 E3.97633
G1 X113.197 Y91.137 E4.07324
G1 X113.762 Y88.935 E4.11332
G1 X113.91 Y88.486 E4.12165
G1 X114.136 Y88.016 E4.13084
G1 X114.431 Y87.587 E4.14002
G0 F6000 X114.78 Y87.792
G1 F1200 X115.125 Y87.444 E4.14866
G1 X115.432 Y87.213 E4.15543
G1 X115.627 Y87.085 E4.15954
G1 X116.057 Y86.851 E4.16817
G1 X116.519 Y86.689 E4.1768
G1 X117.001 Y86.605 E4.18543
G1 X117.49 Y86.601 E4.19405
G1 X118.048 Y86.695 E4.20402
G1 X118.22 Y86.741 E4.20716
G1 X118.681 Y86.905 E4.21579
G1 X119.109 Y87.143 E4.22442
G1 X119.493 Y87.447 E4.23305
G1 X119.857 Y87.855 E4.24269
G1 X119.948 Y87.978 E4.24539
G1 X120.206 Y88.394 E4.25402
G1 X120.393 Y88.846 E4.26264
G1 X120.504 Y89.323 E4.27127
G1 X120.534 Y89.657 E4.27718
G1 X120.635 Y92.542 E4.32807
G1 X120.706 Y95.383 E4.37817
G1 X120.788 Y100.016 E4.45985
G1 X120.939 Y114.226 E4.71036
G1 X121.063 Y123.851 E4.88004
G1 X121.029 Y124.34 E4.88868
G1 X120.916 Y124.816 E4.8973
G1 X120.728 Y125.268 E4.90593
G1 X120.468 Y125.683 E4.91457
G1 X120.145 Y126.05 E4.92319
G1 X119.697 Y126.406 E4.93327
G1 X109.657 Y132.926 E5.1443
G1 X109.226 Y133.158 E5.15293
G1 X108.763 Y133.317 E5.16156
G1 X108.28 Y133.399 E5.17019
G1 X108.023 Y133.41 E5.17473
G1 X107.554 Y133.41 E5.183
G1 X107.066 Y133.37 E5.19163
G1 X106.591 Y133.251 E5.20026
G1 X106.142 Y133.057 E5.20888
G1 X105.73 Y132.792 E5.21752
G1 X105.367 Y132.464 E5.22614
G1 X105.062 Y132.081 E5.23477
G1 X104.824 Y131.653 E5.24341
G1 X104.658 Y131.193 E5.25203
G1 X104.569 Y130.712 E5.26065
G1 X104.56 Y130.222 E5.26929
G1 X104.616 Y129.805 E5.2767
G1 X105.466 Y125.675 E5.35103
G1 X106.282 Y121.835 E5.42024
G1 X107.284 Y117.266 E5.50269
G1 X108.259 Y112.926 E5.5811
G1 X109.006 Y109.645 E5.64042
G1 X110.098 Y104.943 E5.72551
G1 X110.956 Y101.365 E5.79037
G1 X111.556 Y98.959 E5.83409
G1 X112.178 Y96.552 E5.87791
G1 X113.584 Y91.239 E5.97479
G1 X114.149 Y89.035 E6.0149
G1 X114.283 Y88.631 E6.0224
G1 X114.497 Y88.191 E6.03103
G1 X114.78 Y87.792 E6.03965
G0 F6000 X115.128 Y88.001
G1 F1200 X115.458 Y87.687 E6.04768
G1 X115.651 Y87.547 E6.05188
G1 X115.846 Y87.419 E6.05599
G1 X116.248 Y87.204 E6.06403
G1 X116.68 Y87.061 E6.07205
G1 X117.131 Y86.997 E6.08008
G1 X117.587 Y87.012 E6.08812
G1 X117.945 Y87.081 E6.09455
G1 X118.117 Y87.127 E6.09769
G1 X118.545 Y87.283 E6.10572
G1 X118.939 Y87.511 E6.11374
G1 X119.288 Y87.805 E6.12179
G1 X119.535 Y88.093 E6.12848
G1 X119.626 Y88.216 E6.13117
G1 X119.864 Y88.604 E6.1392
G1 X120.03 Y89.028 E6.14722
G1 X120.134 Y89.671 E6.15871
G1 X120.235 Y92.556 E6.20959
G1 X120.306 Y95.393 E6.25962
G1 X120.388 Y100.023 E6.34125
G1 X120.536 Y114.194 E6.59107
G1 X120.663 Y123.857 E6.76142
G1 X120.629 Y124.311 E6.76945
G1 X120.516 Y124.752 E6.77747
G1 X120.328 Y125.167 E6.7855
G1 X120.07 Y125.543 E6.79354
G1 X119.751 Y125.868 E6.80157
G1 X119.479 Y126.071 E6.80755
G1 X109.439 Y132.591 E7.01858
G1 X109.037 Y132.804 E7.0266
G1 X108.603 Y132.944 E7.03464
G1 X108.023 Y133.01 E7.04493
G1 X107.554 Y133.01 E7.0532
G1 X107.1 Y132.97 E7.06123
G1 X106.66 Y132.852 E7.06926
G1 X106.248 Y132.658 E7.07729
G1 X105.875 Y132.395 E7.08533
G1 X105.554 Y132.072 E7.09336
G1 X105.295 Y131.697 E7.10139
G1 X105.105 Y131.283 E7.10942
G1 X104.99 Y130.842 E7.11746
G1 X104.954 Y130.388 E7.12549
G1 X105.007 Y129.886 E7.13439
G1 X105.857 Y125.756 E7.20871
G1 X106.673 Y121.919 E7.27786
G1 X107.674 Y117.352 E7.36028
G1 X108.649 Y113.014 E7.43866
G1 X109.396 Y109.734 E7.49796
G1 X110.487 Y105.034 E7.58301
G1 X111.345 Y101.458 E7.64784
G1 X111.945 Y99.056 E7.69148
G1 X112.566 Y96.652 E7.73525
G1 X113.97 Y91.341 E7.83209
G1 X114.537 Y89.134 E7.87226
G1 X114.656 Y88.777 E7.87889
G1 X114.858 Y88.368 E7.88693
G1 X115.128 Y88.001 E7.89496
G0 F6000 X115.473 Y88.216
G1 F1200 X115.871 Y87.882 E7.90412
G1 X116.066 Y87.754 E7.90823
G1 X116.436 Y87.558 E7.91562
G1 X116.837 Y87.437 E7.923
G1 X117.254 Y87.393 E7.93039
G1 X117.841 Y87.468 E7.94082
G1 X118.013 Y87.514 E7.94396
G1 X118.406 Y87.66 E7.95135
G1 X118.764 Y87.878 E7.95874
G1 X119.074 Y88.16 E7.96613
G1 X119.214 Y88.331 E7.97002
G1 X119.305 Y88.454 E7.97272
G1 X119.521 Y88.813 E7.98011
G1 X119.665 Y89.206 E7.98748
G1 X119.735 Y89.685 E7.99602
G1 X119.836 Y92.57 E8.04691
G1 X119.906 Y95.403 E8.09686
G1 X119.988 Y100.03 E8.17844
G1 X120.14 Y114.141 E8.4272
G1 X120.135 Y114.203 E8.42829
G1 X120.263 Y123.862 E8.59858
G1 X120.228 Y124.279 E8.60595
G1 X120.115 Y124.683 E8.61335
G1 X119.928 Y125.058 E8.62074
G1 X119.672 Y125.39 E8.62813
G1 X119.261 Y125.735 E8.63759
G1 X109.221 Y132.255 E8.84861
G1 X108.85 Y132.449 E8.85599
G1 X108.448 Y132.569 E8.86339
G1 X108.023 Y132.61 E8.87092
G1 X107.554 Y132.61 E8.87918
G1 X107.137 Y132.57 E8.88657
G1 X106.735 Y132.452 E8.89395
G1 X106.363 Y132.259 E8.90134
G1 X106.034 Y132 E8.90872
G1 X105.76 Y131.683 E8.91611
G1 X105.551 Y131.32 E8.92349
G1 X105.415 Y130.923 E8.93089
G1 X105.356 Y130.508 E8.93828
G1 X105.399 Y129.967 E8.94785
G1 X106.249 Y125.837 E9.02217
G1 X107.064 Y122.002 E9.09129
G1 X108.065 Y117.438 E9.17365
G1 X109.04 Y113.102 E9.252
G1 X109.786 Y109.823 E9.31127
G1 X110.877 Y105.124 E9.39631
G1 X111.734 Y101.551 E9.46108
G1 X112.333 Y99.153 E9.50465
G1 X112.953 Y96.752 E9.54837
G1 X114.357 Y91.443 E9.64517
G1 X114.924 Y89.233 E9.68539
G1 X115.028 Y88.922 E9.69117
G1 X115.217 Y88.548 E9.69856
G1 X115.473 Y88.216 E9.70595
G0 F6000 X115.575 Y88.731
G1 F1200 X115.816 Y88.438 E9.71263
G1 X116.09 Y88.216 E9.71885
G1 X116.285 Y88.088 E9.72296
G1 X116.622 Y87.915 E9.72964
G1 X116.988 Y87.816 E9.73632
G1 X117.366 Y87.795 E9.743
G1 X117.738 Y87.854 E9.74964
G1 X117.91 Y87.9 E9.75278
G1 X118.264 Y88.036 E9.75946
G1 X118.581 Y88.243 E9.76613
G1 X118.892 Y88.568 E9.77406
G1 X118.983 Y88.691 E9.77676
G1 X119.175 Y89.018 E9.78345
G1 X119.295 Y89.378 E9.79013
G1 X119.335 Y89.699 E9.79584
G1 X119.436 Y92.584 E9.84672
G1 X119.506 Y95.413 E9.89661
G1 X119.588 Y100.037 E9.97813
G1 X119.74 Y114.146 E10.22686
G1 X119.734 Y114.21 E10.22799
G1 X119.863 Y123.867 E10.39824
G1 X119.828 Y124.244 E10.40491
G1 X119.715 Y124.606 E10.4116
G1 X119.528 Y124.936 E10.41829
G1 X119.277 Y125.219 E10.42495
G1 X119.043 Y125.4 E10.43017
G1 X109.003 Y131.92 E10.6412
G1 X108.666 Y132.091 E10.64786
G1 X108.299 Y132.189 E10.65455
G1 X108.023 Y132.21 E10.65943
G1 X107.554 Y132.21 E10.6677
G1 X107.177 Y132.17 E10.67438
G1 X106.817 Y132.052 E10.68106
G1 X106.49 Y131.862 E10.68773
G1 X106.209 Y131.607 E10.69442
G1 X105.989 Y131.298 E10.7011
G1 X105.837 Y130.951 E10.70778
G1 X105.762 Y130.58 E10.71446
G1 X105.791 Y130.047 E10.72386
G1 X106.641 Y125.917 E10.79819
G1 X107.455 Y122.085 E10.86725
G1 X108.456 Y117.523 E10.94958
G1 X109.43 Y113.189 E11.02789
G1 X110.176 Y109.912 E11.08713
G1 X111.267 Y105.215 E11.17213
G1 X112.123 Y101.644 E11.23687
G1 X112.721 Y99.25 E11.28036
G1 X113.34 Y96.853 E11.324
G1 X114.741 Y91.559 E11.42054
G1 X115.311 Y89.333 E11.46104
G1 X115.401 Y89.067 E11.46599
G1 X115.575 Y88.731 E11.47266
G0 F6000 X115.931 Y88.918
G1 F1200 X116.154 Y88.669 E11.47856
G1 X116.31 Y88.551 E11.48201
G1 X116.505 Y88.423 E11.48612
G1 X116.804 Y88.274 E11.49201
G1 X117.13 Y88.2 E11.4979
G1 X117.464 Y88.206 E11.50379
G1 X117.635 Y88.241 E11.50686
G1 X117.807 Y88.287 E11.51
G1 X118.117 Y88.411 E11.51589
G1 X118.389 Y88.605 E11.52178
G1 X118.57 Y88.806 E11.52655
G1 X118.661 Y88.929 E11.52924
G1 X118.827 Y89.22 E11.53515
G1 X118.918 Y89.541 E11.54103
G1 X118.935 Y89.713 E11.54408
G1 X119.036 Y92.598 E11.59496
G1 X119.107 Y95.423 E11.64478
G1 X119.188 Y100.044 E11.72625
G1 X119.339 Y114.247 E11.97663
G1 X119.463 Y123.872 E12.14631
G1 X119.427 Y124.204 E12.1522
G1 X119.314 Y124.518 E12.15808
G1 X119.13 Y124.797 E12.16398
G1 X118.825 Y125.064 E12.17112
G1 X108.785 Y131.584 E12.38215
G1 X108.486 Y131.731 E12.38802
G1 X108.023 Y131.81 E12.3963
G1 X107.554 Y131.81 E12.40457
G1 X107.222 Y131.77 E12.41047
G1 X106.91 Y131.653 E12.41634
G1 X106.633 Y131.465 E12.42224
G1 X106.41 Y131.217 E12.42812
G1 X106.251 Y130.923 E12.43401
G1 X106.167 Y130.599 E12.43991
G1 X106.183 Y130.128 E12.44822
G1 X107.033 Y125.998 E12.52255
G1 X107.847 Y122.168 E12.59157
G1 X108.847 Y117.609 E12.67385
G1 X109.82 Y113.277 E12.75211
G1 X110.566 Y110 E12.81136
G1 X111.656 Y105.305 E12.89632
G1 X112.512 Y101.738 E12.96099
G1 X113.109 Y99.347 E13.00443
G1 X113.728 Y96.953 E13.04802
G1 X115.131 Y91.648 E13.14475
G1 X115.699 Y89.432 E13.18507
G1 X115.774 Y89.213 E13.18915
G1 X115.931 Y88.918 E13.19505
G0 F6000 X116.285 Y89.112
G1 F1200 X116.529 Y88.885 E13.20092
G1 X116.724 Y88.757 E13.20503
G1 X116.98 Y88.637 E13.21002
G1 X117.258 Y88.593 E13.21498
G1 X117.531 Y88.627 E13.21983
G1 X117.703 Y88.673 E13.22297
G1 X117.963 Y88.784 E13.22795
G1 X118.249 Y89.044 E13.23476
G1 X118.34 Y89.167 E13.23746
G1 X118.474 Y89.415 E13.24243
G1 X118.535 Y89.727 E13.24803
G1 X118.636 Y92.612 E13.29892
G1 X118.707 Y95.433 E13.34866
G1 X118.788 Y100.051 E13.43008
G1 X118.939 Y114.252 E13.68043
G1 X119.063 Y123.877 E13.85011
G1 X119.027 Y124.157 E13.85509
G1 X118.914 Y124.415 E13.86005
G1 X118.733 Y124.632 E13.86504
G1 X118.608 Y124.729 E13.86782
G1 X108.568 Y131.249 E14.07885
G1 X108.312 Y131.367 E14.08382
G1 X108.023 Y131.41 E14.08897
G1 X107.554 Y131.41 E14.09724
G1 X107.275 Y131.37 E14.10221
G1 X107.018 Y131.254 E14.10718
G1 X106.803 Y131.071 E14.11216
G1 X106.649 Y130.835 E14.11712
G1 X106.566 Y130.565 E14.1221
G1 X106.575 Y130.208 E14.1284
G1 X107.425 Y126.078 E14.20273
G1 X108.238 Y122.251 E14.27169
G1 X109.237 Y117.695 E14.35391
G1 X110.21 Y113.365 E14.43215
G1 X110.956 Y110.089 E14.49137
G1 X112.046 Y105.396 E14.5763
G1 X112.901 Y101.831 E14.64093
G1 X113.497 Y99.444 E14.6843
G1 X114.115 Y97.053 E14.72783
G1 X115.517 Y91.75 E14.82452
G1 X116.086 Y89.532 E14.86489
G1 X116.146 Y89.358 E14.86813
G1 X116.285 Y89.112 E14.87311
G0 F6000 X116.634 Y89.318
G1 F1200 X116.749 Y89.219 E14.87579
G1 X116.944 Y89.091 E14.8799
G1 X117.145 Y89.007 E14.88374
G1 X117.428 Y89.013 E14.88873
G1 X117.6 Y89.059 E14.89187
G1 X117.797 Y89.153 E14.89572
G1 X117.927 Y89.282 E14.89895
G1 X118.018 Y89.405 E14.90164
G1 X118.114 Y89.601 E14.90549
G1 X118.136 Y89.741 E14.90799
G1 X118.237 Y92.626 E14.95888
G1 X118.307 Y95.443 E15.00855
G1 X118.388 Y100.058 E15.08991
G1 X118.54 Y114.159 E15.3385
G1 X118.53 Y114.219 E15.33957
G1 X118.663 Y123.882 E15.50993
G1 X118.626 Y124.097 E15.51377
G1 X118.515 Y124.285 E15.51762
G1 X118.39 Y124.393 E15.52053
G1 X108.35 Y130.913 E15.73156
G1 X108.148 Y130.997 E15.73542
G1 X108.023 Y131.01 E15.73763
G1 X107.554 Y131.01 E15.7459
G1 X107.339 Y130.97 E15.74975
G1 X107.153 Y130.857 E15.75359
G1 X107.02 Y130.684 E15.75744
G1 X106.958 Y130.475 E15.76128
G1 X106.966 Y130.289 E15.76456
G1 X107.816 Y126.159 E15.83889
G1 X108.629 Y122.334 E15.90782
G1 X109.628 Y117.78 E15.99001
G1 X110.601 Y113.452 E16.06821
G1 X111.346 Y110.178 E16.1274
G1 X112.436 Y105.486 E16.21231
G1 X113.29 Y101.924 E16.27688
G1 X113.885 Y99.541 E16.32018
G1 X114.502 Y97.153 E16.36365
G1 X115.904 Y91.853 E16.4603
G1 X116.496 Y89.562 E16.50201
G1 X116.519 Y89.503 E16.50312
G1 X116.634 Y89.318 E16.50696
G0 F6000 X116.892 Y89.648
G1 F1200 X116.968 Y89.554 E16.50909
G1 X117.163 Y89.426 E16.51321
