;FLAVOR:Marlin
;TIME:2868
;Filament used: 1.20411m
;Layer height: 0.25
;MINX:98.138
;MINY:85.792
;MINZ:0.2
;MAXX:117.819
;MAXY:134.21
;MAXZ:128.95
;Generated with Cura_SteamEngine 4.6.1
M140 S60
M105
M190 S60
M104 S235
M105
M109 S235
M82 ;absolute extrusion mode
; Ender 3 Custom Start G-code
G92 E0 ; Reset Extruder
G28 ; Home all axes
G1 Z2.0 F3000 ; Move Z Axis up little to prevent scratching of Heat Bed
G1 X0.1 Y20 Z0.3 F5000.0 ; Move to start position
G1 X0.1 Y200.0 Z0.3 F1500.0 E15 ; Draw the first line
G1 X0.4 Y200.0 Z0.3 F5000.0 ; Move to side a little
G1 X0.4 Y20 Z0.3 F1500.0 E30 ; Draw the second line
G92 E0 ; Reset Extruder
G1 Z2.0 F3000 ; Move Z Axis up little to prevent scratching of Heat Bed
G1 X5 Y20 Z0.3 F5000.0 ; Move over to prevent blob squish
G92 E0
G92 E0
G1 F3000 E-1
;LAYER_COUNT:516
;LAYER:0
M107
G0 F6000 X99.73 Y87.092 Z0.2
;TYPE:SKIRT
G1 F3000 E0.20788
G1 F1200 X100.185 Y86.681 E0.21868
G1 X100.301 Y86.592 E0.22126
G1 X100.761 Y86.289 E0.23097
G1 X101.26 Y86.056 E0.24068
G1 X101.788 Y85.898 E0.25039
G1 X102.222 Y85.826 E0.25815
G1 X102.772 Y85.792 E0.26786
G1 X103.321 Y85.839 E0.27758
G1 X103.857 Y85.964 E0.28728
G1 X104.37 Y86.166 E0.297
G1 X104.796 Y86.406 E0.30562
G1 X104.993 Y86.534 E0.30976
G1 X105.432 Y86.866 E0.31946
G1 X105.819 Y87.259 E0.32918
G1 X106.144 Y87.704 E0.3389
G1 X106.402 Y88.191 E0.34861
G1 X106.601 Y88.764 E0.35931
G1 X107.341 Y91.612 E0.41118
G1 X108.732 Y96.877 E0.50717
G1 X109.213 Y98.734 E0.54099
G1 X109.959 Y101.741 E0.5956
G1 X110.953 Y105.915 E0.67124
G1 X111.771 Y109.452 E0.73523
G1 X112.99 Y114.829 E0.83242
G1 X113.493 Y117.078 E0.87305
G1 X114.496 Y121.645 E0.95547
G1 X115.314 Y125.491 E1.02479
G1 X116.17 Y129.643 E1.09952
G1 X116.242 Y130.189 E1.10922
G1 X116.234 Y130.74 E1.11894
G1 X116.146 Y131.284 E1.12865
G1 X115.981 Y131.81 E1.13837
G1 X115.741 Y132.306 E1.14808
G1 X115.432 Y132.762 E1.15779
G1 X115.061 Y133.169 E1.1675
G1 X114.634 Y133.518 E1.17722
G1 X114.162 Y133.802 E1.18693
G1 X113.653 Y134.014 E1.19665
G1 X113.12 Y134.15 E1.20635
G1 X112.448 Y134.21 E1.21824
G1 X111.977 Y134.21 E1.22655
G1 X111.427 Y134.17 E1.23627
G1 X110.889 Y134.051 E1.24598
G1 X110.374 Y133.855 E1.25569
G1 X109.907 Y133.597 E1.2651
G1 X99.868 Y127.078 E1.4761
G1 X99.429 Y126.745 E1.48581
G1 X99.043 Y126.352 E1.49553
G1 X98.717 Y125.908 E1.50524
G1 X98.46 Y125.421 E1.51494
G1 X98.275 Y124.902 E1.52465
G1 X98.167 Y124.361 E1.53438
G1 X98.138 Y123.842 E1.54354
G1 X98.262 Y114.124 E1.71486
G1 X98.42 Y99.462 E1.97334
G1 X98.511 Y94.594 E2.05917
G1 X98.588 Y91.742 E2.10946
G1 X98.655 Y89.708 E2.14533
G1 X98.713 Y89.16 E2.15505
G1 X98.845 Y88.638 E2.16454
G1 X98.89 Y88.502 E2.16706
G1 X99.101 Y87.993 E2.17678
G1 X99.383 Y87.52 E2.18649
G1 X99.73 Y87.092 E2.1962
G0 F6000 X100.08 Y87.305
G1 F1200 X100.428 Y86.998 E2.20438
G1 X100.544 Y86.909 E2.20696
G1 X100.981 Y86.625 E2.21614
G1 X101.456 Y86.41 E2.22533
G1 X102.163 Y86.237 E2.23816
G1 X102.275 Y86.222 E2.24016
G1 X102.795 Y86.193 E2.24934
G1 X103.314 Y86.243 E2.25853
G1 X103.819 Y86.372 E2.26772
G1 X104.298 Y86.577 E2.2769
G1 X104.578 Y86.741 E2.28262
G1 X104.775 Y86.869 E2.28676
G1 X105.189 Y87.186 E2.29595
G1 X105.55 Y87.562 E2.30514
G1 X105.849 Y87.989 E2.31433
G1 X106.079 Y88.456 E2.32351
G1 X106.214 Y88.865 E2.3311
G1 X106.958 Y91.728 E2.38325
G1 X108.345 Y96.98 E2.479
G1 X108.826 Y98.835 E2.51278
G1 X109.571 Y101.838 E2.56732
G1 X110.564 Y106.008 E2.64289
G1 X110.874 Y107.358 E2.6673
G1 X111.381 Y109.542 E2.70683
G1 X112.6 Y114.917 E2.80398
G1 X113.103 Y117.166 E2.84461
G1 X114.106 Y121.73 E2.92698
G1 X114.923 Y125.574 E2.99626
G1 X115.778 Y129.724 E3.07095
G1 X115.844 Y130.241 E3.08014
G1 X115.83 Y130.762 E3.08932
G1 X115.736 Y131.274 E3.0985
G1 X115.566 Y131.767 E3.10769
G1 X115.322 Y132.227 E3.11687
G1 X115.01 Y132.645 E3.12607
G1 X114.638 Y133.01 E3.13525
G1 X114.215 Y133.315 E3.14445
G1 X113.751 Y133.551 E3.15362
G1 X113.255 Y133.713 E3.16282
G1 X112.741 Y133.797 E3.172
G1 X112.448 Y133.81 E3.17717
G1 X111.977 Y133.81 E3.18547
G1 X111.457 Y133.77 E3.19467
G1 X110.95 Y133.651 E3.20385
G1 X110.467 Y133.456 E3.21303
G1 X110.125 Y133.262 E3.21996
G1 X100.086 Y126.743 E3.43097
G1 X99.672 Y126.426 E3.44016
G1 X99.311 Y126.05 E3.44935
G1 X99.012 Y125.623 E3.45853
G1 X98.782 Y125.156 E3.46771
G1 X98.626 Y124.659 E3.47689
G1 X98.547 Y124.143 E3.4861
G1 X98.538 Y123.848 E3.4913
G1 X98.666 Y114.17 E3.66192
G1 X98.82 Y99.466 E3.92113
G1 X98.911 Y94.602 E4.00689
G1 X98.988 Y91.753 E4.05713
G1 X99.055 Y89.721 E4.09297
G1 X99.112 Y89.203 E4.10215
G1 X99.225 Y88.764 E4.11014
G1 X99.27 Y88.628 E4.11267
G1 X99.471 Y88.147 E4.12186
G1 X99.744 Y87.703 E4.13105
G1 X100.08 Y87.305 E4.14023
G0 F6000 X100.429 Y87.524
G1 F1200 X100.672 Y87.316 E4.14587
G1 X100.788 Y87.227 E4.14844
G1 X101.199 Y86.962 E4.15706
G1 X101.648 Y86.767 E4.16569
G1 X102.216 Y86.634 E4.17598
G1 X102.328 Y86.619 E4.17797
G1 X102.817 Y86.593 E4.1866
G1 X103.303 Y86.648 E4.19522
G1 X103.774 Y86.781 E4.20385
G1 X104.361 Y87.076 E4.21543
G1 X104.558 Y87.204 E4.21957
G1 X104.945 Y87.504 E4.2282
G1 X105.278 Y87.862 E4.23682
G1 X105.549 Y88.27 E4.24546
G1 X105.75 Y88.716 E4.25408
G1 X105.827 Y88.965 E4.25867
G1 X106.571 Y91.828 E4.31082
G1 X107.958 Y97.082 E4.40661
G1 X108.439 Y98.935 E4.44036
G1 X109.183 Y101.934 E4.49482
G1 X110.174 Y106.1 E4.57031
G1 X110.991 Y109.633 E4.63423
G1 X112.21 Y115.006 E4.73136
G1 X112.713 Y117.253 E4.77195
G1 X113.715 Y121.816 E4.8543
G1 X114.531 Y125.657 E4.92352
G1 X115.386 Y129.804 E4.99816
G1 X115.446 Y130.29 E5.00679
G1 X115.425 Y130.779 E5.01542
G1 X115.325 Y131.259 E5.02406
G1 X115.149 Y131.715 E5.03268
G1 X114.901 Y132.137 E5.04131
G1 X114.587 Y132.513 E5.04994
G1 X114.217 Y132.833 E5.05857
G1 X113.799 Y133.088 E5.0672
G1 X113.346 Y133.272 E5.07582
G1 X112.868 Y133.38 E5.08445
G1 X112.448 Y133.41 E5.09188
G1 X111.977 Y133.41 E5.10018
G1 X111.489 Y133.37 E5.10881
G1 X111.014 Y133.251 E5.11744
G1 X110.565 Y133.057 E5.12606
G1 X110.343 Y132.926 E5.13061
G1 X100.304 Y126.407 E5.34161
G1 X99.917 Y126.108 E5.35023
G1 X99.583 Y125.75 E5.35886
G1 X99.312 Y125.342 E5.3675
G1 X99.111 Y124.896 E5.37612
G1 X98.985 Y124.423 E5.38475
G1 X98.938 Y123.853 E5.39483
G1 X99.062 Y114.133 E5.56619
G1 X99.22 Y99.471 E5.82466
G1 X99.311 Y94.609 E5.91039
G1 X99.388 Y91.764 E5.96056
G1 X99.455 Y89.734 E5.99636
G1 X99.511 Y89.247 E6.005
G1 X99.605 Y88.89 E6.01151
G1 X99.65 Y88.754 E6.01403
G1 X99.841 Y88.303 E6.02267
G1 X100.103 Y87.889 E6.0313
G1 X100.429 Y87.524 E6.03993
G0 F6000 X100.461 Y88.08
G1 F1200 X100.915 Y87.633 E6.05116
G1 X101.031 Y87.544 E6.05374
G1 X101.416 Y87.3 E6.06178
G1 X101.837 Y87.126 E6.06981
G1 X102.269 Y87.03 E6.07761
G1 X102.381 Y87.015 E6.0796
G1 X102.836 Y86.994 E6.08763
G1 X103.288 Y87.053 E6.09566
G1 X103.722 Y87.19 E6.10369
G1 X104.143 Y87.412 E6.11208
G1 X104.34 Y87.54 E6.11622
G1 X104.698 Y87.821 E6.12424
G1 X105.003 Y88.16 E6.13228
G1 X105.243 Y88.547 E6.14031
G1 X105.439 Y89.066 E6.15008
G1 X106.18 Y91.919 E6.20205
G1 X107.572 Y97.184 E6.29805
G1 X108.052 Y99.036 E6.33177
G1 X108.795 Y102.03 E6.38615
G1 X109.785 Y106.193 E6.46158
G1 X110.602 Y109.723 E6.52545
G1 X111.82 Y115.094 E6.62254
G1 X112.322 Y117.34 E6.6631
G1 X113.324 Y121.902 E6.74544
G1 X114.14 Y125.741 E6.81463
G1 X114.994 Y129.885 E6.88921
G1 X115.047 Y130.338 E6.89725
G1 X115.02 Y130.793 E6.90528
G1 X114.913 Y131.236 E6.91332
G1 X114.731 Y131.653 E6.92134
G1 X114.479 Y132.033 E6.92938
G1 X114.165 Y132.363 E6.93741
G1 X113.798 Y132.632 E6.94543
G1 X113.389 Y132.834 E6.95347
G1 X112.951 Y132.961 E6.96151
G1 X112.448 Y133.01 E6.97042
G1 X111.977 Y133.01 E6.97872
G1 X111.523 Y132.97 E6.98675
G1 X111.083 Y132.852 E6.99478
G1 X110.561 Y132.591 E7.00507
G1 X100.522 Y126.072 E7.21608
G1 X100.163 Y125.791 E7.22411
G1 X99.859 Y125.452 E7.23214
G1 X99.618 Y125.065 E7.24018
G1 X99.449 Y124.642 E7.24821
G1 X99.356 Y124.196 E7.25624
G1 X99.338 Y123.858 E7.2622
G1 X99.462 Y114.137 E7.43358
G1 X99.62 Y99.475 E7.69205
G1 X99.71 Y94.617 E7.7777
G1 X99.788 Y91.775 E7.82782
G1 X99.854 Y89.747 E7.86359
G1 X99.909 Y89.295 E7.87162
G1 X99.985 Y89.015 E7.87673
G1 X100.03 Y88.879 E7.87925
G1 X100.21 Y88.461 E7.88728
G1 X100.461 Y88.08 E7.89532
G0 F6000 X100.817 Y88.277
G1 F1200 X101.159 Y87.951 E7.90365
G1 X101.275 Y87.862 E7.90623
G1 X101.63 Y87.639 E7.91362
G1 X102.021 Y87.488 E7.92101
G1 X102.322 Y87.426 E7.92642
G1 X102.434 Y87.411 E7.92841
G1 X102.853 Y87.396 E7.93581
G1 X103.267 Y87.46 E7.94319
G1 X103.661 Y87.601 E7.95057
G1 X103.925 Y87.747 E7.95588
G1 X104.122 Y87.875 E7.96003
G1 X104.45 Y88.136 E7.96742
G1 X104.722 Y88.454 E7.97479
G1 X104.93 Y88.818 E7.98218
G1 X105.052 Y89.167 E7.9887
G1 X105.794 Y92.021 E8.04068
G1 X107.185 Y97.286 E8.13668
G1 X107.665 Y99.136 E8.17037
G1 X108.406 Y102.126 E8.22467
G1 X109.396 Y106.286 E8.30005
G1 X110.212 Y109.814 E8.36388
G1 X111.43 Y115.182 E8.46091
G1 X111.932 Y117.428 E8.50148
G1 X112.934 Y121.988 E8.58378
G1 X113.749 Y125.824 E8.65291
G1 X114.603 Y129.966 E8.72746
G1 X114.648 Y130.383 E8.73486
G1 X114.613 Y130.8 E8.74223
G1 X114.5 Y131.204 E8.74963
G1 X114.312 Y131.578 E8.75701
G1 X114.057 Y131.911 E8.7644
G1 X113.743 Y132.188 E8.77178
G1 X113.382 Y132.402 E8.77918
G1 X112.988 Y132.543 E8.78656
G1 X112.448 Y132.61 E8.79615
G1 X111.977 Y132.61 E8.80445
G1 X111.56 Y132.57 E8.81184
G1 X111.158 Y132.452 E8.81922
G1 X110.779 Y132.255 E8.82675
G1 X100.74 Y125.736 E9.03776
G1 X100.412 Y125.475 E9.04515
G1 X100.139 Y125.157 E9.05253
G1 X99.932 Y124.793 E9.05992
G1 X99.797 Y124.396 E9.06731
G1 X99.738 Y123.863 E9.07676
G1 X99.861 Y114.237 E9.24646
G1 X99.867 Y114.183 E9.24742
G1 X100.02 Y99.479 E9.50663
G1 X100.11 Y94.624 E9.59223
G1 X100.188 Y91.786 E9.64228
G1 X100.254 Y89.76 E9.67801
G1 X100.308 Y89.344 E9.6854
G1 X100.364 Y89.141 E9.68912
G1 X100.409 Y89.005 E9.69164
G1 X100.578 Y88.621 E9.69904
G1 X100.817 Y88.277 E9.70642
G0 F6000 X101.17 Y88.48
G1 F1200 X101.402 Y88.268 E9.71196
G1 X101.518 Y88.179 E9.71454
G1 X101.842 Y87.981 E9.72123
G1 X102.375 Y87.823 E9.73103
G1 X102.487 Y87.808 E9.73302
G1 X102.866 Y87.797 E9.73971
G1 X103.238 Y87.866 E9.74638
G1 X103.707 Y88.083 E9.75549
G1 X103.904 Y88.211 E9.75963
G1 X104.198 Y88.449 E9.7663
G1 X104.436 Y88.744 E9.77298
G1 X104.606 Y89.083 E9.77966
G1 X104.665 Y89.267 E9.78307
G1 X105.407 Y92.123 E9.83509
G1 X106.798 Y97.388 E9.93108
G1 X107.277 Y99.236 E9.96473
G1 X108.018 Y102.223 E10.01898
G1 X109.007 Y106.378 E10.09427
G1 X109.315 Y107.72 E10.11855
G1 X109.822 Y109.904 E10.15807
G1 X111.039 Y115.271 E10.25508
G1 X111.542 Y117.515 E10.29562
G1 X112.543 Y122.074 E10.3779
G1 X113.358 Y125.907 E10.44698
G1 X114.211 Y130.047 E10.52149
G1 X114.248 Y130.424 E10.52817
G1 X114.205 Y130.8 E10.53484
G1 X114.085 Y131.16 E10.54153
G1 X113.891 Y131.486 E10.54821
G1 X113.634 Y131.764 E10.55489
G1 X113.324 Y131.982 E10.56157
G1 X112.976 Y132.131 E10.56824
G1 X112.448 Y132.21 E10.57765
G1 X111.977 Y132.21 E10.58595
G1 X111.6 Y132.17 E10.59264
G1 X111.24 Y132.052 E10.59932
G1 X110.997 Y131.92 E10.60419
G1 X100.958 Y125.401 E10.81519
G1 X100.663 Y125.162 E10.82189
G1 X100.426 Y124.867 E10.82856
G1 X100.255 Y124.529 E10.83524
G1 X100.159 Y124.162 E10.84192
G1 X100.138 Y123.868 E10.84712
G1 X100.261 Y114.242 E11.01682
G1 X100.268 Y114.185 E11.01783
G1 X100.42 Y99.484 E11.27699
G1 X100.51 Y94.632 E11.36254
G1 X100.588 Y91.797 E11.41253
G1 X100.654 Y89.773 E11.44823
G1 X100.744 Y89.267 E11.45729
G1 X100.789 Y89.131 E11.45981
G1 X100.945 Y88.785 E11.4665
G1 X101.17 Y88.48 E11.47319
G0 F6000 X101.646 Y88.585
G1 F1200 X101.762 Y88.496 E11.47576
G1 X102.049 Y88.326 E11.48164
G1 X102.428 Y88.219 E11.48858
G1 X102.54 Y88.204 E11.49058
G1 X102.874 Y88.2 E11.49646
G1 X103.2 Y88.275 E11.50236
G1 X103.489 Y88.418 E11.50805
G1 X103.686 Y88.546 E11.51219
G1 X103.942 Y88.76 E11.51807
G1 X104.141 Y89.029 E11.52397
G1 X104.278 Y89.368 E11.53041
G1 X105.02 Y92.225 E11.58245
G1 X106.412 Y97.49 E11.67845
G1 X106.89 Y99.337 E11.71208
G1 X107.63 Y102.319 E11.76624
G1 X108.618 Y106.471 E11.84147
G1 X108.925 Y107.81 E11.86569
G1 X109.433 Y109.994 E11.90522
G1 X110.649 Y115.359 E12.00219
G1 X111.151 Y117.602 E12.04271
G1 X112.152 Y122.16 E12.12497
G1 X112.966 Y125.99 E12.19399
G1 X113.819 Y130.127 E12.26845
G1 X113.847 Y130.46 E12.27434
G1 X113.795 Y130.79 E12.28023
G1 X113.667 Y131.099 E12.28613
G1 X113.469 Y131.368 E12.29202
G1 X113.213 Y131.582 E12.2979
G1 X112.913 Y131.73 E12.30379
G1 X112.448 Y131.81 E12.31211
G1 X111.977 Y131.81 E12.32041
G1 X111.645 Y131.77 E12.32631
G1 X111.215 Y131.584 E12.33457
G1 X101.176 Y125.065 E12.54557
G1 X100.919 Y124.851 E12.55147
G1 X100.721 Y124.582 E12.55735
G1 X100.591 Y124.274 E12.56325
G1 X100.538 Y123.873 E12.57038
G1 X100.662 Y114.15 E12.74179
G1 X100.82 Y99.488 E13.00026
G1 X100.91 Y94.639 E13.08576
G1 X100.988 Y91.808 E13.13568
G1 X101.054 Y89.786 E13.17134
G1 X101.124 Y89.392 E13.1784
G1 X101.169 Y89.256 E13.18092
G1 X101.311 Y88.954 E13.1868
G1 X101.646 Y88.585 E13.19559
G0 F6000 X101.674 Y89.129
G1 F1200 X101.889 Y88.903 E13.20109
G1 X102.005 Y88.814 E13.20366
G1 X102.251 Y88.675 E13.20865
G1 X102.481 Y88.616 E13.21283
G1 X102.593 Y88.601 E13.21482
G1 X102.875 Y88.603 E13.21979
G1 X103.146 Y88.684 E13.22478
G1 X103.271 Y88.753 E13.2273
G1 X103.468 Y88.881 E13.23144
G1 X103.68 Y89.067 E13.23641
G1 X103.833 Y89.305 E13.2414
G1 X103.891 Y89.468 E13.24445
G1 X104.634 Y92.328 E13.29654
G1 X106.025 Y97.593 E13.39253
G1 X106.503 Y99.437 E13.42611
G1 X107.242 Y102.415 E13.4802
G1 X108.229 Y106.563 E13.55536
G1 X109.043 Y110.085 E13.61908
G1 X110.259 Y115.448 E13.71602
G1 X110.761 Y117.69 E13.75652
G1 X111.762 Y122.245 E13.83873
G1 X112.575 Y126.073 E13.90772
G1 X113.427 Y130.208 E13.98214
G1 X113.445 Y130.49 E13.98712
G1 X113.383 Y130.765 E13.99209
G1 X113.247 Y131.012 E13.99706
G1 X113.047 Y131.211 E14.00203
G1 X112.799 Y131.346 E14.00701
G1 X112.448 Y131.41 E14.0133
G1 X111.977 Y131.41 E14.0216
G1 X111.698 Y131.37 E14.02657
G1 X111.432 Y131.249 E14.03172
G1 X101.393 Y124.73 E14.24273
G1 X101.181 Y124.544 E14.2477
G1 X101.028 Y124.307 E14.25267
G1 X100.949 Y124.036 E14.25765
G1 X100.938 Y123.878 E14.26044
G1 X101.062 Y114.154 E14.43187
G1 X101.22 Y99.492 E14.69034
G1 X101.31 Y94.646 E14.77578
G1 X101.387 Y91.819 E14.82563
G1 X101.454 Y89.799 E14.86126
G1 X101.504 Y89.518 E14.86629
G1 X101.549 Y89.382 E14.86882
G1 X101.674 Y89.129 E14.87379
G0 F6000 X102.033 Y89.316
G1 F1200 X102.133 Y89.22 E14.87624
G1 X102.249 Y89.131 E14.87881
G1 X102.534 Y89.012 E14.88426
G1 X102.646 Y88.997 E14.88625
G1 X102.864 Y89.008 E14.8901
G1 X103.053 Y89.089 E14.89372
G1 X103.25 Y89.217 E14.89786
G1 X103.408 Y89.367 E14.9017
G1 X103.504 Y89.569 E14.90565
G1 X104.247 Y92.43 E14.95775
G1 X105.638 Y97.695 E15.05375
G1 X106.116 Y99.537 E15.08729
G1 X106.853 Y102.512 E15.14132
G1 X107.84 Y106.656 E15.21642
G1 X108.653 Y110.175 E15.28008
G1 X109.869 Y115.536 E15.37699
G1 X110.371 Y117.777 E15.41747
G1 X111.371 Y122.331 E15.49966
G1 X112.184 Y126.156 E15.56859
G1 X113.036 Y130.289 E15.64298
G1 X113.04 Y130.507 E15.64682
G1 X112.966 Y130.712 E15.65067
G1 X112.824 Y130.878 E15.65452
G1 X112.632 Y130.981 E15.65836
G1 X112.448 Y131.01 E15.66164
G1 X111.977 Y131.01 E15.66994
G1 X111.762 Y130.97 E15.6738
G1 X111.65 Y130.913 E15.67601
G1 X101.611 Y124.394 E15.88702
G1 X101.453 Y124.244 E15.89086
G1 X101.359 Y124.047 E15.89471
G1 X101.338 Y123.883 E15.89762
G1 X101.461 Y114.257 E16.06732
G1 X101.472 Y114.201 E16.06833
G1 X101.62 Y99.497 E16.32754
G1 X101.71 Y94.654 E16.41293
G1 X101.787 Y91.83 E16.46273
G1 X101.853 Y89.812 E16.49832
G1 X101.883 Y89.644 E16.50133
G1 X101.928 Y89.508 E16.50385
