;FLAVOR:Marlin
;TIME:3253
;Filament used: 1.3571m
;Layer height: 0.25
;MINX:88.776
;MINY:83.178
;MINZ:0.2
;MAXX:127.181
;MAXY:136.835
;MAXZ:129.95
;Generated with Cura_SteamEngine 4.6.1
M140 S60
M105
M190 S60
M104 S235
M105
M109 S235
M82 ;absolute extrusion mode
; Ender 3 Custom Start G-code
G92 E0 ; Reset Extruder
G28 ; Home all axes
G1 Z2.0 F3000 ; Move Z Axis up little to prevent scratching of Heat Bed
G1 X0.1 Y20 Z0.3 F5000.0 ; Move to start position
G1 X0.1 Y200.0 Z0.3 F1500.0 E15 ; Draw the first line
G1 X0.4 Y200.0 Z0.3 F5000.0 ; Move to side a little
G1 X0.4 Y20 Z0.3 F1500.0 E30 ; Draw the second line
G92 E0 ; Reset Extruder
G1 Z2.0 F3000 ; Move Z Axis up little to prevent scratching of Heat Bed
G1 X5 Y20 Z0.3 F5000.0 ; Move over to prevent blob squish
G92 E0
G92 E0
G1 F3000 E-1
;LAYER_COUNT:520
;LAYER:0
M107
G0 F6000 X109.715 Y84.796 Z0.2
;TYPE:SKIRT
G1 F3000 E0.20788
G1 F1200 X110.076 Y84.379 E0.2176
G1 X110.512 Y84.004 E0.22774
G1 X110.629 Y83.918 E0.2303
G1 X111.096 Y83.625 E0.24001
G1 X111.6 Y83.402 E0.24973
G1 X112.131 Y83.255 E0.25944
G1 X112.693 Y83.185 E0.26943
G1 X112.835 Y83.178 E0.27193
G1 X113.386 Y83.19 E0.28165
G1 X113.929 Y83.283 E0.29136
G1 X114.453 Y83.453 E0.30107
G1 X114.927 Y83.685 E0.31037
G1 X115.053 Y83.758 E0.31294
G1 X115.508 Y84.068 E0.32264
G1 X115.914 Y84.441 E0.33236
G1 X116.262 Y84.868 E0.34207
G1 X116.498 Y85.252 E0.35002
G1 X116.558 Y85.364 E0.35226
G1 X116.782 Y85.867 E0.36196
G1 X116.903 Y86.271 E0.3694
G1 X117.22 Y87.591 E0.39333
G1 X117.885 Y90.276 E0.44209
G1 X118.897 Y94.324 E0.51564
G1 X119.394 Y96.378 E0.5529
G1 X119.878 Y98.43 E0.59006
G1 X120.349 Y100.493 E0.62736
G1 X120.806 Y102.55 E0.66451
G1 X121.405 Y105.292 E0.71398
G1 X122.569 Y110.735 E0.8121
G1 X123.429 Y114.832 E0.8859
G1 X124.27 Y118.936 E0.95974
G1 X125.086 Y123.043 E1.03356
G1 X125.811 Y126.825 E1.10144
G1 X125.875 Y127.372 E1.11115
G1 X125.86 Y127.923 E1.12086
G1 X125.765 Y128.465 E1.13056
G1 X125.592 Y128.989 E1.14029
G1 X125.346 Y129.481 E1.14999
G1 X125.031 Y129.933 E1.1597
G1 X124.653 Y130.335 E1.16943
G1 X124.222 Y130.678 E1.17914
G1 X123.746 Y130.955 E1.18885
G1 X123.234 Y131.16 E1.19857
G1 X122.699 Y131.289 E1.20827
G1 X122.079 Y131.34 E1.21924
G1 X121.57 Y131.34 E1.22821
G1 X121.02 Y131.3 E1.23793
G1 X120.482 Y131.181 E1.24764
G1 X119.967 Y130.985 E1.25736
G1 X119.503 Y130.728 E1.26671
G1 X111.861 Y125.768 E1.42731
G1 X105.124 Y133.603 E1.60946
G1 X104.977 Y133.765 E1.61331
G1 X104.528 Y134.23 E1.62471
G1 X104.191 Y134.539 E1.63277
G1 X103.689 Y134.947 E1.64417
G1 X103.334 Y135.203 E1.65189
G1 X102.791 Y135.549 E1.66324
G1 X102.408 Y135.763 E1.67097
G1 X101.825 Y136.046 E1.68239
G1 X101.396 Y136.222 E1.69057
G1 X100.788 Y136.43 E1.7019
G1 X100.373 Y136.547 E1.7095
G1 X99.74 Y136.686 E1.72092
G1 X99.29 Y136.756 E1.72895
G1 X98.648 Y136.818 E1.74032
G1 X98.206 Y136.835 E1.74812
G1 X97.562 Y136.822 E1.75947
G1 X97.122 Y136.788 E1.76725
G1 X96.481 Y136.7 E1.77865
G1 X96.036 Y136.611 E1.78665
G1 X95.413 Y136.448 E1.79801
G1 X94.99 Y136.311 E1.80584
G1 X94.387 Y136.075 E1.81726
G1 X93.981 Y135.888 E1.82514
G1 X93.412 Y135.584 E1.83651
G1 X93.038 Y135.355 E1.84424
G1 X92.51 Y134.989 E1.85557
G1 X92.157 Y134.712 E1.86348
G1 X91.671 Y134.282 E1.87492
G1 X91.35 Y133.962 E1.8829
G1 X90.921 Y133.48 E1.89428
G1 X90.651 Y133.139 E1.90195
G1 X90.28 Y132.611 E1.91332
G1 X90.04 Y132.221 E1.92139
G1 X89.735 Y131.652 E1.93277
G1 X89.55 Y131.253 E1.94053
G1 X89.313 Y130.653 E1.9519
G1 X89.174 Y130.231 E1.95973
G1 X89.009 Y129.609 E1.97108
G1 X88.92 Y129.172 E1.97894
G1 X88.829 Y128.534 E1.9903
G1 X88.792 Y128.091 E1.99813
G1 X88.776 Y127.445 E2.00952
G1 X88.791 Y126.998 E2.01741
G1 X88.851 Y126.355 E2.02879
G1 X88.92 Y125.91 E2.03673
G1 X89.056 Y125.277 E2.04814
G1 X89.123 Y125.012 E2.05296
G1 X89.891 Y122.379 E2.10131
G1 X90.734 Y119.77 E2.14964
G1 X91.645 Y117.198 E2.19774
G1 X91.807 Y116.774 E2.20574
G1 X92.637 Y114.63 E2.24627
G1 X93.693 Y112.107 E2.29448
G1 X93.879 Y111.693 E2.30248
G1 X94.826 Y109.602 E2.34295
G1 X96.026 Y107.137 E2.39128
G1 X97.294 Y104.708 E2.43958
G1 X98.632 Y102.31 E2.48798
G1 X100.035 Y99.958 E2.53626
G1 X101.504 Y97.643 E2.58459
G1 X103.038 Y95.368 E2.63296
G1 X104.637 Y93.141 E2.68129
G1 X106.295 Y90.959 E2.7296
G1 X108.015 Y88.823 E2.77794
G1 X108.881 Y87.806 E2.80149
G1 X108.917 Y87.028 E2.81522
G1 X108.982 Y86.48 E2.82494
G1 X109.143 Y85.9 E2.83556
G1 X109.193 Y85.763 E2.83813
G1 X109.419 Y85.261 E2.84783
G1 X109.715 Y84.796 E2.85755
G0 F6000 X110.07 Y84.99
G1 F1200 X110.419 Y84.603 E2.86673
G1 X110.749 Y84.326 E2.87433
G1 X110.866 Y84.24 E2.87689
G1 X111.309 Y83.965 E2.88608
G1 X111.788 Y83.76 E2.89526
G1 X112.293 Y83.631 E2.90445
G1 X112.713 Y83.584 E2.9119
G1 X112.855 Y83.577 E2.91441
G1 X113.376 Y83.591 E2.9236
G1 X113.888 Y83.685 E2.93277
G1 X114.381 Y83.856 E2.94197
G1 X114.726 Y84.031 E2.94879
G1 X114.852 Y84.104 E2.95136
G1 X115.282 Y84.399 E2.96055
G1 X115.661 Y84.756 E2.96973
G1 X115.982 Y85.167 E2.97892
G1 X116.145 Y85.44 E2.98453
G1 X116.205 Y85.552 E2.98677
G1 X116.415 Y86.029 E2.99595
G1 X116.514 Y86.365 E3.00213
G1 X116.831 Y87.687 E3.02609
G1 X117.496 Y90.373 E3.07487
G1 X118.508 Y94.421 E3.14842
G1 X119.005 Y96.473 E3.18564
G1 X119.489 Y98.522 E3.22276
G1 X119.959 Y100.582 E3.26
G1 X120.416 Y102.637 E3.29711
G1 X121.014 Y105.377 E3.34655
G1 X122.178 Y110.819 E3.44465
G1 X123.037 Y114.915 E3.51842
G1 X123.878 Y119.017 E3.59224
G1 X124.694 Y123.121 E3.666
G1 X125.418 Y126.9 E3.73383
G1 X125.477 Y127.418 E3.74302
G1 X125.456 Y127.938 E3.75219
G1 X125.355 Y128.45 E3.76139
G1 X125.177 Y128.94 E3.77058
G1 X124.927 Y129.397 E3.77976
G1 X124.61 Y129.81 E3.78894
G1 X124.233 Y130.17 E3.79813
G1 X123.806 Y130.469 E3.80732
G1 X123.338 Y130.698 E3.8165
G1 X122.84 Y130.854 E3.8257
G1 X122.079 Y130.94 E3.8392
G1 X121.57 Y130.94 E3.84818
G1 X121.05 Y130.9 E3.85737
G1 X120.543 Y130.781 E3.86655
G1 X120.06 Y130.586 E3.87573
G1 X119.72 Y130.393 E3.88262
G1 X111.787 Y125.244 E4.04934
G1 X111.641 Y125.411 E4.05325
G1 X104.821 Y133.342 E4.23764
G1 X104.689 Y133.487 E4.24109
G1 X104.24 Y133.952 E4.25249
G1 X103.938 Y134.228 E4.2597
G1 X103.436 Y134.636 E4.2711
G1 X103.119 Y134.865 E4.278
G1 X102.576 Y135.211 E4.28935
G1 X102.234 Y135.403 E4.29626
G1 X101.651 Y135.686 E4.30769
G1 X101.267 Y135.844 E4.315
G1 X100.659 Y136.052 E4.32633
G1 X100.287 Y136.156 E4.33314
G1 X99.654 Y136.295 E4.34457
G1 X99.252 Y136.358 E4.35174
G1 X98.61 Y136.42 E4.36311
G1 X98.214 Y136.435 E4.37009
G1 X97.57 Y136.422 E4.38145
G1 X97.177 Y136.391 E4.3884
G1 X96.536 Y136.303 E4.3998
G1 X96.137 Y136.224 E4.40697
G1 X95.514 Y136.061 E4.41833
G1 X95.136 Y135.938 E4.42533
G1 X94.533 Y135.702 E4.43675
G1 X94.17 Y135.535 E4.44379
G1 X93.601 Y135.231 E4.45516
G1 X93.266 Y135.026 E4.46209
G1 X92.738 Y134.66 E4.47341
G1 X92.422 Y134.412 E4.48049
G1 X91.936 Y133.982 E4.49193
G1 X91.649 Y133.696 E4.49907
G1 X91.22 Y133.214 E4.51045
G1 X90.978 Y132.909 E4.51731
G1 X90.607 Y132.381 E4.52869
G1 X90.392 Y132.032 E4.53591
G1 X90.087 Y131.463 E4.54729
G1 X89.922 Y131.106 E4.55423
G1 X89.685 Y130.506 E4.5656
G1 X89.561 Y130.129 E4.57259
G1 X89.396 Y129.507 E4.58394
G1 X89.316 Y129.115 E4.59099
G1 X89.225 Y128.477 E4.60235
G1 X89.192 Y128.081 E4.60936
G1 X89.176 Y127.435 E4.62075
G1 X89.19 Y127.035 E4.6278
G1 X89.25 Y126.392 E4.63919
G1 X89.311 Y125.994 E4.64628
G1 X89.447 Y125.361 E4.6577
G1 X89.507 Y125.124 E4.66201
G1 X90.272 Y122.502 E4.71015
G1 X91.111 Y119.904 E4.75828
G1 X92.019 Y117.341 E4.80621
G1 X92.181 Y116.917 E4.81421
G1 X93.006 Y114.784 E4.85453
G1 X94.058 Y112.271 E4.90255
G1 X95.186 Y109.777 E4.9508
G1 X96.381 Y107.322 E4.99893
G1 X97.643 Y104.902 E5.04705
G1 X98.976 Y102.515 E5.09524
G1 X100.373 Y100.172 E5.14333
G1 X101.836 Y97.867 E5.19145
G1 X103.364 Y95.601 E5.23963
G1 X104.955 Y93.383 E5.28775
G1 X106.607 Y91.21 E5.33587
G1 X108.319 Y89.083 E5.384
G1 X109.275 Y87.961 E5.40998
G1 X109.317 Y87.046 E5.42613
G1 X109.381 Y86.529 E5.43531
G1 X109.519 Y86.037 E5.44432
G1 X109.569 Y85.9 E5.44689
G1 X109.785 Y85.426 E5.45607
G1 X110.07 Y84.99 E5.46525
G0 F6000 X110.424 Y85.187
G1 F1200 X110.761 Y84.832 E5.47388
G1 X110.986 Y84.649 E5.47899
G1 X111.103 Y84.563 E5.48155
G1 X111.52 Y84.306 E5.49019
G1 X111.973 Y84.12 E5.49882
G1 X112.45 Y84.011 E5.50745
G1 X112.732 Y83.984 E5.51244
G1 X112.874 Y83.977 E5.51495
G1 X113.364 Y83.993 E5.52359
G1 X113.844 Y84.088 E5.53221
G1 X114.302 Y84.26 E5.54084
G1 X114.526 Y84.377 E5.54529
G1 X114.652 Y84.45 E5.54786
G1 X115.054 Y84.729 E5.55649
G1 X115.405 Y85.07 E5.56511
G1 X115.792 Y85.629 E5.5771
G1 X115.852 Y85.741 E5.57934
G1 X116.048 Y86.19 E5.58797
G1 X116.125 Y86.458 E5.59289
G1 X116.443 Y87.783 E5.61691
G1 X117.108 Y90.47 E5.6657
G1 X118.12 Y94.518 E5.73926
G1 X118.617 Y96.567 E5.77642
G1 X119.1 Y98.614 E5.8135
G1 X119.569 Y100.671 E5.85069
G1 X120.025 Y102.724 E5.88776
G1 X120.623 Y105.462 E5.93717
G1 X121.787 Y110.903 E6.03525
G1 X122.646 Y114.997 E6.10899
G1 X123.486 Y119.097 E6.18276
G1 X124.301 Y123.199 E6.25649
G1 X125.025 Y126.975 E6.32426
G1 X125.078 Y127.462 E6.3329
G1 X125.051 Y127.951 E6.34153
G1 X124.944 Y128.428 E6.35015
G1 X124.762 Y128.883 E6.35879
G1 X124.508 Y129.301 E6.36741
G1 X124.189 Y129.672 E6.37603
G1 X123.814 Y129.987 E6.38467
G1 X123.393 Y130.237 E6.3933
G1 X122.937 Y130.415 E6.40193
G1 X122.458 Y130.516 E6.41056
G1 X122.079 Y130.54 E6.41725
G1 X121.57 Y130.54 E6.42622
G1 X121.082 Y130.5 E6.43486
G1 X120.607 Y130.381 E6.44349
G1 X120.158 Y130.187 E6.45211
G1 X119.938 Y130.057 E6.45661
G1 X111.715 Y124.72 E6.62942
G1 X111.337 Y125.15 E6.63952
G1 X104.518 Y133.081 E6.82389
G1 X104.401 Y133.209 E6.82695
G1 X103.952 Y133.674 E6.83834
G1 X103.686 Y133.918 E6.84471
G1 X103.184 Y134.326 E6.85611
G1 X102.904 Y134.528 E6.8622
G1 X102.361 Y134.874 E6.87355
G1 X102.059 Y135.043 E6.87965
G1 X101.476 Y135.326 E6.89107
G1 X101.137 Y135.465 E6.89753
G1 X100.529 Y135.673 E6.90886
G1 X100.201 Y135.765 E6.91486
G1 X99.568 Y135.904 E6.92629
G1 X99.213 Y135.96 E6.93262
G1 X98.571 Y136.022 E6.94399
G1 X98.222 Y136.035 E6.95015
G1 X97.578 Y136.022 E6.9615
G1 X97.231 Y135.995 E6.96764
G1 X96.59 Y135.907 E6.97904
G1 X96.239 Y135.837 E6.98535
G1 X95.616 Y135.674 E6.9967
G1 X95.282 Y135.566 E7.00289
G1 X94.679 Y135.33 E7.01431
G1 X94.358 Y135.182 E7.02054
G1 X93.789 Y134.878 E7.03191
G1 X93.494 Y134.698 E7.038
G1 X92.966 Y134.332 E7.04933
G1 X92.687 Y134.113 E7.05558
G1 X92.201 Y133.683 E7.06702
G1 X91.948 Y133.431 E7.07331
G1 X91.519 Y132.949 E7.08469
G1 X91.305 Y132.679 E7.09076
G1 X90.934 Y132.151 E7.10214
G1 X90.745 Y131.843 E7.10851
G1 X90.44 Y131.274 E7.11989
G1 X90.294 Y130.959 E7.12601
G1 X90.057 Y130.359 E7.13738
G1 X89.947 Y130.026 E7.14356
G1 X89.782 Y129.404 E7.1549
G1 X89.712 Y129.059 E7.16111
G1 X89.621 Y128.421 E7.17247
G1 X89.592 Y128.071 E7.17866
G1 X89.576 Y127.425 E7.19005
G1 X89.588 Y127.072 E7.19628
G1 X89.648 Y126.429 E7.20766
G1 X89.702 Y126.078 E7.21392
G1 X89.838 Y125.445 E7.22534
G1 X89.891 Y125.236 E7.22914
G1 X90.653 Y122.625 E7.27708
G1 X91.488 Y120.037 E7.32502
G1 X92.393 Y117.483 E7.37278
G1 X92.555 Y117.059 E7.38079
G1 X93.375 Y114.938 E7.42087
G1 X94.422 Y112.435 E7.4687
G1 X94.608 Y112.021 E7.4767
G1 X95.546 Y109.951 E7.51676
G1 X96.736 Y107.506 E7.56469
G1 X97.993 Y105.097 E7.61259
G1 X99.32 Y102.72 E7.66058
G1 X100.711 Y100.386 E7.70848
G1 X102.168 Y98.09 E7.75641
G1 X103.689 Y95.834 E7.80438
G1 X105.274 Y93.625 E7.8523
G1 X106.918 Y91.461 E7.90021
G1 X108.624 Y89.342 E7.94816
G1 X109.667 Y88.117 E7.97653
G1 X109.716 Y87.064 E7.99511
G1 X109.779 Y86.579 E8.00373
G1 X109.895 Y86.174 E8.01116
G1 X109.945 Y86.037 E8.01373
G1 X110.15 Y85.593 E8.02235
G1 X110.424 Y85.187 E8.03098
G0 F6000 X110.776 Y85.389
G1 F1200 X111.223 Y84.971 E8.04177
G1 X111.34 Y84.885 E8.04433
G1 X111.729 Y84.648 E8.05236
G1 X112.154 Y84.483 E8.0604
G1 X112.752 Y84.383 E8.07108
G1 X112.894 Y84.376 E8.07359
G1 X113.349 Y84.394 E8.08162
G1 X113.795 Y84.49 E8.08966
G1 X114.325 Y84.723 E8.09986
G1 X114.451 Y84.796 E8.10243
G1 X114.824 Y85.058 E8.11047
G1 X115.145 Y85.381 E8.11849
G1 X115.44 Y85.818 E8.12779
G1 X115.5 Y85.93 E8.13003
G1 X115.736 Y86.551 E8.14174
G1 X116.055 Y87.879 E8.16581
G1 X116.722 Y90.573 E8.21474
G1 X117.732 Y94.615 E8.28818
G1 X118.228 Y96.661 E8.32529
G1 X118.711 Y98.706 E8.36233
G1 X119.179 Y100.76 E8.39947
G1 X119.635 Y102.811 E8.43651
G1 X120.232 Y105.548 E8.48589
G1 X121.395 Y110.986 E8.58392
G1 X122.255 Y115.079 E8.65764
G1 X123.094 Y119.177 E8.73138
G1 X123.909 Y123.277 E8.80507
G1 X124.633 Y127.051 E8.87281
G1 X124.679 Y127.504 E8.88083
G1 X124.645 Y127.958 E8.88886
G1 X124.533 Y128.4 E8.8969
G1 X124.345 Y128.815 E8.90493
G1 X124.088 Y129.191 E8.91296
G1 X123.769 Y129.516 E8.92099
G1 X123.398 Y129.781 E8.92902
G1 X122.986 Y129.977 E8.93706
G1 X122.547 Y130.098 E8.94509
G1 X122.079 Y130.14 E8.95338
G1 X121.57 Y130.14 E8.96235
G1 X121.116 Y130.1 E8.97038
G1 X120.676 Y129.982 E8.97841
G1 X120.155 Y129.722 E8.98868
G1 X118.457 Y128.621 E9.02435
G1 X111.643 Y124.196 E9.16757
G1 X111.016 Y124.91 E9.18432
G1 X104.113 Y132.931 E9.37087
G1 X103.664 Y133.396 E9.38226
G1 X103.434 Y133.608 E9.38778
G1 X102.932 Y134.016 E9.39918
G1 X102.689 Y134.191 E9.40446
G1 X102.146 Y134.537 E9.41581
G1 X101.884 Y134.683 E9.4211
G1 X101.301 Y134.966 E9.43252
G1 X101.008 Y135.087 E9.43811
G1 X100.4 Y135.295 E9.44944
G1 X100.116 Y135.374 E9.45463
G1 X99.483 Y135.513 E9.46606
G1 X99.175 Y135.562 E9.47155
G1 X98.533 Y135.624 E9.48292
G1 X98.231 Y135.635 E9.48825
G1 X97.587 Y135.622 E9.49961
G1 X97.285 Y135.599 E9.50494
G1 X96.644 Y135.511 E9.51635
G1 X96.34 Y135.45 E9.52182
G1 X95.717 Y135.287 E9.53317
G1 X95.427 Y135.193 E9.53854
G1 X94.824 Y134.957 E9.54996
G1 X94.547 Y134.829 E9.55533
G1 X93.978 Y134.525 E9.56671
G1 X93.722 Y134.369 E9.57199
G1 X93.194 Y134.003 E9.58332
G1 X92.952 Y133.813 E9.58874
G1 X92.466 Y133.383 E9.60018
G1 X92.247 Y133.165 E9.60563
G1 X91.818 Y132.683 E9.617
G1 X91.633 Y132.449 E9.62226
G1 X91.262 Y131.921 E9.63363
G1 X91.097 Y131.654 E9.63917
G1 X90.792 Y131.085 E9.65055
G1 X90.666 Y130.812 E9.65585
G1 X90.429 Y130.212 E9.66722
G1 X90.334 Y129.924 E9.67257
G1 X90.169 Y129.302 E9.68391
G1 X90.108 Y129.002 E9.68931
G1 X90.017 Y128.364 E9.70067
G1 X89.992 Y128.061 E9.70603
G1 X89.976 Y127.415 E9.71742
G1 X89.986 Y127.109 E9.72281
G1 X90.046 Y126.466 E9.7342
G1 X90.093 Y126.162 E9.73962
G1 X90.229 Y125.529 E9.75103
G1 X90.275 Y125.348 E9.75433
G1 X91.033 Y122.747 E9.80208
G1 X91.865 Y120.171 E9.8498
G1 X92.766 Y117.626 E9.89739
G1 X92.928 Y117.202 E9.9054
G1 X93.744 Y115.092 E9.94527
G1 X94.787 Y112.598 E9.99293
G1 X94.973 Y112.184 E10.00093
G1 X95.906 Y110.126 E10.04076
G1 X97.09 Y107.691 E10.08849
G1 X98.342 Y105.292 E10.13619
G1 X99.663 Y102.924 E10.18399
G1 X101.049 Y100.6 E10.23169
G1 X102.5 Y98.314 E10.27942
G1 X104.014 Y96.067 E10.32718
G1 X105.592 Y93.867 E10.37491
G1 X107.23 Y91.712 E10.42262
G1 X108.928 Y89.601 E10.47038
G1 X110.061 Y88.27 E10.50119
G1 X110.116 Y87.083 E10.52214
G1 X110.177 Y86.631 E10.53018
G1 X110.271 Y86.312 E10.53604
G1 X110.321 Y86.175 E10.53861
G1 X110.514 Y85.762 E10.54665
G1 X110.776 Y85.389 E10.55468
G0 F6000 X111.126 Y85.596
G1 F1200 X111.46 Y85.293 E10.56263
G1 X111.577 Y85.207 E10.56519
G1 X111.937 Y84.992 E10.57258
G1 X112.331 Y84.85 E10.57997
G1 X112.772 Y84.783 E10.58783
G1 X112.914 Y84.776 E10.59034
G1 X113.332 Y84.795 E10.59771
G1 X113.74 Y84.893 E10.60511
G1 X114.125 Y85.069 E10.61257
G1 X114.251 Y85.142 E10.61514
G1 X114.592 Y85.386 E10.62253
G1 X114.88 Y85.69 E10.62991
G1 X115.087 Y86.007 E10.63659
G1 X115.147 Y86.119 E10.63883
