;FLAVOR:Marlin
;TIME:3252
;Filament used: 1.35771m
;Layer height: 0.25
;MINX:92.824
;MINY:83.17
;MINZ:0.2
;MAXX:131.224
;MAXY:136.835
;MAXZ:129.95
;Generated with Cura_SteamEngine 4.6.1
M140 S60
M105
M190 S60
M104 S235
M105
M109 S235
M82 ;absolute extrusion mode
; Ender 3 Custom Start G-code
G92 E0 ; Reset Extruder
G28 ; Home all axes
G1 Z2.0 F3000 ; Move Z Axis up little to prevent scratching of Heat Bed
G1 X0.1 Y20 Z0.3 F5000.0 ; Move to start position
G1 X0.1 Y200.0 Z0.3 F1500.0 E15 ; Draw the first line
G1 X0.4 Y200.0 Z0.3 F5000.0 ; Move to side a little
G1 X0.4 Y20 Z0.3 F1500.0 E30 ; Draw the second line
G92 E0 ; Reset Extruder
G1 Z2.0 F3000 ; Move Z Axis up little to prevent scratching of Heat Bed
G1 X5 Y20 Z0.3 F5000.0 ; Move over to prevent blob squish
G92 E0
G92 E0
G1 F3000 E-1
;LAYER_COUNT:520
;LAYER:0
M107
G0 F6000 X103.811 Y84.799 Z0.2
;TYPE:SKIRT
G1 F3000 E0.20788
G1 F1200 X104.162 Y84.375 E0.21758
G1 X104.57 Y84.005 E0.22729
G1 X105.028 Y83.698 E0.23701
G1 X105.526 Y83.461 E0.24673
G1 X105.986 Y83.314 E0.25524
G1 X106.126 Y83.279 E0.25779
G1 X106.669 Y83.185 E0.2675
G1 X107.22 Y83.17 E0.27722
G1 X107.767 Y83.235 E0.28693
G1 X108.311 Y83.382 E0.29686
G1 X108.45 Y83.431 E0.29946
G1 X108.955 Y83.652 E0.30918
G1 X109.423 Y83.943 E0.31889
G1 X109.844 Y84.298 E0.3286
G1 X110.256 Y84.774 E0.3397
G1 X110.34 Y84.889 E0.34221
G1 X110.631 Y85.356 E0.35191
G1 X110.853 Y85.861 E0.36163
G1 X110.999 Y86.392 E0.37134
G1 X111.06 Y86.836 E0.37924
G1 X111.1 Y87.381 E0.38887
G1 X111.12 Y87.808 E0.39641
G1 X112.047 Y88.898 E0.42163
G1 X112.334 Y89.253 E0.42968
G1 X113.771 Y91.042 E0.47013
G1 X115.426 Y93.226 E0.51843
G1 X117.022 Y95.457 E0.56679
G1 X118.548 Y97.722 E0.61493
G1 X118.793 Y98.106 E0.62296
G1 X120.02 Y100.047 E0.66344
G1 X121.423 Y102.406 E0.71182
G1 X122.754 Y104.799 E0.76009
G1 X124.021 Y107.231 E0.80843
G1 X125.219 Y109.697 E0.85676
G1 X126.347 Y112.198 E0.90512
G1 X127.403 Y114.728 E0.95345
G1 X128.384 Y117.278 E1.00161
G1 X128.537 Y117.707 E1.00964
G1 X129.301 Y119.871 E1.0501
G1 X130.14 Y122.482 E1.09844
G1 X130.877 Y125.012 E1.14489
G1 X130.944 Y125.274 E1.14966
G1 X131.08 Y125.905 E1.16104
G1 X131.149 Y126.353 E1.16903
G1 X131.209 Y126.996 E1.18041
G1 X131.224 Y127.443 E1.1883
G1 X131.208 Y128.088 E1.19967
G1 X131.171 Y128.528 E1.20745
G1 X131.08 Y129.169 E1.21887
G1 X130.991 Y129.609 E1.22678
G1 X130.826 Y130.231 E1.23812
G1 X130.687 Y130.653 E1.24596
G1 X130.45 Y131.253 E1.25733
G1 X130.265 Y131.652 E1.26508
G1 X129.96 Y132.221 E1.27646
G1 X129.72 Y132.611 E1.28453
G1 X129.349 Y133.139 E1.29591
G1 X129.079 Y133.48 E1.30358
G1 X128.65 Y133.962 E1.31495
G1 X128.329 Y134.282 E1.32294
G1 X127.843 Y134.712 E1.33438
G1 X127.49 Y134.989 E1.34229
G1 X126.962 Y135.355 E1.35362
G1 X126.588 Y135.584 E1.36135
G1 X126.019 Y135.888 E1.37272
G1 X125.613 Y136.075 E1.3806
G1 X125.01 Y136.311 E1.39201
G1 X124.587 Y136.448 E1.39985
G1 X123.964 Y136.611 E1.4112
G1 X123.519 Y136.7 E1.4192
G1 X122.878 Y136.788 E1.43061
G1 X122.438 Y136.822 E1.43839
G1 X121.794 Y136.835 E1.44974
G1 X121.352 Y136.818 E1.45754
G1 X120.71 Y136.756 E1.46891
G1 X120.26 Y136.686 E1.47694
G1 X119.627 Y136.547 E1.48836
G1 X119.212 Y136.43 E1.49596
G1 X118.604 Y136.222 E1.50729
G1 X118.175 Y136.046 E1.51546
G1 X117.592 Y135.763 E1.52689
G1 X117.209 Y135.549 E1.53462
G1 X116.666 Y135.203 E1.54597
G1 X116.308 Y134.944 E1.55376
G1 X115.806 Y134.535 E1.56517
G1 X115.475 Y134.232 E1.57308
G1 X115.026 Y133.768 E1.58447
G1 X114.876 Y133.603 E1.5884
G1 X108.139 Y125.768 E1.77055
G1 X100.502 Y130.727 E1.93106
G1 X100.02 Y130.993 E1.94077
G1 X99.504 Y131.186 E1.95048
G1 X98.965 Y131.303 E1.9602
G1 X98.433 Y131.34 E1.9696
G1 X97.923 Y131.34 E1.97859
G1 X97.373 Y131.3 E1.98832
G1 X96.835 Y131.181 E1.99803
G1 X96.32 Y130.985 E2.00774
G1 X95.839 Y130.717 E2.01745
G1 X95.401 Y130.383 E2.02716
G1 X95.017 Y129.988 E2.03687
G1 X94.693 Y129.542 E2.04659
G1 X94.438 Y129.054 E2.05629
G1 X94.255 Y128.534 E2.06601
G1 X94.15 Y127.993 E2.07572
G1 X94.124 Y127.443 E2.08543
G1 X94.191 Y126.826 E2.09637
G1 X94.907 Y123.082 E2.16357
G1 X95.72 Y118.987 E2.23716
G1 X96.56 Y114.883 E2.31101
G1 X97.421 Y110.781 E2.38489
G1 X98.585 Y105.339 E2.48299
G1 X99.183 Y102.597 E2.53246
G1 X99.644 Y100.528 E2.56983
G1 X100.112 Y98.475 E2.60695
G1 X100.596 Y96.42 E2.64416
G1 X101.093 Y94.369 E2.68137
G1 X102.777 Y87.61 E2.80416
G1 X103.095 Y86.282 E2.82823
G1 X103.261 Y85.757 E2.83793
G1 X103.502 Y85.261 E2.84765
G1 X103.693 Y84.965 E2.85386
G1 X103.811 Y84.799 E2.85745
G0 F6000 X104.137 Y85.031
G1 F1200 X104.47 Y84.631 E2.86663
G1 X104.861 Y84.286 E2.87582
G1 X105.3 Y84.005 E2.88501
G1 X105.777 Y83.795 E2.8942
G1 X106.083 Y83.703 E2.89983
G1 X106.223 Y83.668 E2.90237
G1 X106.737 Y83.58 E2.91157
G1 X107.258 Y83.573 E2.92075
G1 X107.774 Y83.645 E2.92993
G1 X108.178 Y83.759 E2.93733
G1 X108.317 Y83.808 E2.93993
G1 X108.794 Y84.019 E2.94913
G1 X109.233 Y84.3 E2.95831
G1 X109.624 Y84.644 E2.9675
G1 X109.933 Y85.01 E2.97594
G1 X110.017 Y85.125 E2.97845
G1 X110.291 Y85.568 E2.98763
G1 X110.494 Y86.048 E2.99682
G1 X110.622 Y86.553 E3.006
G1 X110.661 Y86.867 E3.01158
G1 X110.7 Y87.4 E3.021
G1 X110.726 Y87.963 E3.03094
G1 X111.736 Y89.149 E3.0584
G1 X112.023 Y89.504 E3.06644
G1 X113.453 Y91.284 E3.10669
G1 X115.101 Y93.459 E3.1548
G1 X116.691 Y95.68 E3.20295
G1 X118.21 Y97.937 E3.2509
G1 X118.455 Y98.321 E3.25893
G1 X119.676 Y100.252 E3.29921
G1 X121.073 Y102.6 E3.34737
G1 X122.4 Y104.984 E3.39546
G1 X123.661 Y107.406 E3.4436
G1 X124.855 Y109.862 E3.49174
G1 X125.978 Y112.352 E3.53989
G1 X127.03 Y114.871 E3.58801
G1 X128.007 Y117.412 E3.636
G1 X128.16 Y117.841 E3.64403
G1 X128.92 Y119.994 E3.68428
G1 X129.756 Y122.594 E3.73242
G1 X130.493 Y125.124 E3.77887
G1 X130.553 Y125.359 E3.78315
G1 X130.689 Y125.99 E3.79453
G1 X130.75 Y126.39 E3.80166
G1 X130.81 Y127.033 E3.81304
G1 X130.824 Y127.433 E3.8201
G1 X130.808 Y128.078 E3.83147
G1 X130.775 Y128.472 E3.83844
G1 X130.684 Y129.113 E3.84986
G1 X130.604 Y129.507 E3.85694
G1 X130.439 Y130.129 E3.86829
G1 X130.315 Y130.506 E3.87528
G1 X130.078 Y131.106 E3.88665
G1 X129.913 Y131.463 E3.89359
G1 X129.608 Y132.032 E3.90497
G1 X129.393 Y132.381 E3.91219
G1 X129.022 Y132.909 E3.92357
G1 X128.78 Y133.214 E3.93043
G1 X128.351 Y133.696 E3.94181
G1 X128.064 Y133.982 E3.94895
G1 X127.578 Y134.412 E3.96039
G1 X127.262 Y134.66 E3.96747
G1 X126.734 Y135.026 E3.97879
G1 X126.399 Y135.231 E3.98572
G1 X125.83 Y135.535 E3.99709
G1 X125.467 Y135.702 E4.00413
G1 X124.864 Y135.938 E4.01555
G1 X124.486 Y136.061 E4.02255
G1 X123.863 Y136.224 E4.03391
G1 X123.464 Y136.303 E4.04108
G1 X122.823 Y136.391 E4.05248
G1 X122.43 Y136.422 E4.05943
G1 X121.786 Y136.435 E4.07079
G1 X121.39 Y136.42 E4.07777
G1 X120.748 Y136.358 E4.08914
G1 X120.346 Y136.295 E4.09631
G1 X119.713 Y136.156 E4.10774
G1 X119.341 Y136.052 E4.11455
G1 X118.733 Y135.844 E4.12588
G1 X118.349 Y135.686 E4.13319
G1 X117.766 Y135.403 E4.14462
G1 X117.424 Y135.211 E4.15153
G1 X116.881 Y134.865 E4.16288
G1 X116.56 Y134.634 E4.16985
G1 X116.058 Y134.225 E4.18127
G1 X115.763 Y133.953 E4.18834
G1 X115.314 Y133.489 E4.19972
G1 X115.179 Y133.342 E4.20324
G1 X108.215 Y125.243 E4.39153
G1 X100.285 Y130.392 E4.5582
G1 X99.827 Y130.641 E4.56739
G1 X99.337 Y130.818 E4.57658
G1 X98.825 Y130.917 E4.58577
G1 X98.433 Y130.94 E4.59269
G1 X97.923 Y130.94 E4.60168
G1 X97.403 Y130.9 E4.61087
G1 X96.896 Y130.781 E4.62005
G1 X96.413 Y130.586 E4.62924
G1 X95.965 Y130.32 E4.63842
G1 X95.563 Y129.988 E4.64761
G1 X95.217 Y129.598 E4.6568
G1 X94.934 Y129.16 E4.66599
G1 X94.721 Y128.685 E4.67517
G1 X94.584 Y128.182 E4.68436
G1 X94.525 Y127.664 E4.69355
G1 X94.584 Y126.901 E4.70704
G1 X95.3 Y123.157 E4.77424
G1 X96.112 Y119.065 E4.84778
G1 X96.952 Y114.963 E4.92159
G1 X97.813 Y110.864 E4.99542
G1 X98.976 Y105.423 E5.0935
G1 X99.574 Y102.682 E5.14295
G1 X100.034 Y100.615 E5.18028
G1 X100.502 Y98.564 E5.21737
G1 X100.986 Y96.512 E5.25453
G1 X101.482 Y94.464 E5.29168
G1 X102.496 Y90.407 E5.36539
G1 X103.165 Y87.706 E5.41444
G1 X103.484 Y86.375 E5.43857
G1 X103.643 Y85.879 E5.44775
G1 X104.019 Y85.197 E5.46148
G1 X104.137 Y85.031 E5.46507
G0 F6000 X104.463 Y85.263
G1 F1200 X104.778 Y84.888 E5.47371
G1 X105.15 Y84.57 E5.48233
G1 X105.569 Y84.317 E5.49096
G1 X106.18 Y84.091 E5.50244
G1 X106.32 Y84.056 E5.50499
G1 X106.803 Y83.976 E5.51362
G1 X107.293 Y83.976 E5.52226
G1 X107.776 Y84.056 E5.53089
G1 X108.045 Y84.137 E5.53584
G1 X108.184 Y84.186 E5.53844
G1 X108.631 Y84.386 E5.54707
G1 X109.04 Y84.655 E5.5557
G1 X109.399 Y84.988 E5.56433
G1 X109.61 Y85.245 E5.57019
G1 X109.694 Y85.36 E5.5727
G1 X109.949 Y85.778 E5.58133
G1 X110.133 Y86.231 E5.58995
G1 X110.262 Y86.898 E5.60193
G1 X110.301 Y87.418 E5.61112
G1 X110.333 Y88.118 E5.62347
G1 X111.425 Y89.401 E5.65317
G1 X111.712 Y89.756 E5.66122
G1 X113.134 Y91.526 E5.70124
G1 X114.776 Y93.692 E5.74916
G1 X116.359 Y95.904 E5.79711
G1 X117.873 Y98.152 E5.84488
G1 X118.118 Y98.536 E5.85291
G1 X119.333 Y100.456 E5.89296
G1 X120.724 Y102.795 E5.94094
G1 X122.045 Y105.169 E5.98883
G1 X123.302 Y107.581 E6.03677
G1 X124.49 Y110.026 E6.08469
G1 X125.609 Y112.507 E6.13267
G1 X126.656 Y115.015 E6.18058
G1 X127.631 Y117.546 E6.22839
G1 X127.784 Y117.975 E6.23642
G1 X128.54 Y120.116 E6.27644
G1 X129.372 Y122.706 E6.3244
G1 X130.109 Y125.236 E6.37085
G1 X130.162 Y125.443 E6.37462
G1 X130.298 Y126.074 E6.386
G1 X130.352 Y126.427 E6.39229
G1 X130.412 Y127.07 E6.40367
G1 X130.424 Y127.423 E6.4099
G1 X130.408 Y128.068 E6.42127
G1 X130.379 Y128.416 E6.42743
G1 X130.288 Y129.057 E6.43884
G1 X130.218 Y129.404 E6.44508
G1 X130.053 Y130.026 E6.45643
G1 X129.943 Y130.359 E6.46261
G1 X129.706 Y130.959 E6.47398
G1 X129.56 Y131.274 E6.4801
G1 X129.255 Y131.843 E6.49148
G1 X129.066 Y132.151 E6.49785
G1 X128.695 Y132.679 E6.50923
G1 X128.481 Y132.949 E6.5153
G1 X128.052 Y133.431 E6.52667
G1 X127.799 Y133.683 E6.53297
G1 X127.313 Y134.113 E6.54441
G1 X127.034 Y134.332 E6.55066
G1 X126.506 Y134.698 E6.56199
G1 X126.211 Y134.878 E6.56808
G1 X125.642 Y135.182 E6.57945
G1 X125.321 Y135.33 E6.58568
G1 X124.718 Y135.566 E6.5971
G1 X124.384 Y135.674 E6.60328
G1 X123.761 Y135.837 E6.61463
G1 X123.41 Y135.907 E6.62094
G1 X122.769 Y135.995 E6.63235
G1 X122.422 Y136.022 E6.63848
G1 X121.778 Y136.035 E6.64984
G1 X121.429 Y136.022 E6.656
G1 X120.787 Y135.96 E6.66737
G1 X120.432 Y135.904 E6.6737
G1 X119.799 Y135.765 E6.68513
G1 X119.471 Y135.673 E6.69113
G1 X118.863 Y135.465 E6.70246
G1 X118.524 Y135.326 E6.70892
G1 X117.941 Y135.043 E6.72034
G1 X117.639 Y134.874 E6.72644
G1 X117.096 Y134.528 E6.73779
G1 X116.813 Y134.324 E6.74394
G1 X116.311 Y133.915 E6.75536
G1 X116.05 Y133.675 E6.76161
G1 X115.482 Y133.081 E6.77609
G1 X108.29 Y124.717 E6.97054
G1 X100.067 Y130.056 E7.14337
G1 X99.636 Y130.288 E7.152
G1 X99.173 Y130.447 E7.16063
G1 X98.69 Y130.529 E7.16927
G1 X98.433 Y130.54 E7.1738
G1 X97.923 Y130.54 E7.18279
G1 X97.435 Y130.5 E7.19142
G1 X96.96 Y130.381 E7.20005
G1 X96.511 Y130.187 E7.20868
G1 X96.099 Y129.922 E7.21731
G1 X95.736 Y129.594 E7.22594
G1 X95.431 Y129.211 E7.23457
G1 X95.193 Y128.783 E7.2432
G1 X95.027 Y128.323 E7.25182
G1 X94.938 Y127.842 E7.26044
G1 X94.929 Y127.352 E7.26908
G1 X94.976 Y126.976 E7.27576
G1 X95.692 Y123.232 E7.34296
G1 X96.504 Y119.143 E7.41644
G1 X97.344 Y115.043 E7.49022
G1 X98.204 Y110.946 E7.56402
G1 X99.367 Y105.507 E7.66206
G1 X99.965 Y102.767 E7.7115
G1 X100.425 Y100.702 E7.74879
G1 X100.892 Y98.653 E7.78584
G1 X101.375 Y96.603 E7.82296
G1 X101.87 Y94.558 E7.86005
G1 X102.882 Y90.51 E7.93361
G1 X103.553 Y87.802 E7.98279
G1 X103.873 Y86.468 E8.00697
G1 X104.025 Y86.003 E8.01559
G1 X104.345 Y85.429 E8.02718
G1 X104.463 Y85.263 E8.03077
G0 F6000 X104.789 Y85.495
G1 F1200 X105.084 Y85.148 E8.0388
G1 X105.436 Y84.858 E8.04684
G1 X105.833 Y84.634 E8.05487
G1 X106.277 Y84.479 E8.06316
G1 X106.417 Y84.444 E8.06571
G1 X106.867 Y84.372 E8.07374
G1 X107.323 Y84.381 E8.08178
G1 X107.912 Y84.514 E8.09242
G1 X108.051 Y84.563 E8.09502
G1 X108.466 Y84.751 E8.10305
G1 X108.842 Y85.01 E8.1111
G1 X109.287 Y85.481 E8.12252
G1 X109.371 Y85.596 E8.12503
G1 X109.606 Y85.986 E8.13306
G1 X109.77 Y86.412 E8.14111
G1 X109.863 Y86.929 E8.15037
G1 X109.901 Y87.436 E8.15933
G1 X109.939 Y88.274 E8.17412
G1 X111.114 Y89.652 E8.20604
G1 X111.401 Y90.007 E8.21409
G1 X112.815 Y91.768 E8.2539
G1 X114.451 Y93.925 E8.30162
G1 X116.027 Y96.127 E8.34936
G1 X117.536 Y98.368 E8.39698
G1 X117.781 Y98.752 E8.40501
G1 X118.989 Y100.661 E8.44483
G1 X120.374 Y102.99 E8.4926
G1 X121.69 Y105.354 E8.54029
G1 X122.942 Y107.756 E8.58804
G1 X124.126 Y110.191 E8.63577
G1 X125.24 Y112.661 E8.68354
G1 X126.283 Y115.159 E8.73126
G1 X127.254 Y117.681 E8.77889
G1 X127.407 Y118.11 E8.78692
G1 X128.159 Y120.239 E8.82672
G1 X128.988 Y122.818 E8.87448
G1 X129.725 Y125.348 E8.92093
G1 X129.771 Y125.527 E8.92419
G1 X129.907 Y126.158 E8.93557
G1 X129.954 Y126.464 E8.94102
G1 X130.014 Y127.107 E8.95241
G1 X130.024 Y127.413 E8.95781
G1 X130.008 Y128.058 E8.96918
G1 X129.983 Y128.359 E8.9745
G1 X129.892 Y129 E8.98592
G1 X129.831 Y129.302 E8.99135
G1 X129.666 Y129.924 E9.00269
G1 X129.571 Y130.212 E9.00804
G1 X129.334 Y130.812 E9.01941
G1 X129.208 Y131.085 E9.02471
G1 X128.903 Y131.654 E9.03609
G1 X128.738 Y131.921 E9.04162
G1 X128.367 Y132.449 E9.053
G1 X128.182 Y132.683 E9.05826
G1 X127.753 Y133.165 E9.06963
G1 X127.534 Y133.383 E9.07508
G1 X127.048 Y133.813 E9.08652
G1 X126.806 Y134.003 E9.09194
G1 X126.278 Y134.369 E9.10327
G1 X126.022 Y134.525 E9.10855
G1 X125.453 Y134.829 E9.11992
G1 X125.176 Y134.957 E9.1253
G1 X124.573 Y135.193 E9.13672
G1 X124.283 Y135.287 E9.14209
G1 X123.66 Y135.45 E9.15344
G1 X123.356 Y135.511 E9.15891
G1 X122.715 Y135.599 E9.17031
G1 X122.413 Y135.622 E9.17565
G1 X121.769 Y135.635 E9.18701
G1 X121.467 Y135.624 E9.19233
G1 X120.825 Y135.562 E9.2037
G1 X120.517 Y135.513 E9.2092
G1 X119.884 Y135.374 E9.22063
G1 X119.6 Y135.295 E9.22582
G1 X118.992 Y135.087 E9.23715
G1 X118.699 Y134.966 E9.24274
G1 X118.116 Y134.683 E9.25416
G1 X117.854 Y134.537 E9.25945
G1 X117.311 Y134.191 E9.2708
G1 X117.066 Y134.014 E9.27613
G1 X116.564 Y133.605 E9.28754
G1 X116.338 Y133.397 E9.29295
G1 X115.786 Y132.82 E9.30703
G1 X108.366 Y124.191 E9.50765
G1 X99.849 Y129.721 E9.68665
G1 X99.447 Y129.934 E9.69467
G1 X99.013 Y130.074 E9.70271
G1 X98.433 Y130.14 E9.713
G1 X97.923 Y130.14 E9.72199
G1 X97.469 Y130.1 E9.73003
G1 X97.029 Y129.982 E9.73806
G1 X96.617 Y129.788 E9.74608
G1 X96.244 Y129.525 E9.75413
G1 X95.923 Y129.202 E9.76216
G1 X95.664 Y128.827 E9.77019
G1 X95.474 Y128.413 E9.77822
G1 X95.359 Y127.972 E9.78625
G1 X95.323 Y127.518 E9.79428
G1 X95.369 Y127.052 E9.80254
G1 X96.085 Y123.308 E9.86973
G1 X96.897 Y119.221 E9.94318
G1 X97.736 Y115.123 E10.01692
G1 X98.595 Y111.028 E10.09068
G1 X99.759 Y105.59 E10.18871
G1 X100.356 Y102.853 E10.23809
G1 X100.815 Y100.789 E10.27537
G1 X101.282 Y98.742 E10.31238
G1 X101.764 Y96.695 E10.34945
G1 X102.259 Y94.652 E10.3865
G1 X103.27 Y90.607 E10.46
G1 X103.941 Y87.899 E10.50918
G1 X104.262 Y86.561 E10.53344
G1 X104.406 Y86.129 E10.54146
G1 X104.671 Y85.661 E10.55095
G1 X104.789 Y85.495 E10.55454
G0 F6000 X105.115 Y85.726
G1 F1200 X105.389 Y85.409 E10.56192
G1 X105.718 Y85.15 E10.5693
G1 X106.091 Y84.958 E10.5767
G1 X106.374 Y84.867 E10.58194
G1 X106.514 Y84.832 E10.58448
G1 X106.929 Y84.769 E10.59188
G1 X107.347 Y84.786 E10.59926
G1 X107.779 Y84.891 E10.60709
G1 X107.918 Y84.94 E10.60969
G1 X108.299 Y85.116 E10.61709
G1 X108.638 Y85.362 E10.62447
G1 X108.964 Y85.717 E10.63297
G1 X109.048 Y85.832 E10.63548
G1 X109.261 Y86.193 E10.64287
G1 X109.403 Y86.587 E10.65025
