;FLAVOR:Marlin
;TIME:2787
;Filament used: 1.17636m
;Layer height: 0.25
;MINX:92.554
;MINY:90.097
;MINZ:0.2
;MAXX:127.447
;MAXY:126.099
;MAXZ:128.95
;Generated with Cura_SteamEngine 4.6.1
M140 S60
M105
M190 S60
M104 S235
M105
M109 S235
M82 ;absolute extrusion mode
; Ender 3 Custom Start G-code
G92 E0 ; Reset Extruder
G28 ; Home all axes
G1 Z2.0 F3000 ; Move Z Axis up little to prevent scratching of Heat Bed
G1 X0.1 Y20 Z0.3 F5000.0 ; Move to start position
G1 X0.1 Y200.0 Z0.3 F1500.0 E15 ; Draw the first line
G1 X0.4 Y200.0 Z0.3 F5000.0 ; Move to side a little
G1 X0.4 Y20 Z0.3 F1500.0 E30 ; Draw the second line
G92 E0 ; Reset Extruder
G1 Z2.0 F3000 ; Move Z Axis up little to prevent scratching of Heat Bed
G1 X5 Y20 Z0.3 F5000.0 ; Move over to prevent blob squish
G92 E0
G92 E0
G1 F3000 E-1
;LAYER_COUNT:516
;LAYER:0
M107
G0 F6000 X97.175 Y94.635 Z0.2
;TYPE:SKIRT
G1 F3000 E0.20788
G1 F1200 X97.534 Y94.272 E0.21688
G1 X97.937 Y93.889 E0.22668
G1 X98.334 Y93.544 E0.23595
G1 X98.737 Y93.216 E0.24511
G1 X99.195 Y92.873 E0.25519
G1 X99.606 Y92.592 E0.26397
G1 X100.058 Y92.302 E0.27344
G1 X100.391 Y92.103 E0.28028
G1 X100.56 Y92.008 E0.28369
G1 X101.122 Y91.71 E0.29491
G1 X101.323 Y91.61 E0.29886
G1 X101.901 Y91.346 E0.31007
G1 X102.089 Y91.267 E0.31366
G1 X102.679 Y91.035 E0.32484
G1 X102.864 Y90.968 E0.3283
G1 X103.463 Y90.77 E0.33943
G1 X104.071 Y90.597 E0.35057
G1 X104.676 Y90.451 E0.36154
G1 X105.324 Y90.322 E0.37319
G1 X105.95 Y90.227 E0.38435
G1 X106.599 Y90.155 E0.39586
G1 X107.266 Y90.11 E0.40764
G1 X107.73 Y90.097 E0.41583
G1 X108.517 Y90.098 E0.4297
G1 X110.019 Y90.133 E0.45618
G1 X111.464 Y90.098 E0.48166
G1 X111.555 Y90.097 E0.48327
G1 X112.382 Y90.099 E0.49785
G1 X112.869 Y90.117 E0.50644
G1 X113.573 Y90.171 E0.51888
G1 X114.192 Y90.247 E0.52988
G1 X114.827 Y90.35 E0.54122
G1 X115.451 Y90.48 E0.55245
G1 X116.054 Y90.632 E0.56341
G1 X116.683 Y90.816 E0.57497
G1 X117.301 Y91.029 E0.58649
G1 X117.893 Y91.26 E0.59769
G1 X118.085 Y91.341 E0.60136
G1 X118.659 Y91.602 E0.61248
G1 X118.868 Y91.705 E0.61659
G1 X119.601 Y92.099 E0.63126
G1 X120.042 Y92.365 E0.64034
G1 X120.498 Y92.661 E0.64992
G1 X120.925 Y92.962 E0.65913
G1 X121.363 Y93.295 E0.66883
G1 X121.763 Y93.625 E0.67797
G1 X122.183 Y93.998 E0.68787
G1 X122.55 Y94.354 E0.69688
G1 X122.937 Y94.754 E0.70669
G1 X123.288 Y95.15 E0.71602
G1 X123.622 Y95.556 E0.72529
G1 X123.966 Y96.007 E0.73529
G1 X124.259 Y96.428 E0.74433
G1 X124.551 Y96.881 E0.75383
G1 X124.817 Y97.333 E0.76308
G1 X125.068 Y97.8 E0.77242
G1 X125.304 Y98.285 E0.78193
G1 X125.506 Y98.742 E0.79074
G1 X125.699 Y99.223 E0.79987
G1 X126.047 Y100.18 E0.81782
G1 X126.381 Y101.174 E0.83631
G1 X126.65 Y102.076 E0.8529
G1 X126.898 Y103.031 E0.8703
G1 X127.083 Y103.879 E0.8856
G1 X127.12 Y104.073 E0.88908
G1 X127.285 Y105.103 E0.90746
G1 X127.376 Y105.921 E0.92197
G1 X127.43 Y106.734 E0.93634
G1 X127.447 Y107.439 E0.94877
G1 X127.44 Y108.149 E0.96128
G1 X127.409 Y108.833 E0.97335
G1 X127.356 Y109.524 E0.98557
G1 X127.28 Y110.244 E0.99833
G1 X127.186 Y110.927 E1.01049
G1 X127.071 Y111.628 E1.02301
G1 X126.943 Y112.3 E1.03507
G1 X126.799 Y112.97 E1.04715
G1 X126.642 Y113.632 E1.05914
G1 X126.39 Y114.599 E1.07676
G1 X126.091 Y115.615 E1.09543
G1 X125.88 Y116.239 E1.10704
G1 X125.806 Y116.438 E1.11078
G1 X125.567 Y117.033 E1.12208
G1 X125.482 Y117.228 E1.12583
G1 X125.217 Y117.794 E1.13685
G1 X125.11 Y118.007 E1.14105
G1 X124.802 Y118.57 E1.15236
G1 X124.706 Y118.734 E1.15571
G1 X124.406 Y119.219 E1.16577
G1 X124.068 Y119.721 E1.17644
G1 X123.737 Y120.169 E1.18625
G1 X123.359 Y120.645 E1.19697
G1 X122.98 Y121.081 E1.20715
G1 X122.593 Y121.495 E1.21714
G1 X122.181 Y121.904 E1.22738
G1 X121.742 Y122.306 E1.23787
G1 X121.301 Y122.676 E1.24802
G1 X120.84 Y123.034 E1.25831
G1 X120.369 Y123.372 E1.26853
G1 X119.884 Y123.692 E1.27877
G1 X119.378 Y123.998 E1.28919
G1 X118.879 Y124.274 E1.29924
G1 X118.361 Y124.534 E1.30946
G1 X117.83 Y124.777 E1.31976
G1 X117.278 Y125.003 E1.33027
G1 X116.74 Y125.198 E1.34036
G1 X116.179 Y125.378 E1.35074
G1 X115.633 Y125.529 E1.36073
G1 X115.073 Y125.663 E1.37088
G1 X114.479 Y125.781 E1.38156
G1 X113.919 Y125.868 E1.39155
G1 X113.363 Y125.934 E1.40142
G1 X112.521 Y126.008 E1.41632
G1 X111.679 Y126.059 E1.43118
G1 X110.852 Y126.088 E1.44577
G1 X110.106 Y126.099 E1.45892
G1 X109.997 Y126.093 E1.46085
G1 X109.899 Y126.098 E1.46258
G1 X109.072 Y126.086 E1.47716
G1 X108.23 Y126.054 E1.49201
G1 X107.388 Y126 E1.50688
G1 X106.506 Y125.92 E1.5225
G1 X105.951 Y125.848 E1.53236
G1 X105.379 Y125.754 E1.54258
G1 X104.802 Y125.635 E1.55297
G1 X104.241 Y125.496 E1.56315
G1 X103.678 Y125.334 E1.57348
G1 X103.14 Y125.156 E1.58347
G1 X102.579 Y124.947 E1.59402
G1 X102.035 Y124.717 E1.60443
G1 X101.525 Y124.478 E1.61436
G1 X101.002 Y124.209 E1.62473
G1 X100.5 Y123.925 E1.6349
G1 X100.008 Y123.622 E1.64508
G1 X99.505 Y123.285 E1.65576
G1 X99.052 Y122.952 E1.66567
G1 X98.597 Y122.592 E1.67589
G1 X98.142 Y122.202 E1.68646
G1 X97.715 Y121.803 E1.69676
G1 X97.321 Y121.404 E1.70665
G1 X96.917 Y120.967 E1.71714
G1 X96.542 Y120.524 E1.72737
G1 X96.182 Y120.062 E1.73769
G1 X95.852 Y119.604 E1.74764
G1 X95.518 Y119.101 E1.75829
G1 X95.205 Y118.581 E1.76899
G1 X94.9 Y118.025 E1.78016
G1 X94.794 Y117.815 E1.78431
G1 X94.521 Y117.235 E1.79561
G1 X94.433 Y117.033 E1.7995
G1 X94.194 Y116.438 E1.8108
G1 X94.119 Y116.234 E1.81463
G1 X93.867 Y115.475 E1.82873
G1 X93.588 Y114.509 E1.84645
G1 X93.34 Y113.558 E1.86378
G1 X93.185 Y112.903 E1.87564
G1 X93.044 Y112.237 E1.88764
G1 X92.913 Y111.54 E1.90014
G1 X92.803 Y110.851 E1.91244
G1 X92.707 Y110.131 E1.92525
G1 X92.635 Y109.433 E1.93762
G1 X92.585 Y108.734 E1.94997
G1 X92.558 Y108.041 E1.9622
G1 X92.554 Y107.321 E1.97489
G1 X92.578 Y106.572 E1.9881
G1 X92.639 Y105.772 E2.00224
G1 X92.739 Y104.939 E2.01703
G1 X92.914 Y103.905 E2.03552
G1 X93.138 Y102.883 E2.05396
G1 X93.378 Y101.979 E2.07045
G1 X93.646 Y101.087 E2.08687
G1 X93.975 Y100.109 E2.10506
G1 X94.341 Y99.115 E2.12373
G1 X94.549 Y98.611 E2.13334
G1 X94.76 Y98.15 E2.14228
G1 X94.992 Y97.686 E2.15142
G1 X95.254 Y97.209 E2.16102
G1 X95.526 Y96.759 E2.17028
G1 X95.816 Y96.317 E2.1796
G1 X96.13 Y95.879 E2.1891
G1 X96.463 Y95.449 E2.19869
G1 X96.802 Y95.046 E2.20797
G1 X97.175 Y94.635 E2.21776
G0 F6000 X97.461 Y94.915
G1 F1200 X97.811 Y94.56 E2.22655
G1 X98.201 Y94.19 E2.23602
G1 X98.587 Y93.853 E2.24505
G1 X98.98 Y93.535 E2.25397
G1 X99.422 Y93.203 E2.26371
G1 X99.824 Y92.928 E2.2723
G1 X100.263 Y92.645 E2.2815
G1 X100.747 Y92.361 E2.2914
G1 X101.309 Y92.063 E2.30261
G1 X101.489 Y91.974 E2.30615
G1 X102.067 Y91.71 E2.31735
G1 X102.236 Y91.639 E2.32058
G1 X102.991 Y91.347 E2.33485
G1 X103.575 Y91.154 E2.34569
G1 X104.167 Y90.986 E2.35654
G1 X104.757 Y90.843 E2.36724
G1 X105.386 Y90.717 E2.37855
G1 X105.996 Y90.624 E2.38943
G1 X106.628 Y90.554 E2.40064
G1 X107.279 Y90.51 E2.41214
G1 X107.73 Y90.497 E2.42009
G1 X108.508 Y90.498 E2.43381
G1 X110.019 Y90.533 E2.46045
G1 X111.474 Y90.498 E2.48611
G1 X111.555 Y90.497 E2.48753
G1 X112.369 Y90.499 E2.50188
G1 X112.841 Y90.516 E2.51021
G1 X113.526 Y90.568 E2.52232
G1 X114.129 Y90.642 E2.53303
G1 X114.748 Y90.742 E2.54408
G1 X115.355 Y90.868 E2.55501
G1 X115.944 Y91.016 E2.56572
G1 X116.555 Y91.195 E2.57694
G1 X117.156 Y91.402 E2.58814
G1 X117.919 Y91.705 E2.60262
G1 X118.493 Y91.966 E2.61373
G1 X118.68 Y92.058 E2.61741
G1 X119.396 Y92.443 E2.63174
G1 X119.826 Y92.702 E2.64058
G1 X120.268 Y92.989 E2.64987
G1 X120.684 Y93.282 E2.65884
G1 X121.11 Y93.605 E2.66827
G1 X121.5 Y93.926 E2.67717
G1 X121.906 Y94.287 E2.68675
G1 X122.264 Y94.633 E2.69553
G1 X122.639 Y95.021 E2.70504
G1 X122.981 Y95.406 E2.71412
G1 X123.306 Y95.8 E2.72312
G1 X123.638 Y96.236 E2.73278
G1 X123.924 Y96.647 E2.74161
G1 X124.207 Y97.086 E2.75081
G1 X124.465 Y97.524 E2.75977
G1 X124.709 Y97.978 E2.76886
G1 X124.939 Y98.448 E2.77808
G1 X125.136 Y98.893 E2.78666
G1 X125.324 Y99.361 E2.79555
G1 X125.668 Y100.308 E2.81331
G1 X125.998 Y101.289 E2.83156
G1 X126.263 Y102.178 E2.84791
G1 X126.507 Y103.116 E2.865
G1 X126.725 Y104.138 E2.88342
G1 X126.887 Y105.149 E2.90147
G1 X126.977 Y105.949 E2.91566
G1 X127.03 Y106.745 E2.92972
G1 X127.047 Y107.437 E2.94192
G1 X127.04 Y108.132 E2.95417
G1 X127.01 Y108.804 E2.96603
G1 X126.958 Y109.483 E2.97804
G1 X126.883 Y110.19 E2.99057
G1 X126.791 Y110.864 E3.00256
G1 X126.678 Y111.553 E3.01487
G1 X126.551 Y112.217 E3.02679
G1 X126.41 Y112.878 E3.0387
G1 X126.255 Y113.532 E3.05055
G1 X126.006 Y114.487 E3.06795
G1 X125.712 Y115.487 E3.08632
G1 X125.501 Y116.111 E3.09793
G1 X125.435 Y116.289 E3.10128
G1 X125.196 Y116.884 E3.11258
G1 X125.12 Y117.059 E3.11594
G1 X124.855 Y117.625 E3.12696
G1 X124.759 Y117.815 E3.13071
G1 X124.366 Y118.525 E3.14502
G1 X124.073 Y118.998 E3.15483
G1 X123.745 Y119.485 E3.16518
G1 X123.422 Y119.923 E3.17477
G1 X123.056 Y120.384 E3.18515
G1 X122.687 Y120.809 E3.19507
G1 X122.31 Y121.212 E3.2048
G1 X121.91 Y121.61 E3.21474
G1 X121.483 Y122.001 E3.22495
G1 X121.054 Y122.362 E3.23483
G1 X120.606 Y122.71 E3.24483
G1 X120.147 Y123.04 E3.2548
G1 X119.676 Y123.351 E3.26475
G1 X119.184 Y123.649 E3.27489
G1 X118.697 Y123.917 E3.28469
G1 X118.193 Y124.171 E3.29463
G1 X117.676 Y124.407 E3.30465
G1 X117.14 Y124.627 E3.31487
G1 X116.615 Y124.818 E3.32471
G1 X116.071 Y124.993 E3.33479
G1 X115.538 Y125.141 E3.34454
G1 X114.992 Y125.272 E3.35444
G1 X114.416 Y125.386 E3.36479
G1 X113.87 Y125.471 E3.37453
G1 X113.327 Y125.535 E3.38417
G1 X112.497 Y125.609 E3.39886
G1 X111.665 Y125.659 E3.41355
G1 X110.846 Y125.688 E3.428
G1 X110.1 Y125.699 E3.44115
G1 X109.979 Y125.691 E3.44328
G1 X109.904 Y125.698 E3.44461
G1 X109.087 Y125.686 E3.45902
G1 X108.255 Y125.654 E3.47369
G1 X107.423 Y125.602 E3.48839
G1 X106.555 Y125.523 E3.50375
G1 X106.014 Y125.453 E3.51337
G1 X105.458 Y125.361 E3.5233
G1 X104.896 Y125.246 E3.53342
G1 X104.35 Y125.112 E3.54333
G1 X103.803 Y124.954 E3.55336
G1 X103.278 Y124.78 E3.56311
G1 X102.733 Y124.577 E3.57336
G1 X102.204 Y124.355 E3.58348
G1 X101.706 Y124.121 E3.59318
G1 X101.197 Y123.86 E3.60326
G1 X100.708 Y123.584 E3.61316
G1 X100.229 Y123.289 E3.62307
G1 X99.74 Y122.961 E3.63345
G1 X99.299 Y122.637 E3.6431
G1 X98.856 Y122.287 E3.65305
G1 X98.413 Y121.908 E3.66333
G1 X97.998 Y121.52 E3.67334
G1 X97.613 Y121.132 E3.68298
G1 X97.221 Y120.707 E3.69317
G1 X96.856 Y120.276 E3.70313
G1 X96.505 Y119.827 E3.71317
G1 X96.184 Y119.381 E3.72286
G1 X95.859 Y118.893 E3.7332
G1 X95.556 Y118.388 E3.74358
G1 X95.251 Y117.832 E3.75476
G1 X95.156 Y117.645 E3.75845
G1 X94.883 Y117.065 E3.76975
G1 X94.804 Y116.884 E3.77324
G1 X94.565 Y116.289 E3.78454
G1 X94.498 Y116.107 E3.78796
G1 X94.251 Y115.364 E3.80176
G1 X93.975 Y114.408 E3.8193
G1 X93.729 Y113.465 E3.83648
G1 X93.576 Y112.819 E3.84818
G1 X93.437 Y112.162 E3.86002
G1 X93.308 Y111.476 E3.87233
G1 X93.199 Y110.797 E3.88445
G1 X93.104 Y110.089 E3.89704
G1 X93.034 Y109.403 E3.9092
G1 X92.985 Y108.717 E3.92132
G1 X92.958 Y108.037 E3.93332
G1 X92.954 Y107.332 E3.94574
G1 X92.977 Y106.6 E3.95865
G1 X93.036 Y105.817 E3.9725
G1 X93.133 Y105.004 E3.98693
G1 X93.305 Y103.989 E4.00508
G1 X93.525 Y102.985 E4.02319
G1 X93.761 Y102.093 E4.03946
G1 X94.025 Y101.214 E4.05564
G1 X94.351 Y100.246 E4.07364
G1 X94.711 Y99.267 E4.09203
G1 X94.914 Y98.776 E4.1014
G1 X95.119 Y98.327 E4.1101
G1 X95.344 Y97.876 E4.11898
G1 X95.598 Y97.414 E4.12828
G1 X95.862 Y96.977 E4.13728
G1 X96.143 Y96.548 E4.14632
G1 X96.447 Y96.122 E4.15554
G1 X96.77 Y95.705 E4.16484
G1 X97.1 Y95.313 E4.17387
G1 X97.461 Y94.915 E4.18334
G0 F6000 X97.747 Y95.195
G1 F1200 X98.088 Y94.848 E4.19192
G1 X98.465 Y94.49 E4.20109
G1 X98.84 Y94.163 E4.20986
G1 X99.222 Y93.853 E4.21853
G1 X99.648 Y93.533 E4.22792
G1 X100.042 Y93.263 E4.23634
G1 X100.468 Y92.989 E4.24527
G1 X100.935 Y92.715 E4.25481
G1 X101.656 Y92.338 E4.26916
G1 X102.382 Y92.011 E4.28319
G1 X103.118 Y91.726 E4.2971
G1 X103.686 Y91.539 E4.30765
G1 X104.263 Y91.374 E4.31822
G1 X104.838 Y91.235 E4.32865
G1 X105.448 Y91.112 E4.33962
G1 X106.043 Y91.021 E4.35023
G1 X106.656 Y90.953 E4.3611
G1 X107.292 Y90.91 E4.37234
G1 X107.73 Y90.897 E4.38007
G1 X108.499 Y90.898 E4.39362
G1 X110.019 Y90.933 E4.42042
G1 X111.483 Y90.898 E4.44624
G1 X111.555 Y90.897 E4.44751
G1 X112.356 Y90.899 E4.46163
G1 X112.813 Y90.915 E4.46969
G1 X113.479 Y90.965 E4.48146
G1 X114.067 Y91.037 E4.4919
G1 X114.668 Y91.134 E4.50264
G1 X115.259 Y91.257 E4.51328
G1 X115.834 Y91.401 E4.52373
G1 X116.427 Y91.574 E4.53461
G1 X117.011 Y91.774 E4.5455
G1 X117.754 Y92.069 E4.55959
G1 X118.328 Y92.33 E4.5707
G1 X118.493 Y92.411 E4.57394
G1 X119.191 Y92.786 E4.58791
G1 X119.61 Y93.038 E4.59653
G1 X120.039 Y93.317 E4.60555
G1 X120.444 Y93.602 E4.61428
G1 X120.857 Y93.915 E4.62342
G1 X121.236 Y94.227 E4.63207
G1 X121.629 Y94.575 E4.64132
G1 X121.978 Y94.913 E4.64989
G1 X122.341 Y95.288 E4.65909
G1 X122.673 Y95.662 E4.6679
G1 X122.99 Y96.045 E4.67667
G1 X123.311 Y96.466 E4.686
G1 X123.589 Y96.866 E4.69459
G1 X123.863 Y97.291 E4.7035
G1 X124.114 Y97.716 E4.7122
G1 X124.351 Y98.156 E4.72101
G1 X124.574 Y98.611 E4.72994
G1 X124.765 Y99.044 E4.73829
G1 X124.948 Y99.498 E4.74692
G1 X125.289 Y100.436 E4.76451
G1 X125.615 Y101.404 E4.78251
G1 X125.876 Y102.28 E4.79863
G1 X126.116 Y103.202 E4.81542
G1 X126.33 Y104.203 E4.83347
G1 X126.49 Y105.196 E4.8512
G1 X126.578 Y105.977 E4.86505
G1 X126.63 Y106.756 E4.87881
G1 X126.647 Y107.434 E4.89077
G1 X126.64 Y108.115 E4.90277
G1 X126.611 Y108.774 E4.9144
G1 X126.56 Y109.442 E4.92621
G1 X126.487 Y110.136 E4.93851
G1 X126.396 Y110.8 E4.95033
G1 X126.285 Y111.478 E4.96244
G1 X126.16 Y112.134 E4.97421
G1 X126.021 Y112.786 E4.98596
G1 X125.867 Y113.431 E4.99765
G1 X125.622 Y114.375 E5.01484
G1 X125.333 Y115.359 E5.03292
G1 X125.064 Y116.14 E5.04748
G1 X124.758 Y116.889 E5.06175
G1 X124.493 Y117.455 E5.07276
G1 X124.408 Y117.623 E5.07608
G1 X124.025 Y118.316 E5.09004
G1 X123.739 Y118.777 E5.0996
G1 X123.423 Y119.248 E5.1096
G1 X123.107 Y119.676 E5.11898
G1 X122.754 Y120.123 E5.12902
G1 X122.393 Y120.537 E5.1387
G1 X122.027 Y120.93 E5.14817
G1 X121.638 Y121.316 E5.15783
G1 X121.224 Y121.696 E5.16773
G1 X120.807 Y122.047 E5.17734
G1 X120.371 Y122.386 E5.18708
G1 X119.925 Y122.707 E5.19677
G1 X119.467 Y123.01 E5.20645
G1 X118.989 Y123.299 E5.21629
G1 X118.515 Y123.561 E5.22584
G1 X118.025 Y123.808 E5.23551
G1 X117.523 Y124.038 E5.24525
G1 X117.002 Y124.252 E5.25517
G1 X116.491 Y124.438 E5.26476
G1 X115.962 Y124.608 E5.27456
G1 X115.443 Y124.752 E5.28405
G1 X114.912 Y124.88 E5.29368
G1 X114.354 Y124.991 E5.30371
G1 X113.821 Y125.074 E5.31322
G1 X113.292 Y125.137 E5.32261
G1 X112.472 Y125.209 E5.33712
G1 X111.651 Y125.259 E5.35162
G1 X110.84 Y125.288 E5.36592
G1 X110.094 Y125.299 E5.37907
G1 X110.01 Y125.293 E5.38056
G1 X109.909 Y125.298 E5.38234
G1 X109.101 Y125.286 E5.39659
G1 X108.279 Y125.255 E5.41109
G1 X107.459 Y125.203 E5.42557
G1 X106.605 Y125.126 E5.44069
G1 X106.078 Y125.058 E5.45005
G1 X105.536 Y124.969 E5.45974
G1 X104.991 Y124.858 E5.46954
G1 X104.459 Y124.727 E5.4792
G1 X103.927 Y124.574 E5.48896
G1 X103.415 Y124.404 E5.49847
G1 X102.886 Y124.208 E5.50841
G1 X102.372 Y123.992 E5.51824
G1 X101.886 Y123.764 E5.5277
G1 X101.393 Y123.511 E5.53747
G1 X100.916 Y123.242 E5.54712
G1 X100.45 Y122.955 E5.55677
G1 X99.976 Y122.638 E5.56682
G1 X99.546 Y122.322 E5.57623
G1 X99.115 Y121.982 E5.58591
G1 X98.685 Y121.614 E5.59588
G1 X98.281 Y121.238 E5.60561
G1 X97.906 Y120.859 E5.61501
G1 X97.525 Y120.447 E5.6249
G1 X97.17 Y120.028 E5.63458
G1 X96.829 Y119.592 E5.64434
G1 X96.515 Y119.157 E5.6538
G1 X96.201 Y118.685 E5.66379
G1 X95.907 Y118.196 E5.67385
G1 X95.602 Y117.64 E5.68503
