;FLAVOR:Marlin
;TIME:3701
;Filament used: 1.80381m
;Layer height: 0.25
;MINX:101.802
;MINY:77.6
;MINZ:0.2
;MAXX:118.201
;MAXY:142.397
;MAXZ:172.2
;Generated with Cura_SteamEngine 4.6.1
M140 S60
M105
M190 S60
M104 S235
M105
M109 S235
M82 ;absolute extrusion mode
; Ender 3 Custom Start G-code
G92 E0 ; Reset Extruder
G28 ; Home all axes
G1 Z2.0 F3000 ; Move Z Axis up little to prevent scratching of Heat Bed
G1 X0.1 Y20 Z0.3 F5000.0 ; Move to start position
G1 X0.1 Y200.0 Z0.3 F1500.0 E15 ; Draw the first line
G1 X0.4 Y200.0 Z0.3 F5000.0 ; Move to side a little
G1 X0.4 Y20 Z0.3 F1500.0 E30 ; Draw the second line
G92 E0 ; Reset Extruder
G1 Z2.0 F3000 ; Move Z Axis up little to prevent scratching of Heat Bed
G1 X5 Y20 Z0.3 F5000.0 ; Move over to prevent blob squish
G92 E0
G92 E0
G1 F3000 E-1
;LAYER_COUNT:692
;LAYER:0
M107
G0 F6000 X103.948 Y79.096 Z0.2
;TYPE:SKIRT
G1 F3000 E0.20788
G1 F1200 X104.313 Y78.683 E0.21759
G1 X104.734 Y78.328 E0.2273
G1 X105.201 Y78.037 E0.237
G1 X105.706 Y77.816 E0.24672
G1 X106.238 Y77.671 E0.25644
G1 X106.97 Y77.6 E0.2694
G1 X113.03 Y77.6 E0.37623
G1 X113.58 Y77.64 E0.38595
G1 X114.118 Y77.759 E0.39566
G1 X114.633 Y77.955 E0.40537
G1 X115.114 Y78.223 E0.41508
G1 X115.552 Y78.557 E0.42479
G1 X115.936 Y78.952 E0.4345
G1 X116.26 Y79.398 E0.44422
G1 X116.515 Y79.886 E0.45392
G1 X116.698 Y80.406 E0.46364
G1 X116.82 Y81.12 E0.47641
G1 X116.981 Y83.3 E0.51494
G1 X117.373 Y89.12 E0.61777
G1 X117.55 Y92.074 E0.66994
G1 X117.706 Y94.97 E0.72106
G1 X117.849 Y97.92 E0.77312
G1 X117.971 Y100.874 E0.82524
G1 X118.069 Y103.778 E0.87646
G1 X118.143 Y106.686 E0.92774
G1 X118.186 Y109.937 E0.98505
G1 X118.193 Y110.044 E0.98694
G1 X118.201 Y112.636 E1.03264
G1 X118.194 Y114.097 E1.05839
G1 X118.146 Y117.129 E1.11184
G1 X118.063 Y119.863 E1.16006
G1 X117.938 Y122.425 E1.20528
G1 X117.786 Y124.715 E1.24573
G1 X117.617 Y126.756 E1.28184
G1 X117.418 Y128.66 E1.31558
G1 X117.24 Y130.026 E1.33987
G1 X116.946 Y131.939 E1.37398
G1 X116.721 Y133.217 E1.39686
G1 X116.462 Y134.442 E1.41893
G1 X116.173 Y135.563 E1.43934
G1 X115.792 Y136.824 E1.46256
G1 X115.529 Y137.589 E1.47682
G1 X115.351 Y138.05 E1.48553
G1 X115.25 Y138.286 E1.49005
G1 X115.037 Y138.743 E1.49894
G1 X114.905 Y139.001 E1.50405
G1 X114.707 Y139.353 E1.51117
G1 X114.538 Y139.626 E1.51683
G1 X114.307 Y139.966 E1.52408
G1 X114.102 Y140.24 E1.53011
G1 X113.906 Y140.479 E1.53556
G1 X113.606 Y140.804 E1.54335
G1 X113.382 Y141.02 E1.54884
G1 X112.969 Y141.365 E1.55832
G1 X112.76 Y141.516 E1.56287
G1 X112.168 Y141.867 E1.575
G1 X111.941 Y141.975 E1.57943
G1 X111.427 Y142.175 E1.58916
G1 X110.98 Y142.284 E1.59727
G1 X110.674 Y142.339 E1.60275
G1 X110.126 Y142.397 E1.61246
G1 X109.375 Y142.347 E1.62573
G1 X109.076 Y142.297 E1.63107
G1 X108.541 Y142.167 E1.64078
G1 X108.121 Y142.004 E1.64872
G1 X107.896 Y141.901 E1.65308
G1 X107.272 Y141.54 E1.66579
G1 X107.07 Y141.396 E1.67016
G1 X106.701 Y141.096 E1.67855
G1 X106.535 Y140.943 E1.68253
G1 X106.308 Y140.716 E1.68818
G1 X106.155 Y140.549 E1.69218
G1 X105.917 Y140.262 E1.69875
G1 X105.665 Y139.926 E1.70615
G1 X105.458 Y139.62 E1.71267
G1 X105.244 Y139.268 E1.71993
G1 X105.124 Y139.055 E1.72424
G1 X104.938 Y138.69 E1.73146
G1 X104.755 Y138.293 E1.73916
G1 X104.662 Y138.074 E1.74336
G1 X104.444 Y137.511 E1.754
G1 X104.381 Y137.333 E1.75733
G1 X104.1 Y136.48 E1.77316
G1 X103.779 Y135.384 E1.79329
G1 X103.466 Y134.118 E1.81628
G1 X103.326 Y133.456 E1.82821
G1 X103.154 Y132.517 E1.84504
G1 X102.874 Y130.797 E1.87576
G1 X102.642 Y129.134 E1.90536
G1 X102.439 Y127.334 E1.93729
G1 X102.344 Y126.306 E1.95549
G1 X102.189 Y124.341 E1.99023
G1 X102.06 Y122.348 E2.02544
G1 X101.958 Y120.346 E2.06077
G1 X101.888 Y118.428 E2.09461
G1 X101.84 Y116.436 E2.12973
G1 X101.802 Y113.437 E2.1826
G1 X101.803 Y110.508 E2.23423
G1 X101.839 Y107.558 E2.28624
G1 X101.905 Y104.618 E2.33808
G1 X101.999 Y101.678 E2.38993
G1 X102.117 Y98.695 E2.44256
G1 X102.254 Y95.742 E2.49467
G1 X102.406 Y92.845 E2.54581
G1 X102.58 Y89.895 E2.5979
G1 X102.767 Y86.953 E2.64987
G1 X103.18 Y81.131 E2.75275
G1 X103.258 Y80.586 E2.76246
G1 X103.415 Y80.058 E2.77217
G1 X103.647 Y79.558 E2.78188
G1 X103.948 Y79.096 E2.7916
G0 F6000 X104.336 Y79.25
G1 F1200 X104.695 Y78.873 E2.80078
G1 X105.108 Y78.555 E2.80997
G1 X105.565 Y78.304 E2.81916
G1 X106.055 Y78.125 E2.82836
G1 X106.566 Y78.024 E2.83754
G1 X106.97 Y78 E2.84467
G1 X113.03 Y78 E2.9515
G1 X113.55 Y78.04 E2.96069
G1 X114.057 Y78.159 E2.96987
G1 X114.54 Y78.354 E2.97905
G1 X114.988 Y78.62 E2.98824
G1 X115.39 Y78.952 E2.99743
G1 X115.736 Y79.342 E3.00662
G1 X116.019 Y79.78 E3.01581
G1 X116.232 Y80.255 E3.02499
G1 X116.369 Y80.758 E3.03418
G1 X116.421 Y81.15 E3.04115
G1 X116.582 Y83.33 E3.07968
G1 X116.974 Y89.147 E3.18246
G1 X117.151 Y92.098 E3.23457
G1 X117.307 Y94.992 E3.28566
G1 X117.449 Y97.939 E3.33767
G1 X117.571 Y100.891 E3.38975
G1 X117.669 Y103.791 E3.4409
G1 X117.743 Y106.696 E3.49213
G1 X117.789 Y109.832 E3.54741
G1 X117.785 Y109.965 E3.54976
G1 X117.793 Y110.046 E3.55119
G1 X117.801 Y112.638 E3.59688
G1 X117.794 Y114.095 E3.62257
G1 X117.748 Y117.068 E3.67498
G1 X117.664 Y119.844 E3.72394
G1 X117.539 Y122.399 E3.76903
G1 X117.388 Y124.683 E3.80938
G1 X117.22 Y126.715 E3.84532
G1 X117.021 Y128.609 E3.8789
G1 X116.845 Y129.965 E3.903
G1 X116.552 Y131.87 E3.93698
G1 X116.329 Y133.136 E3.95964
G1 X116.075 Y134.343 E3.98138
G1 X115.79 Y135.448 E4.0015
G1 X115.414 Y136.695 E4.02445
G1 X115.156 Y137.445 E4.03844
G1 X114.978 Y137.906 E4.04715
G1 X114.888 Y138.117 E4.05119
G1 X114.675 Y138.574 E4.06008
G1 X114.556 Y138.805 E4.06466
G1 X114.358 Y139.157 E4.07178
G1 X114.207 Y139.401 E4.07684
G1 X113.976 Y139.741 E4.08408
G1 X113.793 Y139.986 E4.08947
G1 X113.597 Y140.225 E4.09492
G1 X113.328 Y140.516 E4.10191
G1 X113.104 Y140.732 E4.10739
G1 X112.735 Y141.041 E4.11588
G1 X112.526 Y141.192 E4.12042
G1 X111.996 Y141.506 E4.13128
G1 X111.769 Y141.614 E4.13571
G1 X111.282 Y141.801 E4.14491
G1 X110.909 Y141.89 E4.15167
G1 X110.603 Y141.945 E4.15715
G1 X110.085 Y141.998 E4.16633
G1 X109.441 Y141.952 E4.17771
G1 X109.142 Y141.902 E4.18305
G1 X108.636 Y141.777 E4.19224
G1 X108.288 Y141.64 E4.19883
G1 X108.063 Y141.537 E4.2032
G1 X107.504 Y141.215 E4.21457
G1 X107.302 Y141.071 E4.21894
G1 X106.972 Y140.802 E4.22645
G1 X106.806 Y140.649 E4.23043
G1 X106.603 Y140.446 E4.23549
G1 X106.45 Y140.279 E4.23948
G1 X106.237 Y140.022 E4.24536
G1 X105.985 Y139.686 E4.25277
G1 X105.8 Y139.412 E4.25859
G1 X105.586 Y139.06 E4.26586
G1 X105.478 Y138.87 E4.26971
G1 X105.301 Y138.522 E4.27659
G1 X105.118 Y138.125 E4.2843
G1 X105.035 Y137.93 E4.28803
G1 X104.76 Y137.208 E4.30165
G1 X104.484 Y136.366 E4.31727
G1 X104.168 Y135.287 E4.33709
G1 X103.857 Y134.035 E4.35983
G1 X103.72 Y133.383 E4.37158
G1 X103.548 Y132.453 E4.38825
G1 X103.27 Y130.741 E4.41882
G1 X103.039 Y129.089 E4.44823
G1 X102.838 Y127.297 E4.48001
G1 X102.747 Y126.323 E4.49726
G1 X102.592 Y124.363 E4.53192
G1 X102.462 Y122.373 E4.56707
G1 X102.357 Y120.331 E4.60312
G1 X102.287 Y118.413 E4.63695
G1 X102.24 Y116.426 E4.67198
G1 X102.202 Y113.432 E4.72477
G1 X102.203 Y110.508 E4.77631
G1 X102.239 Y107.563 E4.82823
G1 X102.305 Y104.627 E4.88
G1 X102.399 Y101.691 E4.93178
G1 X102.517 Y98.71 E4.98437
G1 X102.654 Y95.76 E5.03643
G1 X102.806 Y92.866 E5.08751
G1 X102.979 Y89.918 E5.13957
G1 X103.166 Y86.978 E5.1915
G1 X103.579 Y81.159 E5.29433
G1 X103.655 Y80.644 E5.30351
G1 X103.81 Y80.146 E5.3127
G1 X104.038 Y79.678 E5.32188
G1 X104.336 Y79.25 E5.33108
G0 F6000 X104.723 Y79.412
G1 F1200 X105.076 Y79.073 E5.3397
G1 X105.48 Y78.796 E5.34834
G1 X105.923 Y78.589 E5.35696
G1 X106.394 Y78.456 E5.36558
G1 X106.97 Y78.4 E5.37579
G1 X113.03 Y78.4 E5.48261
G1 X113.518 Y78.44 E5.49124
G1 X113.993 Y78.559 E5.49987
G1 X114.442 Y78.753 E5.5085
G1 X114.854 Y79.018 E5.51713
G1 X115.217 Y79.346 E5.52576
G1 X115.522 Y79.729 E5.53439
G1 X115.76 Y80.157 E5.54302
G1 X115.926 Y80.617 E5.55164
G1 X116.022 Y81.179 E5.56169
G1 X116.183 Y83.359 E5.60022
G1 X116.575 Y89.174 E5.70296
G1 X116.752 Y92.122 E5.75502
G1 X116.908 Y95.013 E5.80606
G1 X117.05 Y97.959 E5.85805
G1 X117.171 Y100.907 E5.91006
G1 X117.269 Y103.805 E5.96118
G1 X117.343 Y106.706 E6.01233
G1 X117.393 Y110.047 E6.07123
G1 X117.401 Y112.639 E6.11692
G1 X117.394 Y114.093 E6.14256
G1 X117.348 Y117.062 E6.1949
G1 X117.264 Y119.824 E6.24361
G1 X117.139 Y122.372 E6.28858
G1 X116.992 Y124.601 E6.32796
G1 X116.822 Y126.673 E6.36461
G1 X116.624 Y128.557 E6.398
G1 X116.449 Y129.904 E6.42194
G1 X116.158 Y131.801 E6.45577
G1 X115.937 Y133.054 E6.4782
G1 X115.687 Y134.244 E6.49964
G1 X115.407 Y135.333 E6.51946
G1 X115.035 Y136.567 E6.54218
G1 X114.783 Y137.301 E6.55586
G1 X114.605 Y137.762 E6.56457
G1 X114.525 Y137.948 E6.56814
G1 X114.312 Y138.405 E6.57703
G1 X114.208 Y138.609 E6.58106
G1 X114.01 Y138.961 E6.58818
G1 X113.876 Y139.176 E6.59265
G1 X113.645 Y139.516 E6.5999
G1 X113.484 Y139.732 E6.60464
G1 X113.288 Y139.971 E6.61009
G1 X113.05 Y140.229 E6.61628
G1 X112.826 Y140.445 E6.62177
G1 X112.501 Y140.717 E6.62924
G1 X112.292 Y140.868 E6.63378
G1 X111.824 Y141.145 E6.64337
G1 X111.597 Y141.253 E6.6478
G1 X111.139 Y141.427 E6.65644
G1 X110.839 Y141.497 E6.66187
G1 X110.533 Y141.552 E6.66735
G1 X110.045 Y141.599 E6.67599
G1 X109.507 Y141.558 E6.6855
G1 X109.208 Y141.508 E6.69084
G1 X108.734 Y141.388 E6.69946
G1 X108.454 Y141.277 E6.70477
G1 X108.229 Y141.174 E6.70914
G1 X107.737 Y140.889 E6.71916
G1 X107.535 Y140.745 E6.72353
G1 X107.243 Y140.508 E6.73016
G1 X107.077 Y140.355 E6.73414
G1 X106.898 Y140.176 E6.7386
G1 X106.745 Y140.009 E6.7426
G1 X106.557 Y139.782 E6.74779
G1 X106.305 Y139.446 E6.75519
G1 X106.142 Y139.204 E6.76034
G1 X105.928 Y138.852 E6.7676
G1 X105.833 Y138.684 E6.771
G1 X105.665 Y138.355 E6.77751
G1 X105.482 Y137.958 E6.78522
G1 X105.408 Y137.785 E6.78854
G1 X105.14 Y137.082 E6.8018
G1 X104.867 Y136.253 E6.81718
G1 X104.556 Y135.19 E6.83671
G1 X104.248 Y133.952 E6.8592
G1 X104.113 Y133.31 E6.87076
G1 X103.943 Y132.388 E6.88729
G1 X103.666 Y130.686 E6.91769
G1 X103.437 Y129.044 E6.94691
G1 X103.236 Y127.26 E6.97856
G1 X103.145 Y126.286 E6.9958
G1 X102.99 Y124.331 E7.03037
G1 X102.861 Y122.347 E7.06542
G1 X102.759 Y120.361 E7.10048
G1 X102.687 Y118.398 E7.1351
G1 X102.64 Y116.417 E7.17003
G1 X102.602 Y113.427 E7.22275
G1 X102.603 Y110.508 E7.2742
G1 X102.639 Y107.568 E7.32603
G1 X102.705 Y104.636 E7.37773
G1 X102.799 Y101.704 E7.42944
G1 X102.916 Y98.726 E7.48198
G1 X103.053 Y95.779 E7.53398
G1 X103.205 Y92.887 E7.58503
G1 X103.378 Y89.942 E7.63704
G1 X103.565 Y87.004 E7.68893
G1 X103.978 Y81.188 E7.79171
G1 X104.052 Y80.704 E7.80034
G1 X104.204 Y80.239 E7.80897
G1 X104.43 Y79.804 E7.81761
G1 X104.723 Y79.412 E7.82624
G0 F6000 X104.82 Y79.938
G1 F1200 X105.108 Y79.585 E7.83427
G1 X105.454 Y79.288 E7.84231
G1 X105.846 Y79.056 E7.85033
G1 X106.272 Y78.895 E7.85836
G1 X106.72 Y78.812 E7.86639
G1 X106.97 Y78.8 E7.87081
G1 X113.03 Y78.8 E7.97763
G1 X113.484 Y78.84 E7.98567
G1 X113.924 Y78.958 E7.9937
G1 X114.336 Y79.152 E8.00172
G1 X114.709 Y79.415 E8.00977
G1 X115.03 Y79.738 E8.0178
G1 X115.289 Y80.113 E8.02583
G1 X115.479 Y80.527 E8.03386
G1 X115.594 Y80.968 E8.04189
G1 X115.623 Y81.209 E8.04617
G1 X115.784 Y83.389 E8.08471
G1 X116.176 Y89.201 E8.18739
G1 X116.352 Y92.146 E8.2394
G1 X116.508 Y95.035 E8.2904
G1 X116.65 Y97.978 E8.34234
G1 X116.772 Y100.924 E8.39432
G1 X116.87 Y103.818 E8.44536
G1 X116.943 Y106.716 E8.49646
G1 X116.99 Y109.879 E8.55222
G1 X116.986 Y109.962 E8.55369
G1 X116.993 Y110.048 E8.55521
G1 X117.001 Y112.64 E8.6009
G1 X116.994 Y114.091 E8.62648
G1 X116.948 Y117.056 E8.67875
G1 X116.867 Y119.756 E8.72637
G1 X116.743 Y122.302 E8.7713
G1 X116.593 Y124.575 E8.81146
G1 X116.424 Y126.632 E8.84784
G1 X116.228 Y128.506 E8.88106
G1 X116.054 Y129.844 E8.90484
G1 X115.764 Y131.732 E8.93851
G1 X115.546 Y132.973 E8.96072
G1 X115.299 Y134.145 E8.98184
G1 X115.024 Y135.218 E9.00136
G1 X114.656 Y136.438 E9.02383
G1 X114.409 Y137.157 E9.03723
G1 X114.231 Y137.618 E9.04594
G1 X114.163 Y137.779 E9.04902
G1 X113.95 Y138.236 E9.05791
G1 X113.859 Y138.413 E9.06142
G1 X113.661 Y138.765 E9.06854
G1 X113.546 Y138.951 E9.07239
G1 X113.315 Y139.291 E9.07964
G1 X113.174 Y139.479 E9.08378
G1 X112.978 Y139.718 E9.08923
G1 X112.773 Y139.941 E9.09457
G1 X112.549 Y140.157 E9.10005
G1 X112.267 Y140.393 E9.10653
G1 X112.058 Y140.544 E9.11108
G1 X111.652 Y140.784 E9.11939
G1 X111.425 Y140.892 E9.12383
G1 X110.998 Y141.051 E9.13186
G1 X110.768 Y141.103 E9.13601
G1 X110.462 Y141.158 E9.14149
G1 X110.008 Y141.199 E9.14953
G1 X109.573 Y141.163 E9.15722
G1 X109.274 Y141.113 E9.16257
G1 X108.833 Y140.999 E9.1706
G1 X108.621 Y140.913 E9.17463
G1 X108.396 Y140.81 E9.17899
G1 X107.969 Y140.563 E9.18769
G1 X107.767 Y140.419 E9.19206
G1 X107.514 Y140.214 E9.1978
G1 X107.348 Y140.061 E9.20178
G1 X107.193 Y139.905 E9.20566
G1 X107.04 Y139.738 E9.20965
G1 X106.877 Y139.542 E9.21414
G1 X106.625 Y139.206 E9.22155
G1 X106.483 Y138.997 E9.226
G1 X106.269 Y138.645 E9.23326
G1 X106.187 Y138.499 E9.23622
G1 X106.028 Y138.187 E9.24239
G1 X105.781 Y137.641 E9.25295
G1 X105.52 Y136.956 E9.26587
G1 X105.251 Y136.139 E9.28104
G1 X104.944 Y135.093 E9.30025
G1 X104.64 Y133.869 E9.32249
G1 X104.506 Y133.237 E9.33387
G1 X104.338 Y132.324 E9.35024
G1 X104.062 Y130.63 E9.38049
G1 X103.834 Y128.999 E9.40952
G1 X103.634 Y127.223 E9.44103
G1 X103.543 Y126.249 E9.45827
G1 X103.389 Y124.3 E9.49274
G1 X103.26 Y122.321 E9.5277
G1 X103.158 Y120.34 E9.56266
G1 X103.087 Y118.384 E9.59717
G1 X103.04 Y116.408 E9.63201
G1 X103.002 Y113.422 E9.68465
G1 X103.003 Y110.508 E9.73602
G1 X103.039 Y107.573 E9.78776
G1 X103.105 Y104.645 E9.83939
G1 X103.198 Y101.717 E9.89103
G1 X103.316 Y98.742 E9.94351
G1 X103.453 Y95.797 E9.99548
G1 X103.605 Y92.908 E10.04648
G1 X103.777 Y89.965 E10.09845
G1 X103.964 Y87.029 E10.15031
G1 X104.377 Y81.216 E10.25304
G1 X104.448 Y80.766 E10.26107
G1 X104.598 Y80.336 E10.26909
G1 X104.82 Y79.938 E10.27713
G0 F6000 X105.209 Y80.081
G1 F1200 X105.492 Y79.771 E10.28453
G1 X105.827 Y79.52 E10.29191
G1 X106.204 Y79.337 E10.29929
G1 X106.609 Y79.23 E10.30668
G1 X106.97 Y79.2 E10.31306
G1 X113.03 Y79.2 E10.41989
G1 X113.447 Y79.24 E10.42727
G1 X113.849 Y79.358 E10.43466
G1 X114.221 Y79.551 E10.44205
G1 X114.55 Y79.81 E10.44943
G1 X114.824 Y80.127 E10.45681
G1 X115.033 Y80.49 E10.4642
G1 X115.169 Y80.887 E10.47159
G1 X115.224 Y81.238 E10.47786
G1 X115.385 Y83.418 E10.51639
G1 X115.777 Y89.228 E10.61904
G1 X115.953 Y92.17 E10.671
G1 X116.109 Y95.057 E10.72196
G1 X116.25 Y97.997 E10.77385
G1 X116.372 Y100.94 E10.82577
G1 X116.47 Y103.832 E10.87678
G1 X116.543 Y106.726 E10.92781
G1 X116.59 Y109.885 E10.9835
G1 X116.585 Y109.98 E10.98518
G1 X116.593 Y110.049 E10.9864
G1 X116.601 Y112.641 E11.0321
G1 X116.594 Y114.089 E11.05762
G1 X116.548 Y117.049 E11.10981
G1 X116.467 Y119.744 E11.15734
G1 X116.343 Y122.282 E11.20213
G1 X116.194 Y124.549 E11.24218
G1 X116.031 Y126.542 E11.27743
G1 X115.831 Y128.455 E11.31133
G1 X115.659 Y129.783 E11.33494
G1 X115.378 Y131.617 E11.36764
G1 X115.154 Y132.891 E11.39045
G1 X114.912 Y134.046 E11.41125
G1 X114.64 Y135.103 E11.43049
G1 X114.278 Y136.309 E11.45269
G1 X114.036 Y137.012 E11.46579
G1 X113.8 Y137.61 E11.47712
G1 X113.587 Y138.067 E11.48601
G1 X113.51 Y138.217 E11.48898
G1 X113.312 Y138.569 E11.4961
G1 X113.215 Y138.726 E11.49936
G1 X112.984 Y139.066 E11.5066
G1 X112.865 Y139.225 E11.5101
G1 X112.669 Y139.464 E11.51555
G1 X112.495 Y139.653 E11.52008
G1 X112.271 Y139.869 E11.52557
G1 X112.032 Y140.068 E11.53105
G1 X111.823 Y140.219 E11.53559
G1 X111.48 Y140.423 E11.54263
G1 X111.253 Y140.531 E11.54706
