;FLAVOR:Marlin
;TIME:3701
;Filament used: 1.80356m
;Layer height: 0.25
;MINX:101.799
;MINY:77.6
;MINZ:0.2
;MAXX:118.198
;MAXY:142.399
;MAXZ:172.2
;Generated with Cura_SteamEngine 4.6.1
M140 S60
M105
M190 S60
M104 S235
M105
M109 S235
M82 ;absolute extrusion mode
; Ender 3 Custom Start G-code
G92 E0 ; Reset Extruder
G28 ; Home all axes
G1 Z2.0 F3000 ; Move Z Axis up little to prevent scratching of Heat Bed
G1 X0.1 Y20 Z0.3 F5000.0 ; Move to start position
G1 X0.1 Y200.0 Z0.3 F1500.0 E15 ; Draw the first line
G1 X0.4 Y200.0 Z0.3 F5000.0 ; Move to side a little
G1 X0.4 Y20 Z0.3 F1500.0 E30 ; Draw the second line
G92 E0 ; Reset Extruder
G1 Z2.0 F3000 ; Move Z Axis up little to prevent scratching of Heat Bed
G1 X5 Y20 Z0.3 F5000.0 ; Move over to prevent blob squish
G92 E0
G92 E0
G1 F3000 E-1
;LAYER_COUNT:692
;LAYER:0
M107
G0 F6000 X103.954 Y79.088 Z0.2
;TYPE:SKIRT
G1 F3000 E0.20788
G1 F1200 X104.32 Y78.676 E0.21759
G1 X104.742 Y78.322 E0.2273
G1 X105.211 Y78.032 E0.23702
G1 X105.716 Y77.813 E0.24672
G1 X106.248 Y77.669 E0.25644
G1 X106.97 Y77.6 E0.26922
G1 X113.029 Y77.6 E0.37603
G1 X113.579 Y77.64 E0.38575
G1 X114.117 Y77.759 E0.39547
G1 X114.632 Y77.955 E0.40518
G1 X115.113 Y78.223 E0.41489
G1 X115.551 Y78.557 E0.4246
G1 X115.935 Y78.952 E0.43431
G1 X116.259 Y79.398 E0.44402
G1 X116.514 Y79.886 E0.45373
G1 X116.697 Y80.406 E0.46345
G1 X116.819 Y81.131 E0.47641
G1 X117.234 Y86.977 E0.57972
G1 X117.422 Y89.929 E0.63186
G1 X117.592 Y92.821 E0.68293
G1 X117.748 Y95.769 E0.73497
G1 X117.884 Y98.722 E0.78708
G1 X118 Y101.623 E0.83826
G1 X118.093 Y104.557 E0.89001
G1 X118.16 Y107.494 E0.94179
G1 X118.195 Y110.436 E0.99366
G1 X118.198 Y113.487 E1.04744
G1 X118.162 Y116.368 E1.09823
G1 X118.115 Y118.353 E1.13323
G1 X118.04 Y120.396 E1.16927
G1 X117.941 Y122.371 E1.20413
G1 X117.811 Y124.365 E1.23935
G1 X117.655 Y126.346 E1.27438
G1 X117.558 Y127.38 E1.29269
G1 X117.349 Y129.219 E1.32531
G1 X117.119 Y130.858 E1.35449
G1 X116.834 Y132.588 E1.3854
G1 X116.658 Y133.53 E1.40229
G1 X116.507 Y134.241 E1.4151
G1 X116.184 Y135.525 E1.43844
G1 X115.867 Y136.588 E1.458
G1 X115.56 Y137.503 E1.47501
G1 X115.344 Y138.062 E1.48557
G1 X115.251 Y138.281 E1.48977
G1 X115.066 Y138.683 E1.49757
G1 X114.979 Y138.86 E1.50104
G1 X114.874 Y139.06 E1.50503
G1 X114.757 Y139.266 E1.5092
G1 X114.547 Y139.612 E1.51634
G1 X114.345 Y139.911 E1.5227
G1 X114.093 Y140.249 E1.53013
G1 X113.849 Y140.545 E1.53689
G1 X113.696 Y140.712 E1.54088
G1 X113.487 Y140.923 E1.54612
G1 X113.322 Y141.077 E1.5501
G1 X112.92 Y141.403 E1.55922
G1 X112.716 Y141.547 E1.56362
G1 X112.133 Y141.886 E1.57551
G1 X111.906 Y141.992 E1.57993
G1 X111.391 Y142.188 E1.58964
G1 X110.939 Y142.295 E1.59783
G1 X110.641 Y142.346 E1.60316
G1 X110.093 Y142.399 E1.61286
G1 X109.349 Y142.344 E1.62602
G1 X109.044 Y142.291 E1.63147
G1 X108.51 Y142.157 E1.64118
G1 X108.043 Y141.969 E1.65005
G1 X107.813 Y141.858 E1.65455
G1 X107.251 Y141.524 E1.66608
G1 X107.046 Y141.377 E1.67053
G1 X106.629 Y141.031 E1.68008
G1 X106.408 Y140.819 E1.68548
G1 X106.106 Y140.493 E1.69331
G1 X105.905 Y140.249 E1.69888
G1 X105.695 Y139.969 E1.70505
G1 X105.466 Y139.632 E1.71223
G1 X105.303 Y139.369 E1.71769
G1 X105.103 Y139.016 E1.72484
G1 X104.96 Y138.737 E1.73037
G1 X104.752 Y138.287 E1.73911
G1 X104.665 Y138.085 E1.74298
G1 X104.419 Y137.447 E1.75504
G1 X104.168 Y136.699 E1.76894
G1 X103.791 Y135.431 E1.79226
G1 X103.501 Y134.28 E1.81319
G1 X103.261 Y133.114 E1.83417
G1 X103.047 Y131.888 E1.85611
G1 X102.752 Y129.954 E1.8906
G1 X102.577 Y128.596 E1.91473
G1 X102.378 Y126.687 E1.94857
G1 X102.213 Y124.681 E1.98405
G1 X102.063 Y122.39 E2.02452
G1 X101.937 Y119.821 E2.06986
G1 X101.851 Y117.021 E2.11924
G1 X101.808 Y114.163 E2.16963
G1 X101.799 Y112.616 E2.1969
G1 X101.806 Y110.047 E2.24219
G1 X101.812 Y109.97 E2.24355
G1 X101.808 Y109.9 E2.24478
G1 X101.855 Y106.765 E2.30005
G1 X101.93 Y103.81 E2.35216
G1 X102.03 Y100.852 E2.40433
G1 X102.152 Y97.894 E2.45652
G1 X102.292 Y94.992 E2.50774
G1 X102.452 Y92.045 E2.55976
G1 X102.629 Y89.096 E2.61184
G1 X103.022 Y83.273 E2.71472
G1 X103.18 Y81.121 E2.75276
G1 X103.261 Y80.575 E2.76249
G1 X103.419 Y80.048 E2.77219
G1 X103.652 Y79.548 E2.78191
G1 X103.954 Y79.088 E2.79161
G0 F6000 X104.342 Y79.243
G1 F1200 X104.703 Y78.866 E2.80081
G1 X105.116 Y78.55 E2.80998
G1 X105.574 Y78.3 E2.81918
G1 X106.064 Y78.123 E2.82836
G1 X106.575 Y78.023 E2.83754
G1 X106.97 Y78 E2.84451
G1 X113.029 Y78 E2.95132
G1 X113.549 Y78.04 E2.96052
G1 X114.056 Y78.159 E2.9697
G1 X114.539 Y78.354 E2.97888
G1 X114.987 Y78.62 E2.98806
G1 X115.389 Y78.952 E2.99725
G1 X115.735 Y79.342 E3.00644
G1 X116.018 Y79.78 E3.01564
G1 X116.231 Y80.255 E3.02481
G1 X116.368 Y80.758 E3.034
G1 X116.42 Y81.159 E3.04113
G1 X116.835 Y87.005 E3.14444
G1 X117.023 Y89.954 E3.19653
G1 X117.193 Y92.844 E3.24756
G1 X117.348 Y95.79 E3.29957
G1 X117.484 Y98.74 E3.35163
G1 X117.6 Y101.639 E3.40277
G1 X117.693 Y104.569 E3.45445
G1 X117.76 Y107.503 E3.50618
G1 X117.795 Y110.441 E3.55797
G1 X117.798 Y113.437 E3.61079
G1 X117.762 Y116.363 E3.66237
G1 X117.715 Y118.344 E3.6973
G1 X117.643 Y120.33 E3.73233
G1 X117.542 Y122.345 E3.7679
G1 X117.416 Y124.288 E3.80222
G1 X117.257 Y126.309 E3.83796
G1 X117.16 Y127.335 E3.85612
G1 X116.952 Y129.164 E3.88857
G1 X116.724 Y130.793 E3.91757
G1 X116.441 Y132.515 E3.94833
G1 X116.266 Y133.449 E3.96508
G1 X116.119 Y134.144 E3.9776
G1 X115.8 Y135.411 E4.00063
G1 X115.487 Y136.462 E4.01997
G1 X115.186 Y137.358 E4.03663
G1 X114.97 Y137.917 E4.04719
G1 X114.888 Y138.113 E4.05094
G1 X114.703 Y138.515 E4.05874
G1 X114.624 Y138.674 E4.06187
G1 X114.519 Y138.874 E4.06585
G1 X114.416 Y139.058 E4.06957
G1 X114.206 Y139.404 E4.0767
G1 X114.025 Y139.672 E4.0824
G1 X113.773 Y140.01 E4.08983
G1 X113.554 Y140.275 E4.09589
G1 X113.401 Y140.442 E4.09989
G1 X113.214 Y140.631 E4.10457
G1 X113.049 Y140.785 E4.10855
G1 X112.69 Y141.077 E4.11671
G1 X112.486 Y141.221 E4.12111
G1 X111.964 Y141.524 E4.13175
G1 X111.737 Y141.63 E4.13617
G1 X111.249 Y141.813 E4.14535
G1 X110.872 Y141.9 E4.15217
G1 X110.574 Y141.951 E4.1575
G1 X110.055 Y142 E4.16669
G1 X109.418 Y141.95 E4.17796
G1 X109.113 Y141.897 E4.18341
G1 X108.608 Y141.768 E4.1926
G1 X108.217 Y141.609 E4.20004
G1 X107.987 Y141.498 E4.20454
G1 X107.484 Y141.199 E4.21486
G1 X107.279 Y141.052 E4.21931
G1 X106.906 Y140.743 E4.22785
G1 X106.685 Y140.531 E4.23324
G1 X106.415 Y140.239 E4.24025
G1 X106.214 Y139.995 E4.24583
G1 X106.026 Y139.744 E4.25135
G1 X105.797 Y139.407 E4.25854
G1 X105.651 Y139.172 E4.26341
G1 X105.451 Y138.819 E4.27057
G1 X105.323 Y138.57 E4.2755
G1 X105.115 Y138.12 E4.28424
G1 X105.037 Y137.938 E4.28773
G1 X104.798 Y137.319 E4.29943
G1 X104.551 Y136.584 E4.3131
G1 X104.179 Y135.332 E4.33612
G1 X103.893 Y134.199 E4.35672
G1 X103.655 Y133.045 E4.37749
G1 X103.442 Y131.827 E4.39929
G1 X103.148 Y129.902 E4.43361
G1 X102.974 Y128.555 E4.45756
G1 X102.776 Y126.654 E4.49125
G1 X102.612 Y124.655 E4.5266
G1 X102.462 Y122.37 E4.56697
G1 X102.337 Y119.809 E4.61217
G1 X102.251 Y117.015 E4.66144
G1 X102.208 Y114.157 E4.71183
G1 X102.199 Y112.613 E4.73905
G1 X102.206 Y110.048 E4.78426
G1 X102.213 Y109.958 E4.78586
G1 X102.208 Y109.906 E4.78678
G1 X102.255 Y106.771 E4.84205
G1 X102.33 Y103.82 E4.89408
G1 X102.43 Y100.865 E4.9462
G1 X102.552 Y97.911 E4.99832
G1 X102.692 Y95.011 E5.0495
G1 X102.851 Y92.067 E5.10147
G1 X103.028 Y89.12 E5.15352
G1 X103.421 Y83.3 E5.25634
G1 X103.579 Y81.15 E5.29435
G1 X103.657 Y80.635 E5.30353
G1 X103.813 Y80.137 E5.31273
G1 X104.043 Y79.67 E5.3219
G1 X104.342 Y79.243 E5.33109
G0 F6000 X104.728 Y79.406
G1 F1200 X105.083 Y79.068 E5.33973
G1 X105.487 Y78.792 E5.34836
G1 X105.931 Y78.586 E5.35699
G1 X106.402 Y78.454 E5.36561
G1 X106.97 Y78.4 E5.37567
G1 X113.029 Y78.4 E5.48247
G1 X113.517 Y78.44 E5.4911
G1 X113.992 Y78.559 E5.49974
G1 X114.441 Y78.753 E5.50836
G1 X114.853 Y79.018 E5.51699
G1 X115.216 Y79.346 E5.52562
G1 X115.521 Y79.729 E5.53425
G1 X115.759 Y80.157 E5.54288
G1 X115.925 Y80.617 E5.5515
G1 X116.021 Y81.188 E5.56171
G1 X116.436 Y87.034 E5.66502
G1 X116.624 Y89.98 E5.71706
G1 X116.794 Y92.868 E5.76806
G1 X116.949 Y95.811 E5.82001
G1 X117.085 Y98.759 E5.87203
G1 X117.201 Y101.655 E5.92312
G1 X117.293 Y104.582 E5.97474
G1 X117.36 Y107.512 E6.02641
G1 X117.395 Y110.446 E6.07813
G1 X117.398 Y113.437 E6.13085
G1 X117.362 Y116.358 E6.18235
G1 X117.315 Y118.334 E6.21719
G1 X117.243 Y120.316 E6.25215
G1 X117.145 Y122.275 E6.28673
G1 X117.017 Y124.262 E6.32183
G1 X116.863 Y126.227 E6.35657
G1 X116.763 Y127.29 E6.37539
G1 X116.556 Y129.109 E6.40767
G1 X116.329 Y130.728 E6.43649
G1 X116.047 Y132.442 E6.46711
G1 X115.874 Y133.367 E6.48369
G1 X115.731 Y134.047 E6.49594
G1 X115.417 Y135.298 E6.51868
G1 X115.107 Y136.337 E6.53779
G1 X114.813 Y137.214 E6.5541
G1 X114.597 Y137.773 E6.56466
G1 X114.524 Y137.946 E6.56797
G1 X114.27 Y138.489 E6.57854
G1 X114.165 Y138.689 E6.58252
G1 X114.074 Y138.851 E6.5858
G1 X113.864 Y139.197 E6.59293
G1 X113.704 Y139.433 E6.59796
G1 X113.452 Y139.771 E6.60539
G1 X113.259 Y140.005 E6.61074
G1 X113.106 Y140.172 E6.61473
G1 X112.941 Y140.338 E6.61886
G1 X112.776 Y140.492 E6.62283
G1 X112.459 Y140.75 E6.63004
G1 X112.255 Y140.894 E6.63444
G1 X111.794 Y141.161 E6.64383
G1 X111.567 Y141.267 E6.64825
G1 X111.108 Y141.437 E6.65688
G1 X110.804 Y141.506 E6.66237
G1 X110.506 Y141.557 E6.6677
G1 X110.018 Y141.6 E6.67634
G1 X109.486 Y141.556 E6.68575
G1 X109.181 Y141.503 E6.6912
G1 X108.708 Y141.38 E6.69982
G1 X108.391 Y141.249 E6.70587
G1 X108.161 Y141.138 E6.71037
G1 X107.717 Y140.874 E6.71947
G1 X107.512 Y140.727 E6.72392
G1 X107.183 Y140.454 E6.73146
G1 X106.962 Y140.242 E6.73685
G1 X106.723 Y139.984 E6.74305
G1 X106.522 Y139.74 E6.74863
G1 X106.357 Y139.519 E6.75349
G1 X106.128 Y139.182 E6.76067
G1 X105.999 Y138.975 E6.76497
G1 X105.799 Y138.622 E6.77212
G1 X105.686 Y138.402 E6.77648
G1 X105.409 Y137.792 E6.78829
G1 X105.177 Y137.19 E6.79966
G1 X104.934 Y136.469 E6.81308
G1 X104.566 Y135.233 E6.83581
G1 X104.285 Y134.117 E6.8561
G1 X104.049 Y132.976 E6.87664
G1 X103.838 Y131.766 E6.89829
G1 X103.545 Y129.851 E6.93244
G1 X103.372 Y128.513 E6.95622
G1 X103.175 Y126.621 E6.98975
G1 X103.015 Y124.677 E7.02414
G1 X102.862 Y122.351 E7.06523
G1 X102.736 Y119.797 E7.1103
G1 X102.652 Y117.056 E7.15864
G1 X102.608 Y114.151 E7.20986
G1 X102.599 Y112.611 E7.23701
G1 X102.608 Y109.912 E7.28458
G1 X102.655 Y106.777 E7.33985
G1 X102.73 Y103.83 E7.39182
G1 X102.83 Y100.879 E7.44387
G1 X102.952 Y97.927 E7.49595
G1 X103.091 Y95.03 E7.54708
G1 X103.25 Y92.088 E7.59902
G1 X103.427 Y89.144 E7.65101
G1 X103.82 Y83.327 E7.75378
G1 X103.978 Y81.179 E7.79175
G1 X104.054 Y80.696 E7.80037
G1 X104.207 Y80.231 E7.809
G1 X104.434 Y79.797 E7.81763
G1 X104.728 Y79.406 E7.82625
G0 F6000 X104.824 Y79.932
G1 F1200 X105.113 Y79.58 E7.83428
G1 X105.46 Y79.284 E7.84232
G1 X105.852 Y79.053 E7.85034
G1 X106.279 Y78.893 E7.85838
G1 X106.727 Y78.811 E7.86641
G1 X106.97 Y78.8 E7.8707
G1 X113.029 Y78.8 E7.9775
G1 X113.483 Y78.84 E7.98554
G1 X113.923 Y78.958 E7.99357
G1 X114.335 Y79.152 E8.0016
G1 X114.708 Y79.415 E8.00964
G1 X115.029 Y79.738 E8.01767
G1 X115.288 Y80.113 E8.0257
G1 X115.478 Y80.527 E8.03373
G1 X115.593 Y80.968 E8.04177
G1 X115.622 Y81.216 E8.04617
G1 X116.037 Y87.062 E8.14948
G1 X116.225 Y90.005 E8.20146
G1 X116.395 Y92.891 E8.25243
G1 X116.549 Y95.832 E8.30434
G1 X116.685 Y98.777 E8.35631
G1 X116.801 Y101.671 E8.40737
G1 X116.894 Y104.595 E8.45894
G1 X116.96 Y107.521 E8.51053
G1 X116.995 Y110.451 E8.56218
G1 X116.998 Y113.437 E8.61482
G1 X116.962 Y116.353 E8.66623
G1 X116.915 Y118.325 E8.701
G1 X116.843 Y120.301 E8.73585
G1 X116.746 Y122.255 E8.77034
G1 X116.618 Y124.236 E8.80534
G1 X116.464 Y126.195 E8.83997
G1 X116.366 Y127.245 E8.85856
G1 X116.16 Y129.053 E8.89064
G1 X115.935 Y130.663 E8.9193
G1 X115.654 Y132.369 E8.94978
G1 X115.483 Y133.286 E8.96622
G1 X115.343 Y133.95 E8.97818
G1 X115.033 Y135.184 E9.00061
G1 X114.728 Y136.211 E9.0195
G1 X114.44 Y137.07 E9.03547
G1 X114.161 Y137.779 E9.0489
G1 X113.916 Y138.303 E9.05909
G1 X113.732 Y138.643 E9.06591
G1 X113.522 Y138.989 E9.07304
G1 X113.383 Y139.194 E9.07741
G1 X113.131 Y139.532 E9.08484
G1 X112.964 Y139.734 E9.08946
G1 X112.811 Y139.901 E9.09346
G1 X112.668 Y140.046 E9.09705
G1 X112.503 Y140.2 E9.10102
G1 X112.228 Y140.423 E9.10727
G1 X112.024 Y140.567 E9.11167
G1 X111.625 Y140.799 E9.1198
G1 X111.398 Y140.905 E9.12422
G1 X110.97 Y141.061 E9.13225
G1 X110.737 Y141.112 E9.13645
G1 X110.439 Y141.163 E9.14178
G1 X109.984 Y141.2 E9.14983
G1 X109.555 Y141.162 E9.15742
G1 X109.25 Y141.109 E9.16288
G1 X108.81 Y140.992 E9.17091
G1 X108.565 Y140.889 E9.17559
G1 X108.335 Y140.778 E9.18009
G1 X107.95 Y140.549 E9.18799
G1 X107.745 Y140.402 E9.19244
G1 X107.46 Y140.165 E9.19897
G1 X107.239 Y139.953 E9.20437
G1 X107.032 Y139.73 E9.20973
G1 X106.831 Y139.486 E9.2153
G1 X106.688 Y139.294 E9.21952
G1 X106.459 Y138.957 E9.22671
G1 X106.347 Y138.778 E9.23043
G1 X106.147 Y138.425 E9.23758
G1 X106.049 Y138.234 E9.24137
G1 X105.782 Y137.645 E9.25277
G1 X105.555 Y137.062 E9.26379
G1 X105.317 Y136.354 E9.27696
G1 X104.954 Y135.134 E9.2994
G1 X104.676 Y134.036 E9.31936
G1 X104.443 Y132.907 E9.33969
G1 X104.233 Y131.706 E9.36118
G1 X103.942 Y129.8 E9.39517
G1 X103.77 Y128.471 E9.41879
G1 X103.574 Y126.588 E9.45216
G1 X103.414 Y124.644 E9.48655
G1 X103.264 Y122.374 E9.52665
G1 X103.138 Y119.833 E9.5715
G1 X103.052 Y117.044 E9.62068
G1 X103.008 Y114.145 E9.67179
G1 X102.999 Y112.608 E9.69889
G1 X103.006 Y110.05 E9.74398
G1 X103.013 Y109.977 E9.74527
G1 X103.008 Y109.918 E9.74632
G1 X103.055 Y106.783 E9.80159
G1 X103.13 Y103.84 E9.85348
G1 X103.229 Y100.892 E9.90548
G1 X103.351 Y97.944 E9.95749
G1 X103.491 Y95.049 E10.00858
G1 X103.65 Y92.11 E10.06047
G1 X103.827 Y89.168 E10.11242
G1 X104.219 Y83.354 E10.21514
G1 X104.377 Y81.209 E10.25306
G1 X104.45 Y80.759 E10.26109
G1 X104.601 Y80.329 E10.26913
G1 X104.824 Y79.932 E10.27715
G0 F6000 X105.213 Y80.076
G1 F1200 X105.496 Y79.767 E10.28454
G1 X105.833 Y79.517 E10.29194
G1 X106.21 Y79.335 E10.29931
G1 X106.616 Y79.229 E10.30671
G1 X106.97 Y79.2 E10.31297
G1 X113.029 Y79.2 E10.41978
G1 X113.446 Y79.24 E10.42716
G1 X113.848 Y79.358 E10.43455
G1 X114.22 Y79.551 E10.44194
G1 X114.549 Y79.81 E10.44932
G1 X114.823 Y80.127 E10.4567
G1 X115.032 Y80.49 E10.46409
G1 X115.168 Y80.887 E10.47149
G1 X115.223 Y81.244 E10.47785
G1 X115.638 Y87.09 E10.58117
G1 X115.826 Y90.03 E10.6331
G1 X115.995 Y92.915 E10.68404
G1 X116.15 Y95.853 E10.7359
G1 X116.286 Y98.796 E10.78784
G1 X116.401 Y101.687 E10.83884
G1 X116.494 Y104.607 E10.89034
G1 X116.56 Y107.53 E10.94188
G1 X116.595 Y110.455 E10.99344
G1 X116.598 Y113.438 E11.04603
G1 X116.562 Y116.348 E11.09733
G1 X116.515 Y118.315 E11.13201
G1 X116.444 Y120.286 E11.16678
G1 X116.346 Y122.235 E11.20118
G1 X116.218 Y124.21 E11.23607
G1 X116.065 Y126.164 E11.27062
G1 X115.972 Y127.158 E11.28822
G1 X115.764 Y128.998 E11.32086
G1 X115.54 Y130.598 E11.34934
G1 X115.269 Y132.249 E11.37883
G1 X115.1 Y133.161 E11.39518
G1 X114.955 Y133.854 E11.40766
G1 X114.649 Y135.071 E11.42978
G1 X114.348 Y136.086 E11.44845
G1 X114.067 Y136.926 E11.46406
G1 X113.798 Y137.612 E11.47705
G1 X113.562 Y138.117 E11.48688
G1 X113.39 Y138.435 E11.49325
G1 X113.18 Y138.781 E11.50038
G1 X113.063 Y138.955 E11.50408
G1 X112.811 Y139.293 E11.51151
G1 X112.669 Y139.464 E11.51543
G1 X112.516 Y139.631 E11.51942
G1 X112.395 Y139.753 E11.52245
G1 X112.23 Y139.907 E11.52643
G1 X111.998 Y140.096 E11.5317
G1 X111.794 Y140.24 E11.53611
G1 X111.456 Y140.436 E11.54299
G1 X111.229 Y140.542 E11.54741
G1 X110.669 Y140.717 E11.55775
G1 X110.371 Y140.768 E11.56308
