;FLAVOR:Marlin
;TIME:1954
;Filament used: 0.471798m
;Layer height: 0.15
;MINX:91.124
;MINY:91.124
;MINZ:0.2
;MAXX:128.876
;MAXY:128.876
;MAXZ:10.4
;Generated with Cura_SteamEngine 4.6.1
M140 S60
M105
M190 S60
M104 S230
M105
M109 S230
M82 ;absolute extrusion mode
; Ender 3 Custom Start G-code
G92 E0 ; Reset Extruder
G28 ; Home all axes
G1 Z2.0 F3000 ; Move Z Axis up little to prevent scratching of Heat Bed
G1 X0.1 Y20 Z0.3 F5000.0 ; Move to start position
G1 X0.1 Y200.0 Z0.3 F1500.0 E15 ; Draw the first line
G1 X0.4 Y200.0 Z0.3 F5000.0 ; Move to side a little
G1 X0.4 Y20 Z0.3 F1500.0 E30 ; Draw the second line
G92 E0 ; Reset Extruder
G1 Z2.0 F3000 ; Move Z Axis up little to prevent scratching of Heat Bed
G1 X5 Y20 Z0.3 F5000.0 ; Move over to prevent blob squish
G92 E0
G92 E0
G1 F1500 E-1
;LAYER_COUNT:69
;LAYER:0
M107
G0 F6000 X96.746 Y96.561 Z0.2
;TYPE:SKIRT
G1 F1500 E0
G1 F1200 X97.534 Y95.827 E0.01898
G1 X97.74 Y95.649 E0.02378
G1 X98.579 Y94.973 E0.04278
G1 X98.792 Y94.813 E0.04747
G1 X99.674 Y94.199 E0.06642
G1 X99.903 Y94.052 E0.07121
G1 X100.828 Y93.502 E0.09018
G1 X101.072 Y93.368 E0.09509
G1 X102.037 Y92.886 E0.11411
G1 X102.277 Y92.777 E0.11875
G1 X103.269 Y92.365 E0.13769
G1 X103.527 Y92.268 E0.14255
G1 X104.549 Y91.928 E0.16153
G1 X104.807 Y91.853 E0.16627
G1 X105.85 Y91.586 E0.18525
G1 X106.118 Y91.527 E0.19008
G1 X107.178 Y91.336 E0.20907
G1 X107.446 Y91.298 E0.21384
G1 X108.516 Y91.183 E0.23281
G1 X108.784 Y91.163 E0.23755
G1 X109.859 Y91.124 E0.25651
G1 X110.135 Y91.124 E0.26138
G1 X111.21 Y91.163 E0.28034
G1 X111.478 Y91.183 E0.28508
G1 X112.548 Y91.298 E0.30405
G1 X112.812 Y91.336 E0.30875
G1 X113.872 Y91.526 E0.32773
G1 X114.141 Y91.584 E0.33258
G1 X115.184 Y91.85 E0.35156
G1 X115.445 Y91.926 E0.35635
G1 X116.467 Y92.266 E0.37534
G1 X116.723 Y92.362 E0.38016
G1 X117.716 Y92.774 E0.39911
G1 X117.957 Y92.884 E0.40378
G1 X118.921 Y93.365 E0.42277
G1 X119.162 Y93.496 E0.4276
G1 X120.088 Y94.045 E0.44658
G1 X120.317 Y94.192 E0.45138
G1 X121.2 Y94.805 E0.47033
G1 X121.421 Y94.971 E0.4752
G1 X122.258 Y95.647 E0.49416
G1 X122.458 Y95.821 E0.49884
G1 X123.246 Y96.554 E0.51781
G1 X123.439 Y96.746 E0.52261
G1 X124.173 Y97.534 E0.54159
G1 X124.351 Y97.74 E0.54639
G1 X125.027 Y98.579 E0.56538
G1 X125.187 Y98.792 E0.57008
G1 X125.801 Y99.674 E0.58902
G1 X125.948 Y99.903 E0.59382
G1 X126.498 Y100.828 E0.61279
G1 X126.631 Y101.071 E0.61767
G1 X127.113 Y102.035 E0.63667
G1 X127.224 Y102.278 E0.64138
G1 X127.636 Y103.271 E0.66033
G1 X127.731 Y103.526 E0.66513
G1 X128.071 Y104.547 E0.6841
G1 X128.148 Y104.806 E0.68886
G1 X128.415 Y105.85 E0.70786
G1 X128.473 Y106.117 E0.71268
G1 X128.664 Y107.175 E0.73163
G1 X128.702 Y107.444 E0.73642
G1 X128.817 Y108.515 E0.75541
G1 X128.837 Y108.783 E0.76014
G1 X128.876 Y109.858 E0.7791
G1 X128.876 Y110.134 E0.78397
G1 X128.837 Y111.21 E0.80295
G1 X128.818 Y111.475 E0.80763
G1 X128.704 Y112.545 E0.8266
G1 X128.665 Y112.816 E0.83143
G1 X128.474 Y113.876 E0.85042
G1 X128.416 Y114.141 E0.8552
G1 X128.15 Y115.184 E0.87417
G1 X128.074 Y115.443 E0.87893
G1 X127.735 Y116.463 E0.89788
G1 X127.639 Y116.722 E0.90275
G1 X127.226 Y117.717 E0.92174
G1 X127.116 Y117.957 E0.92639
G1 X126.635 Y118.921 E0.94538
G1 X126.504 Y119.161 E0.9502
G1 X125.956 Y120.086 E0.96915
G1 X125.808 Y120.317 E0.97399
G1 X125.194 Y121.201 E0.99296
G1 X125.029 Y121.421 E0.99781
G1 X124.353 Y122.258 E1.01678
G1 X124.179 Y122.458 E1.02145
G1 X123.446 Y123.246 E1.04042
G1 X123.254 Y123.439 E1.04522
G1 X122.466 Y124.173 E1.0642
G1 X122.26 Y124.351 E1.069
G1 X121.421 Y125.027 E1.088
G1 X121.208 Y125.187 E1.09269
G1 X120.326 Y125.801 E1.11164
G1 X120.097 Y125.948 E1.11643
G1 X119.172 Y126.498 E1.1354
G1 X118.928 Y126.632 E1.14031
G1 X117.963 Y127.114 E1.15933
G1 X117.723 Y127.223 E1.16397
G1 X116.731 Y127.635 E1.18291
G1 X116.473 Y127.732 E1.18777
G1 X115.451 Y128.072 E1.20675
G1 X115.193 Y128.147 E1.21149
G1 X114.15 Y128.414 E1.23047
G1 X113.882 Y128.473 E1.2353
G1 X112.822 Y128.664 E1.25429
G1 X112.554 Y128.702 E1.25906
G1 X111.484 Y128.817 E1.27803
G1 X111.216 Y128.837 E1.28277
G1 X110.141 Y128.876 E1.30173
G1 X109.865 Y128.876 E1.3066
G1 X108.79 Y128.837 E1.32556
G1 X108.525 Y128.818 E1.33024
G1 X107.455 Y128.704 E1.34921
G1 X107.184 Y128.665 E1.35404
G1 X106.124 Y128.474 E1.37303
G1 X105.859 Y128.416 E1.37781
G1 X104.816 Y128.15 E1.39678
G1 X104.555 Y128.074 E1.40157
G1 X103.533 Y127.734 E1.42056
G1 X103.277 Y127.638 E1.42538
G1 X102.284 Y127.226 E1.44433
G1 X102.043 Y127.116 E1.449
G1 X101.079 Y126.635 E1.46799
G1 X100.838 Y126.504 E1.47283
G1 X99.912 Y125.955 E1.4918
G1 X99.683 Y125.808 E1.4966
G1 X98.8 Y125.195 E1.51555
G1 X98.579 Y125.029 E1.52042
G1 X97.741 Y124.352 E1.53941
G1 X97.541 Y124.178 E1.54409
G1 X96.753 Y123.445 E1.56306
G1 X96.56 Y123.253 E1.56786
G1 X95.826 Y122.465 E1.58684
G1 X95.648 Y122.259 E1.59164
G1 X94.973 Y121.421 E1.61061
G1 X94.814 Y121.209 E1.61528
G1 X94.199 Y120.326 E1.63425
G1 X94.05 Y120.095 E1.63909
G1 X93.501 Y119.171 E1.65804
G1 X93.368 Y118.928 E1.66292
G1 X92.886 Y117.963 E1.68194
G1 X92.777 Y117.723 E1.68658
G1 X92.364 Y116.729 E1.70556
G1 X92.267 Y116.469 E1.71045
G1 X91.928 Y115.449 E1.7294
G1 X91.853 Y115.193 E1.7341
G1 X91.586 Y114.15 E1.75308
G1 X91.527 Y113.882 E1.75792
G1 X91.336 Y112.822 E1.7769
G1 X91.298 Y112.554 E1.78167
G1 X91.183 Y111.484 E1.80064
G1 X91.164 Y111.216 E1.80538
G1 X91.125 Y110.142 E1.82433
G1 X91.124 Y109.866 E1.82919
G1 X91.163 Y108.79 E1.84817
G1 X91.182 Y108.525 E1.85285
G1 X91.296 Y107.455 E1.87182
G1 X91.335 Y107.184 E1.87665
G1 X91.526 Y106.124 E1.89564
G1 X91.584 Y105.859 E1.90042
G1 X91.85 Y104.816 E1.91939
G1 X91.926 Y104.557 E1.92415
G1 X92.265 Y103.537 E1.9431
G1 X92.361 Y103.278 E1.94797
G1 X92.774 Y102.283 E1.96696
G1 X92.884 Y102.043 E1.97161
G1 X93.365 Y101.079 E1.9906
G1 X93.496 Y100.839 E1.99542
G1 X94.044 Y99.914 E2.01437
G1 X94.192 Y99.683 E2.01921
G1 X94.806 Y98.799 E2.03818
G1 X94.971 Y98.579 E2.04303
G1 X95.647 Y97.742 E2.062
G1 X95.821 Y97.542 E2.06667
G1 X96.554 Y96.754 E2.08564
G1 X96.746 Y96.561 E2.09044
G0 F6000 X97.019 Y96.854
G1 F1200 X97.807 Y96.12 E2.10942
G1 X97.991 Y95.96 E2.11372
G1 X98.83 Y95.284 E2.13272
G1 X99.02 Y95.142 E2.1369
G1 X99.902 Y94.528 E2.15584
G1 X100.107 Y94.396 E2.16014
G1 X101.032 Y93.846 E2.17911
G1 X101.251 Y93.726 E2.18351
G1 X102.216 Y93.244 E2.20253
G1 X102.431 Y93.146 E2.20669
G1 X103.423 Y92.734 E2.22563
G1 X103.654 Y92.648 E2.22997
G1 X104.676 Y92.308 E2.24896
G1 X104.906 Y92.24 E2.25319
G1 X105.949 Y91.973 E2.27216
G1 X106.189 Y91.921 E2.27649
G1 X107.249 Y91.73 E2.29548
G1 X107.489 Y91.695 E2.29976
G1 X108.559 Y91.58 E2.31873
G1 X108.799 Y91.563 E2.32297
G1 X109.874 Y91.524 E2.34193
G1 X110.12 Y91.524 E2.34627
G1 X111.195 Y91.563 E2.36523
G1 X111.435 Y91.58 E2.36947
G1 X112.505 Y91.695 E2.38844
G1 X112.742 Y91.729 E2.39266
G1 X113.802 Y91.919 E2.41164
G1 X114.042 Y91.971 E2.41597
G1 X115.085 Y92.237 E2.43495
G1 X115.318 Y92.306 E2.43923
G1 X116.34 Y92.646 E2.45822
G1 X116.57 Y92.732 E2.46255
G1 X117.563 Y93.144 E2.4815
G1 X117.778 Y93.242 E2.48566
G1 X118.742 Y93.723 E2.50465
G1 X118.958 Y93.84 E2.50898
G1 X119.884 Y94.389 E2.52796
G1 X120.089 Y94.521 E2.53226
G1 X120.972 Y95.134 E2.55121
G1 X121.169 Y95.282 E2.55555
G1 X122.006 Y95.958 E2.57452
G1 X122.186 Y96.114 E2.57872
G1 X122.974 Y96.847 E2.59769
G1 X123.146 Y97.019 E2.60197
G1 X123.88 Y97.807 E2.62096
G1 X124.04 Y97.991 E2.62526
G1 X124.716 Y98.83 E2.64425
G1 X124.858 Y99.02 E2.64843
G1 X125.472 Y99.902 E2.66737
G1 X125.604 Y100.107 E2.67167
G1 X126.154 Y101.032 E2.69064
G1 X126.273 Y101.249 E2.69501
G1 X126.755 Y102.213 E2.714
G1 X126.854 Y102.431 E2.71823
G1 X127.266 Y103.424 E2.73718
G1 X127.352 Y103.653 E2.74149
G1 X127.692 Y104.674 E2.76046
G1 X127.76 Y104.906 E2.76472
G1 X128.027 Y105.95 E2.78372
G1 X128.079 Y106.188 E2.78801
G1 X128.27 Y107.246 E2.80696
G1 X128.305 Y107.487 E2.81126
G1 X128.42 Y108.558 E2.83024
G1 X128.437 Y108.798 E2.83448
G1 X128.476 Y109.873 E2.85345
G1 X128.476 Y110.119 E2.85778
G1 X128.437 Y111.195 E2.87676
G1 X128.42 Y111.432 E2.88095
G1 X128.306 Y112.502 E2.89992
G1 X128.271 Y112.745 E2.90425
G1 X128.08 Y113.805 E2.92323
G1 X128.029 Y114.042 E2.92751
G1 X127.763 Y115.085 E2.94648
G1 X127.694 Y115.317 E2.95075
G1 X127.355 Y116.337 E2.9697
G1 X127.269 Y116.568 E2.97404
G1 X126.856 Y117.563 E2.99303
G1 X126.758 Y117.778 E2.9972
G1 X126.277 Y118.742 E3.01619
G1 X126.16 Y118.957 E3.0205
G1 X125.612 Y119.882 E3.03946
G1 X125.479 Y120.089 E3.04379
G1 X124.865 Y120.973 E3.06277
G1 X124.718 Y121.169 E3.06709
G1 X124.042 Y122.006 E3.08605
G1 X123.886 Y122.186 E3.09025
G1 X123.153 Y122.974 E3.10922
G1 X122.981 Y123.146 E3.11351
G1 X122.193 Y123.88 E3.13249
G1 X122.009 Y124.04 E3.13679
G1 X121.17 Y124.716 E3.15578
G1 X120.98 Y124.858 E3.15997
G1 X120.098 Y125.472 E3.17891
G1 X119.893 Y125.604 E3.18321
G1 X118.968 Y126.154 E3.20218
G1 X118.749 Y126.274 E3.20658
G1 X117.784 Y126.756 E3.22559
G1 X117.569 Y126.854 E3.22976
G1 X116.577 Y127.266 E3.2487
G1 X116.346 Y127.352 E3.25304
G1 X115.324 Y127.692 E3.27203
G1 X115.094 Y127.76 E3.27625
G1 X114.051 Y128.027 E3.29523
G1 X113.811 Y128.079 E3.29956
G1 X112.751 Y128.27 E3.31855
G1 X112.511 Y128.305 E3.32282
G1 X111.441 Y128.42 E3.34179
G1 X111.201 Y128.437 E3.34604
G1 X110.126 Y128.476 E3.365
G1 X109.88 Y128.476 E3.36933
G1 X108.805 Y128.437 E3.3883
G1 X108.568 Y128.42 E3.39249
G1 X107.498 Y128.306 E3.41145
G1 X107.255 Y128.271 E3.41578
G1 X106.195 Y128.08 E3.43477
G1 X105.958 Y128.029 E3.43904
G1 X104.915 Y127.763 E3.45802
G1 X104.682 Y127.694 E3.4623
G1 X103.66 Y127.354 E3.48129
G1 X103.43 Y127.268 E3.48561
G1 X102.437 Y126.856 E3.50457
G1 X102.222 Y126.758 E3.50873
G1 X101.258 Y126.277 E3.52772
G1 X101.042 Y126.16 E3.53205
G1 X100.116 Y125.611 E3.55103
G1 X99.911 Y125.479 E3.55533
G1 X99.028 Y124.866 E3.57428
G1 X98.83 Y124.718 E3.57863
G1 X97.992 Y124.041 E3.59762
G1 X97.813 Y123.885 E3.60181
G1 X97.025 Y123.152 E3.62078
G1 X96.853 Y122.98 E3.62507
G1 X96.119 Y122.192 E3.64405
G1 X95.959 Y122.008 E3.64835
G1 X95.284 Y121.17 E3.66732
G1 X95.142 Y120.98 E3.6715
G1 X94.527 Y120.097 E3.69047
G1 X94.394 Y119.891 E3.69479
G1 X93.845 Y118.967 E3.71374
G1 X93.726 Y118.749 E3.71812
G1 X93.244 Y117.784 E3.73713
G1 X93.146 Y117.57 E3.74128
G1 X92.733 Y116.576 E3.76025
G1 X92.647 Y116.343 E3.76463
G1 X92.308 Y115.323 E3.78358
G1 X92.24 Y115.094 E3.78779
G1 X91.973 Y114.051 E3.80677
G1 X91.921 Y113.811 E3.8111
G1 X91.73 Y112.751 E3.83008
G1 X91.695 Y112.511 E3.83436
G1 X91.58 Y111.441 E3.85333
G1 X91.563 Y111.201 E3.85757
G1 X91.524 Y110.127 E3.87652
G1 X91.524 Y109.881 E3.88085
G1 X91.563 Y108.805 E3.89983
G1 X91.58 Y108.568 E3.90402
G1 X91.694 Y107.498 E3.92299
G1 X91.729 Y107.255 E3.92732
G1 X91.92 Y106.195 E3.9463
G1 X91.971 Y105.958 E3.95058
G1 X92.237 Y104.915 E3.96955
G1 X92.306 Y104.683 E3.97382
G1 X92.645 Y103.663 E3.99277
G1 X92.731 Y103.432 E3.99711
G1 X93.144 Y102.437 E4.0161
G1 X93.242 Y102.222 E4.02027
G1 X93.723 Y101.258 E4.03926
G1 X93.84 Y101.043 E4.04357
G1 X94.388 Y100.118 E4.06253
G1 X94.521 Y99.911 E4.06686
G1 X95.135 Y99.027 E4.08584
G1 X95.282 Y98.831 E4.09016
G1 X95.958 Y97.994 E4.10912
G1 X96.114 Y97.814 E4.11332
G1 X96.847 Y97.026 E4.13229
G1 X97.019 Y96.854 E4.13658
G0 F6000 X97.291 Y97.147
G1 F1200 X98.079 Y96.413 E4.15556
G1 X98.242 Y96.272 E4.15936
G1 X99.081 Y95.596 E4.17835
G1 X99.249 Y95.47 E4.18206
G1 X100.131 Y94.856 E4.201
G1 X100.312 Y94.739 E4.2048
G1 X101.237 Y94.189 E4.22377
G1 X101.429 Y94.084 E4.22763
G1 X102.394 Y93.602 E4.24664
G1 X102.584 Y93.515 E4.25033
G1 X103.576 Y93.103 E4.26926
G1 X103.78 Y93.027 E4.2731
G1 X104.802 Y92.687 E4.29209
G1 X105.005 Y92.628 E4.29581
G1 X106.048 Y92.361 E4.31479
G1 X106.26 Y92.315 E4.31861
G1 X107.32 Y92.124 E4.3376
G1 X107.531 Y92.093 E4.34136
G1 X108.601 Y91.978 E4.36033
G1 X108.813 Y91.963 E4.36408
G1 X109.888 Y91.924 E4.38304
G1 X110.106 Y91.924 E4.38688
G1 X111.181 Y91.963 E4.40585
G1 X111.393 Y91.978 E4.40959
G1 X112.463 Y92.093 E4.42856
G1 X112.671 Y92.123 E4.43227
G1 X113.731 Y92.313 E4.45125
G1 X113.943 Y92.359 E4.45507
G1 X114.986 Y92.625 E4.47405
G1 X115.192 Y92.685 E4.47783
G1 X116.214 Y93.025 E4.49682
G1 X116.417 Y93.101 E4.50064
G1 X117.41 Y93.513 E4.51959
G1 X117.599 Y93.6 E4.52326
G1 X118.563 Y94.081 E4.54225
G1 X118.754 Y94.184 E4.54607
G1 X119.68 Y94.733 E4.56505
G1 X119.861 Y94.85 E4.56885
G1 X120.744 Y95.463 E4.5878
G1 X120.918 Y95.593 E4.59163
G1 X121.755 Y96.269 E4.61059
G1 X121.913 Y96.406 E4.61428
G1 X122.701 Y97.139 E4.63325
G1 X122.853 Y97.291 E4.63704
G1 X123.587 Y98.079 E4.65602
G1 X123.728 Y98.242 E4.65982
G1 X124.404 Y99.081 E4.67882
G1 X124.53 Y99.249 E4.68252
G1 X125.144 Y100.131 E4.70146
G1 X125.261 Y100.312 E4.70526
G1 X125.811 Y101.237 E4.72423
G1 X125.915 Y101.428 E4.72806
G1 X126.397 Y102.392 E4.74706
G1 X126.485 Y102.584 E4.75079
G1 X126.897 Y103.577 E4.76974
G1 X126.972 Y103.779 E4.77354
G1 X127.312 Y104.8 E4.79251
G1 X127.372 Y105.005 E4.79627
G1 X127.639 Y106.049 E4.81527
G1 X127.685 Y106.259 E4.81906
G1 X127.876 Y107.317 E4.83801
G1 X127.907 Y107.53 E4.8418
G1 X128.022 Y108.601 E4.86079
G1 X128.037 Y108.812 E4.86452
G1 X128.076 Y109.887 E4.88348
G1 X128.076 Y110.105 E4.88733
G1 X128.037 Y111.181 E4.90631
G1 X128.022 Y111.39 E4.91
G1 X127.908 Y112.46 E4.92897
G1 X127.877 Y112.674 E4.93278
G1 X127.686 Y113.734 E4.95177
G1 X127.641 Y113.943 E4.95553
G1 X127.375 Y114.986 E4.97451
G1 X127.315 Y115.191 E4.97827
G1 X126.976 Y116.211 E4.99722
G1 X126.9 Y116.415 E5.00106
G1 X126.487 Y117.41 E5.02005
G1 X126.4 Y117.599 E5.02372
G1 X125.919 Y118.563 E5.04271
G1 X125.816 Y118.753 E5.04652
G1 X125.268 Y119.678 E5.06547
G1 X125.151 Y119.86 E5.06929
G1 X124.537 Y120.744 E5.08826
G1 X124.407 Y120.918 E5.09209
G1 X123.731 Y121.755 E5.11105
G1 X123.594 Y121.913 E5.11474
G1 X122.861 Y122.701 E5.13371
G1 X122.709 Y122.853 E5.1375
G1 X121.921 Y123.587 E5.15648
G1 X121.758 Y123.728 E5.16028
G1 X120.919 Y124.404 E5.17928
G1 X120.751 Y124.53 E5.18298
G1 X119.869 Y125.144 E5.20192
G1 X119.688 Y125.261 E5.20572
G1 X118.763 Y125.811 E5.22469
G1 X118.571 Y125.916 E5.22855
G1 X117.606 Y126.398 E5.24756
G1 X117.416 Y126.485 E5.25125
G1 X116.424 Y126.897 E5.27018
G1 X116.22 Y126.973 E5.27402
G1 X115.198 Y127.313 E5.29301
G1 X114.995 Y127.372 E5.29673
G1 X113.952 Y127.639 E5.31571
G1 X113.74 Y127.685 E5.31954
G1 X112.68 Y127.876 E5.33852
G1 X112.469 Y127.907 E5.34228
G1 X111.399 Y128.022 E5.36125
G1 X111.187 Y128.037 E5.365
G1 X110.112 Y128.076 E5.38396
G1 X109.894 Y128.076 E5.3878
G1 X108.819 Y128.037 E5.40677
G1 X108.61 Y128.022 E5.41046
G1 X107.54 Y127.908 E5.42943
G1 X107.326 Y127.877 E5.43324
G1 X106.266 Y127.686 E5.45223
G1 X106.057 Y127.641 E5.456
G1 X105.014 Y127.375 E5.47497
G1 X104.808 Y127.315 E5.47875
G1 X103.786 Y126.975 E5.49774
G1 X103.583 Y126.899 E5.50156
G1 X102.59 Y126.487 E5.52051
G1 X102.401 Y126.4 E5.52418
G1 X101.437 Y125.919 E5.54317
G1 X101.246 Y125.816 E5.54699
G1 X100.32 Y125.267 E5.56597
G1 X100.139 Y125.15 E5.56977
G1 X99.256 Y124.537 E5.58872
G1 X99.082 Y124.407 E5.59255
G1 X98.244 Y123.73 E5.61154
G1 X98.086 Y123.593 E5.61523
G1 X97.298 Y122.86 E5.6342
G1 X97.146 Y122.708 E5.63799
G1 X96.412 Y121.92 E5.65697
G1 X96.271 Y121.757 E5.66077
G1 X95.596 Y120.919 E5.67974
G1 X95.47 Y120.752 E5.68342
G1 X94.855 Y119.869 E5.70239
G1 X94.738 Y119.686 E5.70622
G1 X94.189 Y118.762 E5.72517
G1 X94.084 Y118.571 E5.72901
G1 X93.602 Y117.606 E5.74803
G1 X93.516 Y117.416 E5.7517
G1 X93.103 Y116.422 E5.77068
G1 X93.026 Y116.217 E5.77454
G1 X92.687 Y115.197 E5.79348
G1 X92.628 Y114.995 E5.79719
G1 X92.361 Y113.952 E5.81617
