;FLAVOR:Marlin
;TIME:3173
;Filament used: 0.971453m
;Layer height: 0.25
;MINX:86.196
;MINY:92.023
;MINZ:0.2
;MAXX:133.791
;MAXY:127.984
;MAXZ:140.95
;Generated with Cura_SteamEngine 4.6.1
M140 S60
M105
M190 S60
M104 S235
M105
M109 S235
M82 ;absolute extrusion mode
; Ender 3 Custom Start G-code
G92 E0 ; Reset Extruder
G28 ; Home all axes
G1 Z2.0 F3000 ; Move Z Axis up little to prevent scratching of Heat Bed
G1 X0.1 Y20 Z0.3 F5000.0 ; Move to start position
G1 X0.1 Y200.0 Z0.3 F1500.0 E15 ; Draw the first line
G1 X0.4 Y200.0 Z0.3 F5000.0 ; Move to side a little
G1 X0.4 Y20 Z0.3 F1500.0 E30 ; Draw the second line
G92 E0 ; Reset Extruder
G1 Z2.0 F3000 ; Move Z Axis up little to prevent scratching of Heat Bed
G1 X5 Y20 Z0.3 F5000.0 ; Move over to prevent blob squish
G92 E0
G92 E0
G1 F3000 E-1
;LAYER_COUNT:570
;LAYER:0
M107
G0 F6000 X95.951 Y93.061 Z0.2
;TYPE:SKIRT
G1 F3000 E0.20788
G1 F1200 X96.377 Y92.712 E0.21758
G1 X96.85 Y92.429 E0.2273
G1 X97.359 Y92.217 E0.23702
G1 X97.892 Y92.081 E0.24672
G1 X98.44 Y92.023 E0.25643
G1 X98.867 Y92.033 E0.26396
G1 X103.288 Y92.388 E0.34214
G1 X108.411 Y92.831 E0.43279
G1 X113.53 Y93.303 E0.52341
G1 X118.646 Y93.805 E0.61403
G1 X123.72 Y94.335 E0.70396
G1 X130.198 Y95.047 E0.81884
G1 X130.74 Y95.147 E0.82855
G1 X131.302 Y95.341 E0.83903
G1 X131.435 Y95.399 E0.84159
G1 X131.923 Y95.655 E0.8513
G1 X132.368 Y95.979 E0.86101
G1 X132.762 Y96.364 E0.87072
G1 X133.133 Y96.859 E0.88162
G1 X133.211 Y96.983 E0.88421
G1 X133.469 Y97.469 E0.89391
G1 X133.655 Y97.988 E0.90362
G1 X133.764 Y98.528 E0.91333
G1 X133.791 Y99.159 E0.92447
G1 X133.785 Y99.308 E0.9271
G1 X133.723 Y99.855 E0.9368
G1 X133.582 Y100.388 E0.94652
G1 X133.366 Y100.895 E0.95623
G1 X133.022 Y101.443 E0.96764
G1 X132.933 Y101.561 E0.97025
G1 X132.57 Y101.976 E0.97996
G1 X132.151 Y102.334 E0.98968
G1 X131.685 Y102.627 E0.99938
G1 X131.352 Y102.784 E1.00587
G1 X131.236 Y102.832 E1.00809
G1 X130.713 Y103.005 E1.0178
G1 X130.198 Y103.098 E1.02702
G1 X123.693 Y103.813 E1.14238
G1 X118.579 Y104.346 E1.23302
G1 X115.444 Y104.655 E1.28855
G1 X115.272 Y105.135 E1.29754
G1 X114.533 Y107.056 E1.33382
G1 X113.72 Y108.943 E1.37004
G1 X112.832 Y110.8 E1.40633
G1 X111.871 Y112.621 E1.44262
G1 X110.841 Y114.396 E1.4788
G1 X109.74 Y116.136 E1.51509
G1 X108.573 Y117.829 E1.55134
G1 X107.338 Y119.475 E1.58762
G1 X106.041 Y121.071 E1.62387
G1 X104.681 Y122.614 E1.66013
G1 X103.261 Y124.104 E1.69641
G1 X101.893 Y125.433 E1.73003
G1 X101.669 Y125.633 E1.73532
G1 X101.162 Y126.053 E1.74693
G1 X100.792 Y126.324 E1.75501
G1 X100.238 Y126.68 E1.76662
G1 X99.849 Y126.899 E1.77449
G1 X99.254 Y127.189 E1.78616
G1 X98.817 Y127.369 E1.79449
G1 X98.196 Y127.581 E1.80606
G1 X97.772 Y127.699 E1.81382
G1 X97.125 Y127.839 E1.82549
G1 X96.668 Y127.909 E1.83364
G1 X96.013 Y127.969 E1.84523
G1 X95.562 Y127.984 E1.85319
G1 X94.904 Y127.966 E1.86479
G1 X94.45 Y127.926 E1.87282
G1 X93.796 Y127.829 E1.88448
G1 X93.351 Y127.735 E1.89249
G1 X92.719 Y127.562 E1.90405
G1 X92.277 Y127.412 E1.91227
G1 X91.664 Y127.16 E1.92396
G1 X91.265 Y126.968 E1.93176
G1 X90.692 Y126.65 E1.94331
G1 X90.305 Y126.403 E1.95141
G1 X89.77 Y126.015 E1.96306
G1 X89.417 Y125.725 E1.97111
G1 X88.933 Y125.276 E1.98275
G1 X88.624 Y124.954 E1.99062
G1 X88.198 Y124.454 E2.00219
G1 X87.919 Y124.082 E2.01039
G1 X87.555 Y123.53 E2.02205
G1 X87.326 Y123.133 E2.03013
G1 X87.032 Y122.543 E2.04175
G1 X86.857 Y122.134 E2.04959
G1 X86.634 Y121.514 E2.0612
G1 X86.504 Y121.069 E2.06938
G1 X86.358 Y120.426 E2.081
G1 X86.284 Y119.979 E2.08899
G1 X86.216 Y119.326 E2.10056
G1 X86.196 Y118.874 E2.10853
G1 X86.206 Y118.215 E2.12015
G1 X86.241 Y117.761 E2.12818
G1 X86.33 Y117.106 E2.13983
G1 X86.42 Y116.653 E2.14797
G1 X86.587 Y116.017 E2.15956
G1 X86.728 Y115.586 E2.16756
G1 X86.971 Y114.971 E2.17922
G1 X87.06 Y114.764 E2.18319
G1 X90.813 Y106.696 E2.34004
G1 X91.061 Y106.097 E2.35147
G1 X91.218 Y105.596 E2.36073
G1 X91.338 Y105.054 E2.37051
G1 X91.408 Y104.523 E2.37995
G1 X91.435 Y103.913 E2.39072
G1 X91.435 Y101.598 E2.43153
G1 X91.475 Y101.048 E2.44125
G1 X91.594 Y100.51 E2.45096
G1 X91.79 Y99.995 E2.46067
G1 X91.942 Y99.701 E2.46651
G1 X95.27 Y93.924 E2.58403
G1 X95.579 Y93.468 E2.59374
G1 X95.951 Y93.061 E2.60346
G0 F6000 X96.267 Y93.313
G1 F1200 X96.677 Y92.992 E2.61264
G1 X97.132 Y92.737 E2.62184
G1 X97.62 Y92.554 E2.63102
G1 X98.13 Y92.449 E2.6402
G1 X98.835 Y92.432 E2.65263
G1 X103.256 Y92.787 E2.73082
G1 X108.377 Y93.23 E2.82143
G1 X113.493 Y93.701 E2.91199
G1 X118.607 Y94.203 E3.00257
G1 X123.679 Y94.732 E3.09247
G1 X130.155 Y95.444 E3.20731
G1 X130.667 Y95.541 E3.2165
G1 X131.142 Y95.707 E3.22537
G1 X131.275 Y95.765 E3.22793
G1 X131.735 Y96.01 E3.23712
G1 X132.153 Y96.322 E3.24631
G1 X132.518 Y96.694 E3.2555
G1 X132.794 Y97.072 E3.26375
G1 X132.872 Y97.196 E3.26633
G1 X133.115 Y97.657 E3.27552
G1 X133.284 Y98.15 E3.2847
G1 X133.377 Y98.663 E3.29389
G1 X133.391 Y99.143 E3.30236
G1 X133.385 Y99.292 E3.30499
G1 X133.324 Y99.809 E3.31416
G1 X133.185 Y100.312 E3.32336
G1 X132.971 Y100.787 E3.33255
G1 X132.702 Y101.202 E3.34126
G1 X132.613 Y101.32 E3.34387
G1 X132.269 Y101.711 E3.35305
G1 X131.868 Y102.045 E3.36225
G1 X131.199 Y102.415 E3.37573
G1 X131.083 Y102.463 E3.37794
G1 X130.588 Y102.624 E3.38712
G1 X130.154 Y102.701 E3.39489
G1 X123.649 Y103.416 E3.51025
G1 X118.538 Y103.948 E3.60083
G1 X115.152 Y104.282 E3.66081
G1 X114.898 Y104.992 E3.6741
G1 X114.165 Y106.898 E3.7101
G1 X113.359 Y108.771 E3.74604
G1 X112.478 Y110.614 E3.78205
G1 X111.524 Y112.421 E3.81807
G1 X110.503 Y114.183 E3.85397
G1 X109.411 Y115.909 E3.88997
G1 X108.252 Y117.589 E3.92595
G1 X107.028 Y119.224 E3.96195
G1 X105.74 Y120.807 E3.99793
G1 X104.391 Y122.339 E4.03391
G1 X102.982 Y123.817 E4.06991
G1 X101.614 Y125.146 E4.10353
G1 X101.414 Y125.325 E4.10826
G1 X100.907 Y125.745 E4.11987
G1 X100.576 Y125.987 E4.12709
G1 X100.022 Y126.343 E4.1387
G1 X99.674 Y126.539 E4.14574
G1 X99.079 Y126.829 E4.15741
G1 X98.687 Y126.991 E4.16489
G1 X98.066 Y127.203 E4.17646
G1 X97.687 Y127.308 E4.18339
G1 X97.04 Y127.448 E4.19506
G1 X96.631 Y127.511 E4.20235
G1 X95.976 Y127.571 E4.21395
G1 X95.573 Y127.584 E4.22105
G1 X94.915 Y127.566 E4.23266
G1 X94.509 Y127.53 E4.23984
G1 X93.855 Y127.433 E4.2515
G1 X93.456 Y127.349 E4.25868
G1 X92.824 Y127.176 E4.27024
G1 X92.429 Y127.042 E4.27759
G1 X91.816 Y126.79 E4.28927
G1 X91.459 Y126.618 E4.29626
G1 X90.886 Y126.3 E4.30781
G1 X90.54 Y126.079 E4.31505
G1 X90.005 Y125.691 E4.3267
G1 X89.689 Y125.432 E4.3339
G1 X89.205 Y124.983 E4.34554
G1 X88.929 Y124.695 E4.35257
G1 X88.503 Y124.195 E4.36415
G1 X88.253 Y123.862 E4.37149
G1 X87.889 Y123.31 E4.38314
G1 X87.684 Y122.954 E4.39039
G1 X87.39 Y122.364 E4.40201
G1 X87.234 Y121.999 E4.409
G1 X87.011 Y121.379 E4.42062
G1 X86.894 Y120.981 E4.42793
G1 X86.748 Y120.338 E4.43955
G1 X86.682 Y119.937 E4.44672
G1 X86.614 Y119.284 E4.45829
G1 X86.596 Y118.88 E4.46542
G1 X86.606 Y118.221 E4.47704
G1 X86.637 Y117.815 E4.48421
G1 X86.726 Y117.16 E4.49587
G1 X86.806 Y116.755 E4.50314
G1 X86.973 Y116.119 E4.51474
G1 X87.1 Y115.733 E4.5219
G1 X87.343 Y115.118 E4.53356
G1 X87.422 Y114.933 E4.5371
G1 X91.188 Y106.838 E4.69449
G1 X91.437 Y106.237 E4.70595
G1 X91.606 Y105.694 E4.71598
G1 X91.73 Y105.135 E4.72607
G1 X91.806 Y104.56 E4.7363
G1 X91.835 Y103.908 E4.7478
G1 X91.835 Y101.598 E4.78852
G1 X91.875 Y101.078 E4.79771
G1 X91.994 Y100.571 E4.8069
G1 X92.289 Y99.901 E4.8198
G1 X95.617 Y94.124 E4.93733
G1 X95.911 Y93.693 E4.94652
G1 X96.267 Y93.313 E4.9557
G0 F6000 X96.582 Y93.568
G1 F1200 X96.974 Y93.276 E4.96432
G1 X97.409 Y93.052 E4.97294
G1 X97.875 Y92.901 E4.98158
G1 X98.359 Y92.828 E4.99021
G1 X98.803 Y92.831 E4.99803
G1 X103.224 Y93.186 E5.07622
G1 X108.342 Y93.628 E5.16677
G1 X113.456 Y94.1 E5.2573
G1 X118.568 Y94.601 E5.34785
G1 X123.637 Y95.13 E5.43769
G1 X130.111 Y95.842 E5.5525
G1 X130.591 Y95.935 E5.56112
G1 X130.982 Y96.074 E5.56844
G1 X131.115 Y96.132 E5.57099
G1 X131.546 Y96.364 E5.57962
G1 X131.934 Y96.662 E5.58825
G1 X132.268 Y97.02 E5.59688
G1 X132.455 Y97.285 E5.60259
G1 X132.533 Y97.409 E5.60518
G1 X132.759 Y97.843 E5.6138
G1 X132.912 Y98.308 E5.62243
G1 X132.986 Y98.792 E5.63106
G1 X132.992 Y99.127 E5.63697
G1 X132.986 Y99.276 E5.6396
G1 X132.926 Y99.762 E5.64823
G1 X132.788 Y100.231 E5.65685
G1 X132.576 Y100.672 E5.66547
G1 X132.383 Y100.961 E5.6716
G1 X132.294 Y101.079 E5.6742
G1 X131.968 Y101.445 E5.68284
G1 X131.588 Y101.753 E5.69147
G1 X131.046 Y102.045 E5.70232
G1 X130.93 Y102.093 E5.70453
G1 X130.464 Y102.243 E5.71316
G1 X130.111 Y102.303 E5.71947
G1 X123.606 Y103.018 E5.83483
G1 X118.497 Y103.55 E5.92538
G1 X114.87 Y103.912 E5.98964
G1 X114.782 Y104.13 E5.99378
G1 X114.525 Y104.849 E6.00724
G1 X113.798 Y106.74 E6.04295
G1 X112.998 Y108.599 E6.07863
G1 X112.124 Y110.428 E6.11436
G1 X111.178 Y112.221 E6.1501
G1 X110.164 Y113.969 E6.18572
G1 X109.081 Y115.683 E6.22146
G1 X107.932 Y117.35 E6.25715
G1 X106.717 Y118.972 E6.29288
G1 X105.44 Y120.543 E6.32856
G1 X104.101 Y122.063 E6.36427
G1 X102.703 Y123.53 E6.39999
G1 X101.335 Y124.859 E6.43361
G1 X101.159 Y125.017 E6.43778
G1 X100.652 Y125.437 E6.44939
G1 X100.36 Y125.651 E6.45577
G1 X99.806 Y126.007 E6.46738
G1 X99.498 Y126.18 E6.47361
G1 X98.903 Y126.47 E6.48528
G1 X98.558 Y126.612 E6.49185
G1 X97.937 Y126.824 E6.50342
G1 X97.602 Y126.917 E6.50955
G1 X96.955 Y127.057 E6.52122
G1 X96.595 Y127.112 E6.52764
G1 X95.94 Y127.172 E6.53923
G1 X95.584 Y127.184 E6.54551
G1 X94.926 Y127.166 E6.55711
G1 X94.568 Y127.135 E6.56345
G1 X93.914 Y127.038 E6.5751
G1 X93.562 Y126.964 E6.58144
G1 X92.93 Y126.791 E6.59299
G1 X92.581 Y126.672 E6.59949
G1 X91.968 Y126.42 E6.61118
G1 X91.653 Y126.268 E6.61734
G1 X91.08 Y125.95 E6.62889
G1 X90.775 Y125.756 E6.63527
G1 X90.24 Y125.368 E6.64692
G1 X89.961 Y125.138 E6.65329
G1 X89.477 Y124.689 E6.66493
G1 X89.233 Y124.436 E6.67112
G1 X88.807 Y123.936 E6.6827
G1 X88.587 Y123.642 E6.68918
G1 X88.223 Y123.09 E6.70083
G1 X88.042 Y122.776 E6.70722
G1 X87.748 Y122.186 E6.71884
G1 X87.61 Y121.863 E6.72503
G1 X87.387 Y121.243 E6.73665
G1 X87.284 Y120.892 E6.7431
G1 X87.138 Y120.249 E6.75472
G1 X87.08 Y119.896 E6.76103
G1 X87.012 Y119.243 E6.7726
G1 X86.996 Y118.886 E6.7789
G1 X87.006 Y118.227 E6.79052
G1 X87.033 Y117.869 E6.79685
G1 X87.122 Y117.214 E6.8085
G1 X87.193 Y116.856 E6.81493
G1 X87.36 Y116.22 E6.82652
G1 X87.472 Y115.88 E6.83283
G1 X87.715 Y115.265 E6.84449
G1 X87.785 Y115.102 E6.84762
G1 X91.558 Y106.992 E7.00529
G1 X91.807 Y106.39 E7.01678
G1 X91.993 Y105.795 E7.02777
G1 X92.127 Y105.193 E7.03864
G1 X92.206 Y104.595 E7.04927
G1 X92.235 Y103.926 E7.06107
G1 X92.235 Y101.598 E7.10211
G1 X92.275 Y101.11 E7.11074
G1 X92.394 Y100.635 E7.11938
G1 X92.635 Y100.1 E7.12972
G1 X95.963 Y94.323 E7.24724
G1 X96.242 Y93.921 E7.25587
G1 X96.582 Y93.568 E7.26451
G0 F6000 X96.894 Y93.828
G1 F1200 X97.267 Y93.567 E7.27254
G1 X97.681 Y93.375 E7.28058
G1 X98.121 Y93.259 E7.2886
G1 X98.771 Y93.229 E7.30007
G1 X103.192 Y93.584 E7.37825
G1 X108.308 Y94.027 E7.46878
G1 X113.42 Y94.498 E7.55927
G1 X118.529 Y94.999 E7.64976
G1 X123.596 Y95.528 E7.73957
G1 X130.067 Y96.24 E7.85433
G1 X130.514 Y96.329 E7.86236
G1 X130.822 Y96.441 E7.86814
G1 X130.955 Y96.499 E7.8707
G1 X131.355 Y96.717 E7.87873
G1 X131.711 Y97.001 E7.88676
G1 X132.117 Y97.498 E7.89807
G1 X132.195 Y97.622 E7.90065
G1 X132.403 Y98.027 E7.90868
G1 X132.537 Y98.463 E7.91672
G1 X132.592 Y99.111 E7.92818
G1 X132.586 Y99.26 E7.93081
G1 X132.528 Y99.712 E7.93884
G1 X132.392 Y100.146 E7.94686
G1 X132.064 Y100.721 E7.95853
G1 X131.975 Y100.839 E7.96114
G1 X131.67 Y101.177 E7.96916
G1 X131.31 Y101.457 E7.9772
G1 X130.893 Y101.675 E7.9855
G1 X130.777 Y101.723 E7.98771
G1 X130.342 Y101.86 E7.99575
G1 X130.067 Y101.905 E8.00066
G1 X123.562 Y102.62 E8.11602
G1 X118.455 Y103.152 E8.20653
G1 X114.936 Y103.499 E8.26887
G1 X114.777 Y103.522 E8.2717
G1 X114.703 Y103.548 E8.27308
G1 X114.62 Y103.599 E8.2748
G1 X114.58 Y103.633 E8.27572
G1 X114.522 Y103.711 E8.27744
G1 X114.401 Y104.007 E8.28307
G1 X114.151 Y104.706 E8.29616
G1 X113.43 Y106.583 E8.3316
G1 X112.636 Y108.427 E8.367
G1 X111.77 Y110.241 E8.40243
G1 X110.832 Y112.02 E8.43788
G1 X109.826 Y113.756 E8.47325
G1 X108.752 Y115.456 E8.5087
G1 X107.612 Y117.111 E8.54412
G1 X106.406 Y118.72 E8.57957
G1 X105.139 Y120.279 E8.61498
G1 X103.811 Y121.788 E8.65042
G1 X102.425 Y123.243 E8.68584
G1 X101.057 Y124.572 E8.71946
G1 X100.904 Y124.709 E8.72308
G1 X100.397 Y125.129 E8.73469
G1 X100.144 Y125.314 E8.74021
G1 X99.59 Y125.67 E8.75182
G1 X99.323 Y125.82 E8.75722
G1 X98.728 Y126.11 E8.76889
G1 X98.429 Y126.234 E8.77459
G1 X97.808 Y126.446 E8.78616
G1 X97.518 Y126.526 E8.79146
G1 X96.871 Y126.666 E8.80313
G1 X96.558 Y126.714 E8.80871
G1 X95.903 Y126.774 E8.82031
G1 X95.595 Y126.784 E8.82574
G1 X94.937 Y126.766 E8.83734
G1 X94.627 Y126.739 E8.84283
G1 X93.973 Y126.642 E8.85448
G1 X93.668 Y126.578 E8.85998
G1 X93.036 Y126.405 E8.87153
G1 X92.733 Y126.302 E8.87717
G1 X92.12 Y126.05 E8.88885
G1 X91.847 Y125.918 E8.8942
G1 X91.274 Y125.6 E8.90575
G1 X91.01 Y125.432 E8.91127
G1 X90.475 Y125.044 E8.92292
G1 X90.233 Y124.845 E8.92844
G1 X89.749 Y124.396 E8.94008
G1 X89.538 Y124.176 E8.94545
G1 X89.112 Y123.676 E8.95703
G1 X88.92 Y123.421 E8.96266
G1 X88.556 Y122.869 E8.97431
G1 X88.4 Y122.598 E8.97983
G1 X88.106 Y122.008 E8.99145
G1 X87.986 Y121.728 E8.99682
G1 X87.763 Y121.108 E9.00843
G1 X87.675 Y120.804 E9.01401
G1 X87.529 Y120.161 E9.02563
G1 X87.478 Y119.854 E9.03112
G1 X87.41 Y119.201 E9.04269
G1 X87.396 Y118.893 E9.04813
G1 X87.406 Y118.234 E9.05974
G1 X87.43 Y117.923 E9.06524
G1 X87.519 Y117.268 E9.0769
G1 X87.58 Y116.958 E9.08246
G1 X87.747 Y116.322 E9.09406
G1 X87.844 Y116.027 E9.09953
G1 X88.148 Y115.27 E9.11391
G1 X91.919 Y107.164 E9.27151
G1 X92.187 Y106.516 E9.28387
G1 X92.381 Y105.896 E9.29532
G1 X92.519 Y105.274 E9.30655
G1 X92.604 Y104.631 E9.31799
G1 X92.635 Y103.92 E9.33053
G1 X92.635 Y101.598 E9.37146
G1 X92.675 Y101.144 E9.3795
G1 X92.793 Y100.704 E9.38753
G1 X92.982 Y100.3 E9.39539
G1 X96.31 Y94.523 E9.51291
G1 X96.571 Y94.15 E9.52094
G1 X96.894 Y93.828 E9.52898
G0 F6000 X97.203 Y94.092
G1 F1200 X97.555 Y93.865 E9.53636
G1 X97.944 Y93.71 E9.54374
G1 X98.356 Y93.631 E9.55114
G1 X98.739 Y93.628 E9.55789
G1 X103.16 Y93.983 E9.63607
G1 X108.274 Y94.425 E9.72656
G1 X113.383 Y94.896 E9.817
G1 X118.49 Y95.398 E9.90746
G1 X123.554 Y95.926 E9.99721
G1 X130.023 Y96.637 E10.11193
G1 X130.434 Y96.722 E10.11933
G1 X130.662 Y96.807 E10.12362
G1 X130.795 Y96.865 E10.12618
G1 X131.162 Y97.069 E10.13358
G1 X131.483 Y97.338 E10.14096
G1 X131.778 Y97.711 E10.14935
G1 X131.856 Y97.835 E10.15193
G1 X132.045 Y98.209 E10.15932
G1 X132.158 Y98.612 E10.16669
G1 X132.192 Y99.095 E10.17523
G1 X132.186 Y99.244 E10.17786
G1 X132.13 Y99.659 E10.18524
G1 X131.995 Y100.056 E10.19263
G1 X131.744 Y100.48 E10.20132
G1 X131.655 Y100.598 E10.20392
G1 X131.372 Y100.907 E10.21131
G1 X131.036 Y101.156 E10.21868
G1 X130.74 Y101.306 E10.22453
G1 X130.624 Y101.354 E10.22674
G1 X130.023 Y101.508 E10.23768
G1 X123.518 Y102.223 E10.35304
G1 X118.414 Y102.754 E10.4435
G1 X114.881 Y103.103 E10.50608
G1 X114.7 Y103.129 E10.50931
G1 X114.621 Y103.15 E10.51075
G1 X114.535 Y103.184 E10.51238
G1 X114.454 Y103.228 E10.514
G1 X114.374 Y103.283 E10.51571
G1 X114.296 Y103.351 E10.51754
G1 X114.177 Y103.506 E10.52098
G1 X114.024 Y103.872 E10.52797
G1 X113.778 Y104.563 E10.5409
G1 X113.063 Y106.425 E10.57606
G1 X112.275 Y108.255 E10.61119
G1 X111.416 Y110.055 E10.64634
G1 X110.486 Y111.82 E10.68151
G1 X109.488 Y113.543 E10.71661
G1 X108.422 Y115.229 E10.75178
G1 X107.291 Y116.871 E10.78692
