;FLAVOR:Marlin
;TIME:2816
;Filament used: 1.17269m
;Layer height: 0.25
;MINX:101.084
;MINY:73.382
;MINZ:0.2
;MAXX:118.917
;MAXY:146.593
;MAXZ:134.45
;Generated with Cura_SteamEngine 4.6.1
M140 S60
M105
M190 S60
M104 S235
M105
M109 S235
M82 ;absolute extrusion mode
; Ender 3 Custom Start G-code
G92 E0 ; Reset Extruder
G28 ; Home all axes
G1 Z2.0 F3000 ; Move Z Axis up little to prevent scratching of Heat Bed
G1 X0.1 Y20 Z0.3 F5000.0 ; Move to start position
G1 X0.1 Y200.0 Z0.3 F1500.0 E15 ; Draw the first line
G1 X0.4 Y200.0 Z0.3 F5000.0 ; Move to side a little
G1 X0.4 Y20 Z0.3 F1500.0 E30 ; Draw the second line
G92 E0 ; Reset Extruder
G1 Z2.0 F3000 ; Move Z Axis up little to prevent scratching of Heat Bed
G1 X5 Y20 Z0.3 F5000.0 ; Move over to prevent blob squish
G92 E0
G92 E0
G1 F3000 E-1
;LAYER_COUNT:538
;LAYER:0
M107
G0 F6000 X103.393 Y74.871 Z0.2
;TYPE:SKIRT
G1 F3000 E0.20788
G1 F1200 X103.759 Y74.459 E0.21759
G1 X104.181 Y74.104 E0.22731
G1 X104.649 Y73.814 E0.23702
G1 X105.155 Y73.595 E0.24674
G1 X105.687 Y73.451 E0.25645
G1 X106.41 Y73.382 E0.26925
G1 X113.59 Y73.382 E0.39582
G1 X114.14 Y73.422 E0.40554
G1 X114.678 Y73.541 E0.41526
G1 X115.193 Y73.737 E0.42497
G1 X115.674 Y74.005 E0.43468
G1 X116.112 Y74.339 E0.44439
G1 X116.496 Y74.734 E0.4541
G1 X116.82 Y75.18 E0.46381
G1 X117.075 Y75.668 E0.47352
G1 X117.258 Y76.188 E0.48324
G1 X117.38 Y76.902 E0.49601
G1 X117.512 Y78.688 E0.52758
G1 X117.861 Y83.827 E0.61837
G1 X118.176 Y88.975 E0.70929
G1 X118.447 Y94.189 E0.80133
G1 X118.636 Y98.568 E0.87859
G1 X118.784 Y102.952 E0.95592
G1 X118.875 Y106.966 E1.02669
G1 X118.917 Y110.931 E1.09659
G1 X118.909 Y114.217 E1.15452
G1 X118.859 Y117.551 E1.2133
G1 X118.769 Y120.658 E1.26809
G1 X118.621 Y123.758 E1.3228
G1 X118.485 Y125.89 E1.36046
G1 X118.311 Y128.156 E1.40052
G1 X118.107 Y130.303 E1.43854
G1 X117.981 Y131.413 E1.45823
G1 X117.724 Y133.302 E1.49183
G1 X117.378 Y135.46 E1.53036
G1 X117.122 Y136.85 E1.55528
G1 X116.957 Y137.625 E1.56924
G1 X116.646 Y138.869 E1.59185
G1 X116.347 Y139.898 E1.61074
G1 X115.952 Y141.11 E1.63321
G1 X115.739 Y141.691 E1.64412
G1 X115.66 Y141.89 E1.64789
G1 X115.454 Y142.367 E1.65705
G1 X115.343 Y142.6 E1.6616
G1 X115.102 Y143.068 E1.67088
G1 X114.963 Y143.315 E1.67587
G1 X114.744 Y143.672 E1.68326
G1 X114.564 Y143.939 E1.68893
G1 X114.315 Y144.277 E1.69633
G1 X114.086 Y144.559 E1.70274
G1 X113.87 Y144.8 E1.70844
G1 X113.574 Y145.096 E1.71582
G1 X113.336 Y145.309 E1.72145
G1 X112.935 Y145.622 E1.73042
G1 X112.708 Y145.776 E1.73526
G1 X112.109 Y146.108 E1.74733
G1 X111.862 Y146.217 E1.75209
G1 X111.343 Y146.402 E1.7618
G1 X110.945 Y146.49 E1.76899
G1 X110.617 Y146.544 E1.77484
G1 X110.069 Y146.593 E1.78454
G1 X109.518 Y146.563 E1.79427
G1 X109.162 Y146.5 E1.80064
G1 X108.711 Y146.398 E1.80879
G1 X108.184 Y146.238 E1.8185
G1 X107.568 Y145.935 E1.8306
G1 X107.221 Y145.723 E1.83777
G1 X106.687 Y145.328 E1.84948
G1 X106.439 Y145.109 E1.85531
G1 X106.105 Y144.775 E1.86364
G1 X105.895 Y144.537 E1.86924
G1 X105.685 Y144.277 E1.87513
G1 X105.436 Y143.939 E1.88253
G1 X105.256 Y143.672 E1.8882
G1 X105.04 Y143.32 E1.89548
G1 X104.902 Y143.075 E1.90044
G1 X104.658 Y142.602 E1.90982
G1 X104.544 Y142.36 E1.91454
G1 X104.342 Y141.89 E1.92356
G1 X104.268 Y141.705 E1.92707
G1 X104.003 Y140.979 E1.94069
G1 X103.635 Y139.835 E1.96188
G1 X103.331 Y138.773 E1.98135
G1 X103.026 Y137.537 E2.00379
G1 X102.864 Y136.776 E2.01751
G1 X102.612 Y135.402 E2.04213
G1 X102.258 Y133.18 E2.08179
G1 X102.019 Y131.394 E2.11356
G1 X101.89 Y130.266 E2.13357
G1 X101.686 Y128.118 E2.17161
G1 X101.52 Y125.967 E2.20964
G1 X101.371 Y123.64 E2.25074
G1 X101.226 Y120.531 E2.30561
G1 X101.135 Y117.387 E2.36105
G1 X101.09 Y114.207 E2.41711
G1 X101.084 Y110.869 E2.47595
G1 X101.126 Y106.955 E2.54495
G1 X101.219 Y102.884 E2.61674
G1 X101.366 Y98.495 E2.69415
G1 X101.559 Y94.057 E2.77245
G1 X101.828 Y88.9 E2.86349
G1 X102.144 Y83.743 E2.95456
G1 X102.493 Y78.642 E3.04469
G1 X102.62 Y76.904 E3.07541
G1 X102.7 Y76.359 E3.08512
G1 X102.858 Y75.831 E3.09484
G1 X103.091 Y75.332 E3.10455
G1 X103.393 Y74.871 E3.11426
G0 F6000 X103.781 Y75.026
G1 F1200 X104.141 Y74.649 E3.12345
G1 X104.555 Y74.333 E3.13263
G1 X105.012 Y74.083 E3.14181
G1 X105.503 Y73.905 E3.15102
G1 X106.014 Y73.805 E3.1602
G1 X106.41 Y73.782 E3.16719
G1 X113.59 Y73.782 E3.29376
G1 X114.11 Y73.822 E3.30295
G1 X114.617 Y73.941 E3.31213
G1 X115.1 Y74.136 E3.32131
G1 X115.548 Y74.402 E3.3305
G1 X115.95 Y74.734 E3.33969
G1 X116.296 Y75.124 E3.34888
G1 X116.579 Y75.562 E3.35807
G1 X116.792 Y76.037 E3.36725
G1 X116.929 Y76.54 E3.37644
G1 X116.981 Y76.931 E3.38339
G1 X117.113 Y78.717 E3.41496
G1 X117.462 Y83.854 E3.50572
G1 X117.777 Y89 E3.59661
G1 X118.047 Y94.21 E3.68857
G1 X118.237 Y98.585 E3.76577
G1 X118.384 Y102.966 E3.84304
G1 X118.475 Y106.975 E3.91373
G1 X118.517 Y110.935 E3.98354
G1 X118.509 Y114.216 E4.04137
G1 X118.461 Y117.491 E4.09911
G1 X118.369 Y120.639 E4.15463
G1 X118.222 Y123.732 E4.20921
G1 X118.086 Y125.864 E4.24687
G1 X117.913 Y128.119 E4.28674
G1 X117.71 Y130.259 E4.32463
G1 X117.584 Y131.359 E4.34415
G1 X117.329 Y133.239 E4.37759
G1 X116.985 Y135.388 E4.41596
G1 X116.73 Y136.768 E4.44069
G1 X116.569 Y137.528 E4.45439
G1 X116.261 Y138.758 E4.47674
G1 X115.966 Y139.775 E4.49541
G1 X115.576 Y140.972 E4.5176
G1 X115.363 Y141.553 E4.52851
G1 X115.292 Y141.731 E4.53189
G1 X115.086 Y142.208 E4.54105
G1 X114.988 Y142.417 E4.54511
G1 X114.747 Y142.885 E4.55439
G1 X114.622 Y143.106 E4.55887
G1 X114.403 Y143.463 E4.56625
G1 X114.242 Y143.702 E4.57133
G1 X113.993 Y144.04 E4.57873
G1 X113.788 Y144.292 E4.58446
G1 X113.572 Y144.533 E4.59016
G1 X113.307 Y144.798 E4.59677
G1 X113.069 Y145.011 E4.6024
G1 X112.711 Y145.291 E4.61041
G1 X112.484 Y145.445 E4.61525
G1 X111.948 Y145.742 E4.62605
G1 X111.701 Y145.851 E4.63081
G1 X111.209 Y146.024 E4.64
G1 X110.88 Y146.095 E4.64594
G1 X110.552 Y146.149 E4.6518
G1 X110.033 Y146.194 E4.66098
G1 X109.513 Y146.159 E4.67017
G1 X109.25 Y146.11 E4.67488
G1 X108.799 Y146.008 E4.68303
G1 X108.301 Y145.855 E4.69222
G1 X107.776 Y145.593 E4.70256
G1 X107.429 Y145.381 E4.70973
G1 X106.951 Y145.029 E4.72019
G1 X106.703 Y144.81 E4.72602
G1 X106.405 Y144.511 E4.73347
G1 X106.195 Y144.273 E4.73906
G1 X106.007 Y144.04 E4.74434
G1 X105.758 Y143.702 E4.75174
G1 X105.597 Y143.463 E4.75682
G1 X105.381 Y143.111 E4.7641
G1 X105.257 Y142.892 E4.76854
G1 X105.013 Y142.419 E4.77792
G1 X104.911 Y142.203 E4.78213
G1 X104.643 Y141.567 E4.79429
G1 X104.384 Y140.856 E4.80763
G1 X104.019 Y139.723 E4.82862
G1 X103.719 Y138.677 E4.8478
G1 X103.417 Y137.453 E4.87002
G1 X103.257 Y136.704 E4.88352
G1 X103.007 Y135.338 E4.908
G1 X102.654 Y133.126 E4.94749
G1 X102.416 Y131.348 E4.97911
G1 X102.288 Y130.228 E4.99898
G1 X102.085 Y128.088 E5.03688
G1 X101.919 Y125.937 E5.07491
G1 X101.771 Y123.621 E5.11582
G1 X101.625 Y120.52 E5.17054
G1 X101.535 Y117.381 E5.2259
G1 X101.49 Y114.201 E5.28196
G1 X101.484 Y110.868 E5.34071
G1 X101.526 Y106.959 E5.40962
G1 X101.619 Y102.893 E5.48132
G1 X101.766 Y98.509 E5.55864
G1 X101.958 Y94.075 E5.63688
G1 X102.228 Y88.92 E5.72787
G1 X102.543 Y83.768 E5.81886
G1 X102.892 Y78.669 E5.90896
G1 X103.019 Y76.933 E5.93964
G1 X103.097 Y76.418 E5.94882
G1 X103.253 Y75.921 E5.958
G1 X103.482 Y75.453 E5.96719
G1 X103.781 Y75.026 E5.97638
G0 F6000 X104.168 Y75.189
G1 F1200 X104.522 Y74.851 E5.98501
G1 X104.926 Y74.575 E5.99363
G1 X105.369 Y74.368 E6.00225
G1 X105.841 Y74.236 E6.01089
G1 X106.41 Y74.182 E6.02097
G1 X113.59 Y74.182 E6.14753
G1 X114.078 Y74.222 E6.15617
G1 X114.553 Y74.341 E6.1648
G1 X115.002 Y74.535 E6.17342
G1 X115.414 Y74.8 E6.18205
G1 X115.777 Y75.128 E6.19068
G1 X116.082 Y75.511 E6.19931
G1 X116.32 Y75.939 E6.20794
G1 X116.486 Y76.399 E6.21656
G1 X116.582 Y76.961 E6.22661
G1 X116.714 Y78.747 E6.25818
G1 X117.063 Y83.881 E6.34889
G1 X117.377 Y89.024 E6.43972
G1 X117.648 Y94.23 E6.53162
G1 X117.837 Y98.602 E6.60876
G1 X117.984 Y102.979 E6.68596
G1 X118.075 Y106.984 E6.75658
G1 X118.117 Y110.94 E6.82632
G1 X118.109 Y114.215 E6.88405
G1 X118.061 Y117.486 E6.94171
G1 X117.97 Y120.62 E6.99698
G1 X117.826 Y123.658 E7.0506
G1 X117.687 Y125.839 E7.08912
G1 X117.515 Y128.081 E7.12876
G1 X117.312 Y130.214 E7.16653
G1 X117.188 Y131.306 E7.1859
G1 X116.934 Y133.175 E7.21915
G1 X116.592 Y135.315 E7.25735
G1 X116.339 Y136.686 E7.28193
G1 X116.181 Y137.432 E7.29537
G1 X115.877 Y138.647 E7.31745
G1 X115.585 Y139.652 E7.3359
G1 X115.201 Y140.835 E7.35782
G1 X114.988 Y141.416 E7.36873
G1 X114.925 Y141.572 E7.3717
G1 X114.719 Y142.049 E7.38086
G1 X114.632 Y142.233 E7.38445
G1 X114.391 Y142.701 E7.39372
G1 X114.281 Y142.897 E7.39769
G1 X114.062 Y143.254 E7.40507
G1 X113.92 Y143.464 E7.40954
G1 X113.671 Y143.802 E7.41694
G1 X113.49 Y144.025 E7.422
G1 X113.274 Y144.266 E7.42771
G1 X113.041 Y144.499 E7.43352
G1 X112.803 Y144.712 E7.43915
G1 X112.486 Y144.96 E7.44624
G1 X112.259 Y145.114 E7.45108
G1 X111.786 Y145.376 E7.46061
G1 X111.539 Y145.485 E7.46537
G1 X111.077 Y145.645 E7.47399
G1 X110.815 Y145.7 E7.4787
G1 X110.487 Y145.754 E7.48456
G1 X109.999 Y145.794 E7.4932
G1 X109.338 Y145.72 E7.50492
G1 X108.887 Y145.618 E7.51307
G1 X108.42 Y145.472 E7.5217
G1 X107.985 Y145.252 E7.53029
G1 X107.638 Y145.04 E7.53746
G1 X107.216 Y144.729 E7.5467
G1 X106.968 Y144.51 E7.55253
G1 X106.704 Y144.246 E7.55911
G1 X106.494 Y144.008 E7.56471
G1 X106.329 Y143.802 E7.56936
G1 X106.08 Y143.464 E7.57676
G1 X105.938 Y143.254 E7.58123
G1 X105.722 Y142.902 E7.58851
G1 X105.613 Y142.708 E7.59243
G1 X105.369 Y142.235 E7.60181
G1 X105.279 Y142.045 E7.60552
G1 X105.018 Y141.428 E7.61733
G1 X104.764 Y140.733 E7.63037
G1 X104.404 Y139.612 E7.65113
G1 X104.107 Y138.58 E7.67006
G1 X103.808 Y137.369 E7.69205
G1 X103.651 Y136.631 E7.70535
G1 X103.402 Y135.275 E7.72965
G1 X103.051 Y133.073 E7.76896
G1 X102.814 Y131.303 E7.80044
G1 X102.687 Y130.19 E7.82018
G1 X102.484 Y128.057 E7.85795
G1 X102.318 Y125.906 E7.89598
G1 X102.17 Y123.602 E7.93668
G1 X102.025 Y120.508 E7.99128
G1 X101.936 Y117.419 E8.04576
G1 X101.89 Y114.195 E8.1026
G1 X101.884 Y110.867 E8.16126
G1 X101.926 Y106.963 E8.23009
G1 X102.019 Y102.902 E8.30169
G1 X102.166 Y98.522 E8.37894
G1 X102.358 Y94.092 E8.45711
G1 X102.627 Y88.941 E8.54803
G1 X102.943 Y83.792 E8.63897
G1 X103.291 Y78.696 E8.72901
G1 X103.418 Y76.963 E8.75964
G1 X103.494 Y76.479 E8.76828
G1 X103.647 Y76.014 E8.77691
G1 X103.873 Y75.58 E8.78553
G1 X104.168 Y75.189 E8.79417
G0 F6000 X104.263 Y75.715
G1 F1200 X104.553 Y75.363 E8.80221
G1 X104.899 Y75.066 E8.81025
G1 X105.291 Y74.835 E8.81827
G1 X105.718 Y74.676 E8.8263
G1 X106.166 Y74.593 E8.83433
G1 X106.41 Y74.582 E8.83864
G1 X113.59 Y74.582 E8.9652
G1 X114.044 Y74.622 E8.97324
G1 X114.484 Y74.74 E8.98127
G1 X114.896 Y74.934 E8.9893
G1 X115.269 Y75.197 E8.99734
G1 X115.59 Y75.52 E9.00537
G1 X115.849 Y75.895 E9.0134
G1 X116.039 Y76.309 E9.02143
G1 X116.154 Y76.75 E9.02947
G1 X116.183 Y76.99 E9.03373
G1 X116.315 Y78.776 E9.0653
G1 X116.664 Y83.909 E9.15599
G1 X116.978 Y89.048 E9.24675
G1 X117.248 Y94.251 E9.33859
G1 X117.438 Y98.62 E9.41568
G1 X117.585 Y102.993 E9.49281
G1 X117.675 Y106.993 E9.56334
G1 X117.717 Y110.944 E9.63299
G1 X117.709 Y114.214 E9.69063
G1 X117.661 Y117.48 E9.74821
G1 X117.572 Y120.553 E9.8024
G1 X117.426 Y123.639 E9.85687
G1 X117.288 Y125.814 E9.89528
G1 X117.12 Y127.997 E9.93388
G1 X116.919 Y130.122 E9.9715
G1 X116.792 Y131.252 E9.99155
G1 X116.539 Y133.112 E10.02464
G1 X116.198 Y135.243 E10.06268
G1 X115.947 Y136.604 E10.08708
G1 X115.793 Y137.336 E10.10026
G1 X115.493 Y138.536 E10.12207
G1 X115.205 Y139.529 E10.14029
G1 X114.825 Y140.697 E10.16195
G1 X114.558 Y141.414 E10.17543
G1 X114.352 Y141.891 E10.18459
G1 X114.277 Y142.05 E10.18769
G1 X114.036 Y142.518 E10.19697
G1 X113.94 Y142.688 E10.20041
G1 X113.721 Y143.045 E10.2078
G1 X113.598 Y143.227 E10.21167
G1 X113.349 Y143.565 E10.21907
G1 X113.192 Y143.758 E10.22345
G1 X112.976 Y143.999 E10.22916
G1 X112.774 Y144.201 E10.23419
G1 X112.536 Y144.414 E10.23982
G1 X112.262 Y144.629 E10.24596
G1 X112.035 Y144.783 E10.2508
G1 X111.625 Y145.01 E10.25906
G1 X111.378 Y145.119 E10.26382
G1 X110.75 Y145.305 E10.27537
G1 X110.422 Y145.359 E10.28123
G1 X109.968 Y145.394 E10.28925
G1 X109.426 Y145.33 E10.29887
G1 X108.975 Y145.228 E10.30702
G1 X108.542 Y145.089 E10.31504
G1 X108.193 Y144.911 E10.32195
G1 X107.846 Y144.699 E10.32911
G1 X107.481 Y144.429 E10.33712
G1 X107.233 Y144.21 E10.34295
G1 X107.004 Y143.981 E10.34866
G1 X106.794 Y143.743 E10.35425
G1 X106.651 Y143.565 E10.35828
G1 X106.402 Y143.227 E10.36568
G1 X106.279 Y143.045 E10.36955
G1 X106.063 Y142.693 E10.37683
G1 X105.968 Y142.525 E10.38023
G1 X105.724 Y142.052 E10.38962
G1 X105.646 Y141.887 E10.39283
G1 X105.394 Y141.29 E10.40426
G1 X105.145 Y140.61 E10.41702
G1 X104.788 Y139.501 E10.43756
G1 X104.495 Y138.484 E10.45622
G1 X104.199 Y137.284 E10.478
G1 X104.044 Y136.559 E10.49107
G1 X103.797 Y135.212 E10.51521
G1 X103.447 Y133.02 E10.55434
G1 X103.211 Y131.257 E10.5857
G1 X103.085 Y130.152 E10.6053
G1 X102.887 Y128.072 E10.64213
G1 X102.717 Y125.875 E10.68098
G1 X102.572 Y123.627 E10.72069
G1 X102.427 Y120.544 E10.7751
G1 X102.336 Y117.408 E10.8304
G1 X102.29 Y114.19 E10.88713
G1 X102.284 Y110.867 E10.94571
G1 X102.326 Y106.968 E11.01444
G1 X102.419 Y102.912 E11.08596
G1 X102.565 Y98.536 E11.16314
G1 X102.757 Y94.109 E11.24126
G1 X103.027 Y88.962 E11.33211
G1 X103.342 Y83.817 E11.42298
G1 X103.69 Y78.724 E11.51297
G1 X103.817 Y76.992 E11.54358
G1 X103.89 Y76.542 E11.55161
G1 X104.04 Y76.112 E11.55964
G1 X104.263 Y75.715 E11.56767
G0 F6000 X104.653 Y75.859
G1 F1200 X104.935 Y75.549 E11.57506
G1 X105.272 Y75.299 E11.58245
G1 X105.649 Y75.118 E11.58983
G1 X106.055 Y75.011 E11.59723
G1 X106.41 Y74.982 E11.60351
G1 X113.59 Y74.982 E11.73007
G1 X114.007 Y75.022 E11.73746
G1 X114.409 Y75.14 E11.74484
G1 X114.781 Y75.333 E11.75223
G1 X115.11 Y75.592 E11.75961
G1 X115.384 Y75.909 E11.767
G1 X115.593 Y76.272 E11.77438
G1 X115.729 Y76.669 E11.78178
G1 X115.784 Y77.02 E11.78804
G1 X115.916 Y78.806 E11.81961
G1 X116.265 Y83.936 E11.91025
G1 X116.579 Y89.073 E12.00098
G1 X116.849 Y94.272 E12.09275
G1 X117.038 Y98.637 E12.16976
G1 X117.185 Y103.006 E12.24682
G1 X117.275 Y107.002 E12.31728
G1 X117.317 Y110.948 E12.38685
G1 X117.309 Y114.213 E12.4444
G1 X117.261 Y117.474 E12.50189
G1 X117.172 Y120.542 E12.556
G1 X117.027 Y123.62 E12.61032
G1 X116.889 Y125.788 E12.64861
G1 X116.722 Y127.966 E12.68712
G1 X116.521 Y130.085 E12.72464
G1 X116.401 Y131.151 E12.74355
G1 X116.144 Y133.049 E12.77731
G1 X115.805 Y135.171 E12.81519
G1 X115.556 Y136.523 E12.83943
G1 X115.404 Y137.239 E12.85233
G1 X115.109 Y138.425 E12.87387
G1 X114.824 Y139.406 E12.89188
G1 X114.45 Y140.559 E12.91325
G1 X114.191 Y141.255 E12.92634
G1 X113.985 Y141.732 E12.9355
G1 X113.921 Y141.867 E12.93813
G1 X113.68 Y142.335 E12.94741
G1 X113.599 Y142.478 E12.95031
G1 X113.38 Y142.835 E12.95769
G1 X113.276 Y142.99 E12.96098
G1 X113.027 Y143.328 E12.96838
G1 X112.894 Y143.491 E12.97209
G1 X112.678 Y143.732 E12.97779
G1 X112.507 Y143.903 E12.98206
G1 X112.269 Y144.116 E12.98769
G1 X112.037 Y144.298 E12.99289
G1 X111.81 Y144.452 E12.99772
G1 X111.463 Y144.644 E13.00471
G1 X111.216 Y144.753 E13.00947
G1 X110.685 Y144.911 E13.01924
G1 X110.357 Y144.965 E13.0251
G1 X109.939 Y144.993 E13.03248
G1 X109.515 Y144.94 E13.04001
G1 X109.064 Y144.838 E13.04817
G1 X108.666 Y144.707 E13.05555
G1 X108.402 Y144.569 E13.0608
G1 X108.055 Y144.357 E13.06797
G1 X107.746 Y144.129 E13.07474
G1 X107.498 Y143.91 E13.08057
G1 X107.304 Y143.717 E13.0854
G1 X107.094 Y143.479 E13.09099
G1 X106.973 Y143.328 E13.0944
