;FLAVOR:Marlin
;TIME:3386
;Filament used: 0.824953m
;Layer height: 0.15
;MINX:87.608
;MINY:87.608
;MINZ:0.2
;MAXX:132.392
;MAXY:132.392
;MAXZ:10.4
;Generated with Cura_SteamEngine 4.6.1
M140 S60
M105
M190 S60
M104 S230
M105
M109 S230
M82 ;absolute extrusion mode
; Ender 3 Custom Start G-code
G92 E0 ; Reset Extruder
G28 ; Home all axes
G1 Z2.0 F3000 ; Move Z Axis up little to prevent scratching of Heat Bed
G1 X0.1 Y20 Z0.3 F5000.0 ; Move to start position
G1 X0.1 Y200.0 Z0.3 F1500.0 E15 ; Draw the first line
G1 X0.4 Y200.0 Z0.3 F5000.0 ; Move to side a little
G1 X0.4 Y20 Z0.3 F1500.0 E30 ; Draw the second line
G92 E0 ; Reset Extruder
G1 Z2.0 F3000 ; Move Z Axis up little to prevent scratching of Heat Bed
G1 X5 Y20 Z0.3 F5000.0 ; Move over to prevent blob squish
G92 E0
G92 E0
G1 F1500 E-1
;LAYER_COUNT:69
;LAYER:0
M107
G0 F6000 X94.541 Y93.8 Z0.2
;TYPE:SKIRT
G1 F1500 E0
G1 F1200 X94.712 Y93.638 E0.00415
G1 X95.585 Y92.863 E0.02473
G1 X95.773 Y92.707 E0.02904
G1 X96.695 Y91.989 E0.04964
G1 X96.885 Y91.85 E0.05379
G1 X97.85 Y91.19 E0.0744
G1 X98.051 Y91.062 E0.0786
G1 X99.054 Y90.465 E0.09917
G1 X99.265 Y90.348 E0.10343
G1 X100.305 Y89.815 E0.12403
G1 X100.519 Y89.714 E0.1282
G1 X101.59 Y89.247 E0.14879
G1 X101.812 Y89.158 E0.15301
G1 X102.911 Y88.759 E0.17362
G1 X103.141 Y88.684 E0.17788
G1 X104.262 Y88.356 E0.19847
G1 X104.482 Y88.299 E0.20248
G1 X105.619 Y88.039 E0.22304
G1 X105.868 Y87.99 E0.22751
G1 X107.023 Y87.806 E0.24813
G1 X107.254 Y87.777 E0.25223
G1 X108.417 Y87.664 E0.27283
G1 X108.654 Y87.648 E0.27702
G1 X109.82 Y87.608 E0.29759
G1 X110.061 Y87.608 E0.30183
G1 X111.229 Y87.642 E0.32243
G1 X111.463 Y87.656 E0.32656
G1 X112.625 Y87.762 E0.34713
G1 X112.865 Y87.791 E0.35139
G1 X114.021 Y87.971 E0.37202
G1 X114.259 Y88.016 E0.37629
G1 X115.4 Y88.269 E0.39689
G1 X115.626 Y88.327 E0.401
G1 X116.747 Y88.649 E0.42156
G1 X116.973 Y88.721 E0.42574
G1 X118.074 Y89.113 E0.44635
G1 X118.3 Y89.202 E0.45063
G1 X119.372 Y89.663 E0.4712
G1 X119.585 Y89.762 E0.47534
G1 X120.63 Y90.29 E0.49598
G1 X120.843 Y90.407 E0.50026
G1 X121.849 Y90.999 E0.52084
G1 X122.049 Y91.125 E0.525
G1 X123.017 Y91.779 E0.5456
G1 X123.211 Y91.92 E0.54982
G1 X124.135 Y92.633 E0.5704
G1 X124.32 Y92.784 E0.57461
G1 X125.198 Y93.554 E0.59519
G1 X125.372 Y93.717 E0.5994
G1 X126.2 Y94.541 E0.61999
G1 X126.362 Y94.712 E0.62414
G1 X127.137 Y95.585 E0.64472
G1 X127.293 Y95.773 E0.64903
G1 X128.011 Y96.695 E0.66963
G1 X128.15 Y96.885 E0.67378
G1 X128.81 Y97.85 E0.69438
G1 X128.938 Y98.051 E0.69858
G1 X129.535 Y99.054 E0.71916
G1 X129.652 Y99.265 E0.72341
G1 X130.185 Y100.305 E0.74401
G1 X130.286 Y100.519 E0.74819
G1 X130.753 Y101.59 E0.76878
G1 X130.841 Y101.811 E0.77297
G1 X131.24 Y102.909 E0.79357
G1 X131.316 Y103.141 E0.79787
G1 X131.644 Y104.263 E0.81848
G1 X131.701 Y104.482 E0.82247
G1 X131.961 Y105.619 E0.84303
G1 X132.01 Y105.868 E0.8475
G1 X132.194 Y107.022 E0.8681
G1 X132.223 Y107.253 E0.8722
G1 X132.336 Y108.416 E0.8928
G1 X132.352 Y108.653 E0.89699
G1 X132.392 Y109.819 E0.91756
G1 X132.392 Y110.059 E0.92179
G1 X132.358 Y111.228 E0.9424
G1 X132.344 Y111.463 E0.94655
G1 X132.238 Y112.625 E0.96712
G1 X132.209 Y112.865 E0.97138
G1 X132.029 Y114.021 E0.99201
G1 X131.984 Y114.259 E0.99628
G1 X131.731 Y115.4 E1.01688
G1 X131.673 Y115.626 E1.02099
G1 X131.351 Y116.747 E1.04155
G1 X131.279 Y116.973 E1.04573
G1 X130.887 Y118.074 E1.06633
G1 X130.798 Y118.3 E1.07062
G1 X130.337 Y119.372 E1.09119
G1 X130.238 Y119.583 E1.09529
G1 X129.711 Y120.627 E1.11591
G1 X129.593 Y120.843 E1.12025
G1 X129 Y121.85 E1.14085
G1 X128.875 Y122.049 E1.14499
G1 X128.221 Y123.017 E1.16558
G1 X128.08 Y123.211 E1.16981
G1 X127.367 Y124.135 E1.19039
G1 X127.216 Y124.32 E1.1946
G1 X126.446 Y125.198 E1.21518
G1 X126.283 Y125.372 E1.21938
G1 X125.459 Y126.2 E1.23998
G1 X125.288 Y126.362 E1.24413
G1 X124.415 Y127.137 E1.26471
G1 X124.227 Y127.293 E1.26901
G1 X123.305 Y128.011 E1.28961
G1 X123.115 Y128.15 E1.29376
G1 X122.15 Y128.81 E1.31437
G1 X121.949 Y128.938 E1.31857
G1 X120.946 Y129.535 E1.33915
G1 X120.735 Y129.652 E1.3434
G1 X119.695 Y130.185 E1.364
G1 X119.481 Y130.286 E1.36817
G1 X118.41 Y130.753 E1.38877
G1 X118.188 Y130.842 E1.39299
G1 X117.089 Y131.241 E1.4136
G1 X116.859 Y131.316 E1.41786
G1 X115.738 Y131.644 E1.43845
G1 X115.518 Y131.701 E1.44246
G1 X114.381 Y131.961 E1.46302
G1 X114.132 Y132.01 E1.46749
G1 X112.977 Y132.194 E1.48811
G1 X112.746 Y132.223 E1.49221
G1 X111.583 Y132.336 E1.51281
G1 X111.346 Y132.352 E1.517
G1 X110.18 Y132.392 E1.53756
G1 X109.939 Y132.392 E1.54181
G1 X108.771 Y132.358 E1.56241
G1 X108.537 Y132.344 E1.56654
G1 X107.375 Y132.238 E1.58711
G1 X107.135 Y132.209 E1.59137
G1 X105.979 Y132.029 E1.61199
G1 X105.741 Y131.984 E1.61626
G1 X104.6 Y131.731 E1.63687
G1 X104.374 Y131.673 E1.64098
G1 X103.253 Y131.351 E1.66154
G1 X103.027 Y131.279 E1.66572
G1 X101.926 Y130.887 E1.68632
G1 X101.7 Y130.798 E1.6906
G1 X100.628 Y130.337 E1.71117
G1 X100.415 Y130.238 E1.71531
G1 X99.37 Y129.71 E1.73595
G1 X99.157 Y129.593 E1.74024
G1 X98.151 Y129.001 E1.76081
G1 X97.95 Y128.874 E1.765
G1 X96.981 Y128.219 E1.78562
G1 X96.788 Y128.079 E1.78982
G1 X95.864 Y127.366 E1.8104
G1 X95.679 Y127.215 E1.81461
G1 X94.801 Y126.445 E1.83519
G1 X94.627 Y126.282 E1.8394
G1 X93.799 Y125.458 E1.85999
G1 X93.637 Y125.287 E1.86414
G1 X92.862 Y124.414 E1.88472
G1 X92.706 Y124.226 E1.88903
G1 X91.988 Y123.304 E1.90963
G1 X91.849 Y123.114 E1.91378
G1 X91.19 Y122.15 E1.93436
G1 X91.062 Y121.95 E1.93855
G1 X90.464 Y120.946 E1.95915
G1 X90.347 Y120.733 E1.96343
G1 X89.815 Y119.694 E1.98401
G1 X89.714 Y119.481 E1.98816
G1 X89.247 Y118.41 E2.00876
G1 X89.158 Y118.188 E2.01297
G1 X88.759 Y117.089 E2.03358
G1 X88.684 Y116.859 E2.03785
G1 X88.356 Y115.738 E2.05844
G1 X88.299 Y115.518 E2.06244
G1 X88.039 Y114.381 E2.083
G1 X87.99 Y114.132 E2.08748
G1 X87.806 Y112.977 E2.1081
G1 X87.777 Y112.746 E2.1122
G1 X87.664 Y111.583 E2.1328
G1 X87.648 Y111.346 E2.13698
G1 X87.608 Y110.181 E2.15753
G1 X87.608 Y109.941 E2.16176
G1 X87.642 Y108.772 E2.18238
G1 X87.656 Y108.537 E2.18653
G1 X87.762 Y107.375 E2.2071
G1 X87.791 Y107.135 E2.21136
G1 X87.971 Y105.979 E2.23198
G1 X88.016 Y105.741 E2.23625
G1 X88.269 Y104.6 E2.25685
G1 X88.327 Y104.374 E2.26097
G1 X88.649 Y103.253 E2.28153
G1 X88.721 Y103.027 E2.28571
G1 X89.113 Y101.926 E2.30631
G1 X89.202 Y101.7 E2.31059
G1 X89.663 Y100.628 E2.33116
G1 X89.762 Y100.417 E2.33527
G1 X90.289 Y99.373 E2.35589
G1 X90.407 Y99.157 E2.36022
G1 X91 Y98.15 E2.38083
G1 X91.125 Y97.951 E2.38497
G1 X91.779 Y96.983 E2.40556
G1 X91.92 Y96.789 E2.40979
G1 X92.633 Y95.865 E2.43036
G1 X92.784 Y95.68 E2.43457
G1 X93.554 Y94.802 E2.45516
G1 X93.717 Y94.628 E2.45936
G1 X94.541 Y93.8 E2.47995
G0 F6000 X94.825 Y94.082
G1 F1200 X94.978 Y93.937 E2.48367
G1 X95.851 Y93.162 E2.50425
G1 X96.019 Y93.022 E2.5081
G1 X96.941 Y92.304 E2.5287
G1 X97.111 Y92.181 E2.5324
G1 X98.076 Y91.521 E2.55301
G1 X98.256 Y91.405 E2.55678
G1 X99.259 Y90.808 E2.57736
G1 X99.447 Y90.704 E2.58115
G1 X100.487 Y90.171 E2.60175
G1 X100.679 Y90.08 E2.60549
G1 X101.75 Y89.613 E2.62609
G1 X101.949 Y89.534 E2.62986
G1 X103.048 Y89.135 E2.65047
G1 X103.253 Y89.068 E2.65428
G1 X104.374 Y88.74 E2.67487
G1 X104.571 Y88.689 E2.67845
G1 X105.708 Y88.429 E2.69901
G1 X105.931 Y88.385 E2.70302
G1 X107.086 Y88.201 E2.72364
G1 X107.292 Y88.175 E2.7273
G1 X108.455 Y88.062 E2.74789
G1 X108.667 Y88.048 E2.75164
G1 X109.833 Y88.008 E2.77221
G1 X110.049 Y88.007 E2.77601
G1 X111.217 Y88.041 E2.79661
G1 X111.427 Y88.054 E2.80032
G1 X112.589 Y88.16 E2.82089
G1 X112.803 Y88.186 E2.82469
G1 X113.959 Y88.366 E2.84531
G1 X114.172 Y88.407 E2.84914
G1 X115.313 Y88.66 E2.86974
G1 X115.516 Y88.711 E2.87343
G1 X116.637 Y89.033 E2.89399
G1 X116.838 Y89.098 E2.89771
G1 X117.939 Y89.49 E2.91831
G1 X118.142 Y89.57 E2.92216
G1 X119.214 Y90.031 E2.94273
G1 X119.404 Y90.119 E2.94642
G1 X120.449 Y90.647 E2.96706
G1 X120.64 Y90.752 E2.9709
G1 X121.646 Y91.344 E2.99148
G1 X121.825 Y91.457 E2.99521
G1 X122.793 Y92.111 E3.0158
G1 X122.967 Y92.236 E3.01958
G1 X123.891 Y92.949 E3.04015
G1 X124.056 Y93.085 E3.04392
G1 X124.934 Y93.855 E3.06451
G1 X125.09 Y94.001 E3.06828
G1 X125.918 Y94.825 E3.08887
G1 X126.063 Y94.978 E3.09258
G1 X126.838 Y95.851 E3.11316
G1 X126.978 Y96.019 E3.11702
G1 X127.696 Y96.941 E3.13762
G1 X127.819 Y97.111 E3.14131
G1 X128.479 Y98.076 E3.16192
G1 X128.595 Y98.256 E3.1657
G1 X129.192 Y99.259 E3.18627
G1 X129.296 Y99.447 E3.19006
G1 X129.829 Y100.487 E3.21066
G1 X129.92 Y100.679 E3.21441
G1 X130.387 Y101.75 E3.235
G1 X130.466 Y101.948 E3.23876
G1 X130.865 Y103.046 E3.25936
G1 X130.932 Y103.253 E3.26319
G1 X131.26 Y104.375 E3.2838
G1 X131.311 Y104.571 E3.28737
G1 X131.571 Y105.708 E3.30793
G1 X131.615 Y105.931 E3.31193
G1 X131.799 Y107.085 E3.33253
G1 X131.825 Y107.291 E3.33619
G1 X131.938 Y108.454 E3.35679
G1 X131.952 Y108.666 E3.36054
G1 X131.992 Y109.832 E3.3811
G1 X131.993 Y110.048 E3.38491
G1 X131.959 Y111.217 E3.40553
G1 X131.946 Y111.427 E3.40924
G1 X131.84 Y112.589 E3.4298
G1 X131.814 Y112.803 E3.4336
G1 X131.634 Y113.959 E3.45423
G1 X131.593 Y114.172 E3.45805
G1 X131.34 Y115.313 E3.47865
G1 X131.289 Y115.516 E3.48234
G1 X130.967 Y116.637 E3.5029
G1 X130.902 Y116.838 E3.50663
G1 X130.51 Y117.939 E3.52723
G1 X130.43 Y118.142 E3.53107
G1 X129.969 Y119.214 E3.55164
G1 X129.881 Y119.403 E3.55532
G1 X129.354 Y120.447 E3.57594
G1 X129.249 Y120.64 E3.57981
G1 X128.656 Y121.647 E3.60041
G1 X128.543 Y121.825 E3.60413
G1 X127.889 Y122.793 E3.62472
G1 X127.764 Y122.967 E3.6285
G1 X127.051 Y123.891 E3.64907
G1 X126.915 Y124.056 E3.65284
G1 X126.145 Y124.934 E3.67342
G1 X125.999 Y125.09 E3.67719
G1 X125.175 Y125.918 E3.69778
G1 X125.022 Y126.063 E3.7015
G1 X124.149 Y126.838 E3.72208
G1 X123.981 Y126.978 E3.72593
G1 X123.059 Y127.696 E3.74653
G1 X122.889 Y127.819 E3.75023
G1 X121.924 Y128.479 E3.77084
G1 X121.744 Y128.595 E3.77461
G1 X120.741 Y129.192 E3.79519
G1 X120.553 Y129.296 E3.79898
G1 X119.513 Y129.829 E3.81958
G1 X119.321 Y129.92 E3.82332
G1 X118.25 Y130.387 E3.84392
G1 X118.051 Y130.466 E3.84769
G1 X116.952 Y130.865 E3.8683
G1 X116.747 Y130.932 E3.87211
G1 X115.626 Y131.26 E3.8927
G1 X115.429 Y131.311 E3.89628
G1 X114.292 Y131.571 E3.91684
G1 X114.069 Y131.615 E3.92085
G1 X112.914 Y131.799 E3.94147
G1 X112.708 Y131.825 E3.94513
G1 X111.545 Y131.938 E3.96572
G1 X111.333 Y131.952 E3.96947
G1 X110.167 Y131.992 E3.99004
G1 X109.951 Y131.993 E3.99384
G1 X108.783 Y131.959 E4.01444
G1 X108.573 Y131.946 E4.01815
G1 X107.411 Y131.84 E4.03872
G1 X107.197 Y131.814 E4.04252
G1 X106.041 Y131.634 E4.06314
G1 X105.828 Y131.593 E4.06697
G1 X104.687 Y131.34 E4.08757
G1 X104.484 Y131.289 E4.09126
G1 X103.363 Y130.967 E4.11182
G1 X103.162 Y130.902 E4.11554
G1 X102.061 Y130.51 E4.13614
G1 X101.858 Y130.43 E4.13999
G1 X100.786 Y129.969 E4.16056
G1 X100.596 Y129.881 E4.16425
G1 X99.551 Y129.353 E4.18489
G1 X99.36 Y129.248 E4.18873
G1 X98.354 Y128.656 E4.20931
G1 X98.174 Y128.543 E4.21305
G1 X97.205 Y127.888 E4.23367
G1 X97.032 Y127.763 E4.23743
G1 X96.108 Y127.05 E4.25801
G1 X95.943 Y126.914 E4.26178
G1 X95.065 Y126.144 E4.28236
G1 X94.909 Y125.998 E4.28613
G1 X94.081 Y125.174 E4.30672
G1 X93.936 Y125.021 E4.31044
G1 X93.161 Y124.148 E4.33102
G1 X93.021 Y123.98 E4.33487
G1 X92.303 Y123.058 E4.35547
G1 X92.179 Y122.888 E4.35918
G1 X91.52 Y121.924 E4.37976
G1 X91.406 Y121.745 E4.38351
G1 X90.808 Y120.741 E4.40411
G1 X90.703 Y120.551 E4.40793
G1 X90.171 Y119.512 E4.42851
G1 X90.08 Y119.321 E4.43224
G1 X89.613 Y118.25 E4.45283
G1 X89.534 Y118.051 E4.45661
G1 X89.135 Y116.952 E4.47722
G1 X89.068 Y116.747 E4.48102
G1 X88.74 Y115.626 E4.50161
G1 X88.689 Y115.429 E4.5052
G1 X88.429 Y114.292 E4.52576
G1 X88.385 Y114.069 E4.52976
G1 X88.201 Y112.914 E4.55038
G1 X88.175 Y112.708 E4.55404
G1 X88.062 Y111.545 E4.57464
G1 X88.048 Y111.333 E4.57838
G1 X88.008 Y110.168 E4.59893
G1 X88.007 Y109.952 E4.60274
G1 X88.041 Y108.783 E4.62336
G1 X88.054 Y108.573 E4.62707
G1 X88.16 Y107.411 E4.64763
G1 X88.186 Y107.197 E4.65143
G1 X88.366 Y106.041 E4.67206
G1 X88.407 Y105.828 E4.67588
G1 X88.66 Y104.687 E4.69648
G1 X88.711 Y104.484 E4.70017
G1 X89.033 Y103.363 E4.72073
G1 X89.098 Y103.162 E4.72446
G1 X89.49 Y102.061 E4.74506
G1 X89.57 Y101.858 E4.7489
G1 X90.031 Y100.786 E4.76948
G1 X90.119 Y100.597 E4.77315
G1 X90.646 Y99.553 E4.79377
G1 X90.751 Y99.36 E4.79764
G1 X91.344 Y98.353 E4.81824
G1 X91.457 Y98.175 E4.82196
G1 X92.111 Y97.207 E4.84255
G1 X92.236 Y97.033 E4.84633
G1 X92.949 Y96.109 E4.8669
G1 X93.085 Y95.944 E4.87067
G1 X93.855 Y95.066 E4.89125
G1 X94.001 Y94.91 E4.89502
G1 X94.825 Y94.082 E4.91561
G0 F6000 X95.243 Y94.236
G1 F1200 X96.116 Y93.461 E4.93619
G1 X96.265 Y93.338 E4.9396
G1 X97.187 Y92.62 E4.9602
G1 X97.336 Y92.511 E4.96345
G1 X98.301 Y91.851 E4.98406
G1 X98.461 Y91.749 E4.98741
G1 X99.464 Y91.152 E5.00798
G1 X99.63 Y91.06 E5.01133
G1 X100.67 Y90.527 E5.03193
G1 X100.839 Y90.447 E5.03522
G1 X101.91 Y89.98 E5.05582
G1 X102.085 Y89.91 E5.05914
G1 X103.184 Y89.511 E5.07975
G1 X103.366 Y89.452 E5.08312
G1 X104.66 Y89.078 E5.10687
G1 X105.797 Y88.818 E5.12743
G1 X105.994 Y88.78 E5.13097
G1 X107.149 Y88.596 E5.15158
G1 X107.331 Y88.573 E5.15482
G1 X108.494 Y88.46 E5.17541
G1 X108.681 Y88.448 E5.17872
G1 X109.847 Y88.408 E5.19928
G1 X110.037 Y88.407 E5.20263
G1 X111.205 Y88.441 E5.22323
G1 X111.391 Y88.452 E5.22652
G1 X112.553 Y88.558 E5.24708
G1 X112.742 Y88.582 E5.25044
G1 X113.898 Y88.762 E5.27107
G1 X114.085 Y88.797 E5.27442
G1 X115.226 Y89.05 E5.29502
G1 X115.405 Y89.096 E5.29828
G1 X116.526 Y89.418 E5.31884
G1 X116.704 Y89.475 E5.32213
G1 X117.805 Y89.867 E5.34274
G1 X117.984 Y89.937 E5.34612
G1 X119.056 Y90.398 E5.36669
G1 X119.224 Y90.476 E5.36996
G1 X120.269 Y91.004 E5.3906
G1 X120.438 Y91.096 E5.39399
G1 X121.444 Y91.688 E5.41457
G1 X121.601 Y91.788 E5.41785
G1 X122.569 Y92.442 E5.43844
G1 X122.723 Y92.553 E5.44179
G1 X123.647 Y93.266 E5.46236
G1 X123.792 Y93.385 E5.46567
G1 X124.67 Y94.155 E5.48625
G1 X124.808 Y94.285 E5.4896
G1 X125.764 Y95.243 E5.51345
G1 X126.539 Y96.116 E5.53403
G1 X126.662 Y96.265 E5.53744
G1 X127.38 Y97.187 E5.55804
G1 X127.489 Y97.336 E5.56129
G1 X128.149 Y98.301 E5.5819
G1 X128.251 Y98.461 E5.58525
G1 X128.848 Y99.464 E5.60582
G1 X128.94 Y99.63 E5.60917
G1 X129.473 Y100.67 E5.62977
G1 X129.553 Y100.839 E5.63306
G1 X130.02 Y101.91 E5.65366
G1 X130.09 Y102.084 E5.65697
G1 X130.489 Y103.182 E5.67756
G1 X130.548 Y103.365 E5.68095
G1 X130.922 Y104.66 E5.70471
G1 X131.182 Y105.797 E5.72527
G1 X131.22 Y105.994 E5.72881
G1 X131.404 Y107.148 E5.74941
G1 X131.427 Y107.33 E5.75264
G1 X131.54 Y108.493 E5.77324
G1 X131.552 Y108.68 E5.77654
G1 X131.592 Y109.846 E5.79711
G1 X131.593 Y110.036 E5.80046
G1 X131.559 Y111.205 E5.82107
G1 X131.548 Y111.391 E5.82436
G1 X131.442 Y112.553 E5.84493
G1 X131.418 Y112.742 E5.84828
G1 X131.238 Y113.898 E5.86891
G1 X131.203 Y114.085 E5.87226
G1 X130.95 Y115.226 E5.89286
G1 X130.904 Y115.405 E5.89612
G1 X130.582 Y116.526 E5.91668
G1 X130.525 Y116.704 E5.91998
G1 X130.133 Y117.805 E5.94058
G1 X130.063 Y117.984 E5.94397
G1 X129.602 Y119.056 E5.96454
G1 X129.524 Y119.223 E5.96778
G1 X128.997 Y120.267 E5.9884
G1 X128.904 Y120.437 E5.99182
G1 X128.311 Y121.444 E6.01242
G1 X128.212 Y121.601 E6.01569
G1 X127.558 Y122.569 E6.03628
G1 X127.447 Y122.723 E6.03963
G1 X126.734 Y123.647 E6.0602
G1 X126.615 Y123.792 E6.06351
G1 X125.845 Y124.67 E6.08409
G1 X125.715 Y124.808 E6.08744
G1 X124.757 Y125.764 E6.11129
G1 X123.884 Y126.539 E6.13187
G1 X123.735 Y126.662 E6.13528
G1 X122.813 Y127.38 E6.15588
G1 X122.664 Y127.489 E6.15913
G1 X121.699 Y128.149 E6.17974
