;FLAVOR:Marlin
;TIME:5816
;Filament used: 5.6796m
;Layer height: 0.25
;MINX:97.588
;MINY:42.793
;MINZ:0.2
;MAXX:125.491
;MAXY:177.202
;MAXZ:186.95
;Generated with Cura_SteamEngine 4.6.1
M140 S60
M105
M190 S60
M104 S235
M105
M109 S235
M82 ;absolute extrusion mode
; Ender 3 Custom Start G-code
G92 E0 ; Reset Extruder
G28 ; Home all axes
G1 Z2.0 F3000 ; Move Z Axis up little to prevent scratching of Heat Bed
G1 X0.1 Y20 Z0.3 F5000.0 ; Move to start position
G1 X0.1 Y200.0 Z0.3 F1500.0 E15 ; Draw the first line
G1 X0.4 Y200.0 Z0.3 F5000.0 ; Move to side a little
G1 X0.4 Y20 Z0.3 F1500.0 E30 ; Draw the second line
G92 E0 ; Reset Extruder
G1 Z2.0 F3000 ; Move Z Axis up little to prevent scratching of Heat Bed
G1 X5 Y20 Z0.3 F5000.0 ; Move over to prevent blob squish
G92 E0
G92 E0
G1 F3000 E-1
;LAYER_COUNT:748
;LAYER:0
M107
G0 F6000 X107.731 Y95.142 Z0.2
;TYPE:SKIRT
G1 F3000 E0.20788
G1 F1200 X107.547 Y96.978 E0.2404
G1 X107.233 Y100.432 E0.30154
G1 X106.945 Y103.905 E0.36297
G1 X106.686 Y107.447 E0.42558
G1 X106.551 Y109.571 E0.46309
G1 X117.036 Y109.572 E0.64792
G1 X117.039 Y105.749 E0.71531
G1 X116.998 Y98.527 E0.84262
G1 X117.005 Y98.424 E0.84444
G1 X116.995 Y98.23 E0.84787
G1 X116.957 Y95.143 E0.90229
G1 X107.731 Y95.142 E1.06492
G0 F6000 X107.369 Y94.742
G1 F1200 X107.149 Y96.938 E1.10383
G1 X106.832 Y100.426 E1.16557
G1 X106.549 Y103.839 E1.22594
G1 X106.287 Y107.418 E1.2892
G1 X106.125 Y109.971 E1.33429
G1 X117.436 Y109.972 E1.53368
G1 X117.439 Y105.749 E1.60812
G1 X117.398 Y98.524 E1.73549
G1 X117.405 Y98.42 E1.73732
G1 X117.395 Y98.225 E1.74077
G1 X117.352 Y94.743 E1.80215
G1 X107.369 Y94.742 E1.97813
G0 F6000 X107.007 Y94.342
G1 F1200 X106.754 Y96.871 E2.02293
G1 X106.434 Y100.39 E2.08522
G1 X106.148 Y103.839 E2.14623
G1 X105.888 Y107.389 E2.20898
G1 X105.699 Y110.371 E2.26165
G1 X117.836 Y110.372 E2.4756
G1 X117.839 Y105.749 E2.55709
G1 X117.798 Y98.522 E2.68449
G1 X117.806 Y98.423 E2.68624
G1 X117.795 Y98.22 E2.68982
G1 X117.747 Y94.343 E2.75817
G1 X107.007 Y94.342 E2.9475
G0 F6000 X106.645 Y93.942
G1 F1200 X106.353 Y96.858 E2.99916
G1 X106.035 Y100.353 E3.06102
G1 X105.749 Y103.806 E3.1221
G1 X105.489 Y107.36 E3.18491
G1 X105.273 Y110.771 E3.24516
G1 X118.236 Y110.772 E3.47367
G1 X118.239 Y105.749 E3.56222
G1 X118.198 Y98.52 E3.68965
G1 X118.206 Y98.425 E3.69133
G1 X118.195 Y98.215 E3.69504
G1 X118.142 Y93.943 E3.77035
G1 X106.645 Y93.942 E3.97302
G0 F6000 X106.283 Y93.542
G1 F1200 X105.955 Y96.818 E4.03106
G1 X105.637 Y100.317 E4.09299
G1 X105.35 Y103.773 E4.15412
G1 X105.092 Y107.309 E4.21662
G1 X104.851 Y111.171 E4.28483
G1 X118.635 Y111.172 E4.52781
G1 X118.639 Y105.75 E4.62339
G1 X118.598 Y98.517 E4.7509
G1 X118.607 Y98.416 E4.75268
G1 X118.595 Y98.21 E4.75632
G1 X118.537 Y93.543 E4.8386
G1 X106.283 Y93.542 E5.05461
G0 F6000 X105.922 Y93.142
G1 F1200 X105.557 Y96.779 E5.11904
G1 X105.239 Y100.281 E5.18103
G1 X104.952 Y103.74 E5.24222
G1 X104.691 Y107.301 E5.30516
G1 X104.472 Y110.752 E5.36611
G1 X104.429 Y111.571 E5.38057
G1 X119.035 Y111.572 E5.63804
G1 X119.039 Y105.75 E5.74067
G1 X118.998 Y98.515 E5.86821
G1 X119.008 Y98.414 E5.87
G1 X119.002 Y98.345 E5.87122
G1 X118.995 Y98.205 E5.87369
G1 X118.932 Y93.143 E5.96293
G1 X105.922 Y93.142 E6.19227
G1 F3000 E5.19227
G0 F6000 X102.919 Y94.47
G1 F3000 E6.40015
G1 F1200 X103.31 Y90.65 E6.46784
G1 X103.729 Y86.832 E6.53554
G1 X104.397 Y81.173 E6.63599
G1 X105.125 Y75.522 E6.73643
G1 X105.712 Y71.271 E6.81208
G1 X106.333 Y67.028 E6.88767
G1 X106.983 Y62.79 E6.96325
G1 X107.672 Y58.497 E7.0399
G1 X108.674 Y52.508 E7.14694
G1 X109.719 Y46.558 E7.25343
G1 X109.778 Y46.448 E7.25563
G1 X109.916 Y46.393 E7.25825
G1 X120.505 Y46.393 E7.44491
G1 X120.624 Y46.432 E7.44712
G1 X120.705 Y46.588 E7.45021
G1 X120.874 Y53.059 E7.56432
G1 X121.451 Y75.862 E7.96642
G1 X121.427 Y75.941 E7.96788
G1 X121.454 Y75.993 E7.96891
G1 X121.659 Y85.326 E8.13347
G1 X121.77 Y91.865 E8.24875
G1 X121.847 Y98.403 E8.36401
G1 X121.828 Y98.464 E8.36514
G1 X121.848 Y98.504 E8.36593
G1 X121.887 Y104.668 E8.47459
G1 X121.891 Y111.147 E8.5888
G1 X121.864 Y117.57 E8.70202
G1 X121.806 Y124.049 E8.81624
G1 X121.719 Y129.624 E8.91453
G1 X121.702 Y129.672 E8.91542
G1 X121.717 Y129.744 E8.91672
G1 X121.649 Y132.611 E8.96727
G1 X121.525 Y136.66 E9.03868
G1 X121.356 Y140.616 E9.10848
G1 X121.191 Y143.661 E9.16224
G1 X120.99 Y146.701 E9.21594
G1 X120.78 Y149.36 E9.26296
G1 X120.539 Y151.931 E9.30848
G1 X120.3 Y154.133 E9.34753
G1 X120.025 Y156.331 E9.38658
G1 X119.755 Y158.269 E9.42107
G1 X119.456 Y160.198 E9.45548
G1 X119.25 Y161.401 E9.47699
G1 X119.029 Y162.573 E9.49802
G1 X118.741 Y163.886 E9.52171
G1 X118.414 Y165.182 E9.54527
G1 X118.129 Y166.171 E9.56342
G1 X117.822 Y167.151 E9.58152
G1 X117.484 Y168.138 E9.59991
G1 X117.12 Y169.105 E9.61813
G1 X116.889 Y169.652 E9.62859
G1 X116.639 Y170.188 E9.63902
G1 X116.33 Y170.764 E9.65054
G1 X115.985 Y171.32 E9.66208
G1 X115.678 Y171.746 E9.67133
G1 X115.342 Y172.153 E9.68064
G1 X115.048 Y172.463 E9.68817
G1 X114.725 Y172.755 E9.69584
G1 X114.38 Y173.018 E9.70349
G1 X114.01 Y173.244 E9.71113
G1 X113.739 Y173.374 E9.71643
G1 X113.452 Y173.48 E9.72182
G1 X113.159 Y173.555 E9.72716
G1 X112.858 Y173.596 E9.73251
G1 X112.541 Y173.602 E9.7381
G1 X112.208 Y173.568 E9.744
G1 X111.882 Y173.491 E9.7499
G1 X111.565 Y173.381 E9.75582
G1 X111.262 Y173.239 E9.76172
G1 X110.85 Y172.99 E9.7702
G1 X110.454 Y172.693 E9.77893
G1 X110.087 Y172.367 E9.78758
G1 X109.745 Y172.019 E9.79618
G1 X109.346 Y171.557 E9.80695
G1 X108.977 Y171.077 E9.81762
G1 X108.552 Y170.458 E9.83085
G1 X108.169 Y169.827 E9.84387
G1 X107.746 Y169.039 E9.85963
G1 X107.358 Y168.234 E9.87538
G1 X106.935 Y167.265 E9.89402
G1 X106.536 Y166.275 E9.91284
G1 X106.119 Y165.142 E9.93412
G1 X105.735 Y163.998 E9.95539
G1 X105.275 Y162.479 E9.98337
G1 X104.861 Y160.954 E10.01122
G1 X104.316 Y158.731 E10.05157
G1 X103.82 Y156.483 E10.09215
G1 X103.459 Y154.671 E10.12472
G1 X103.14 Y152.854 E10.15724
G1 X102.854 Y151.035 E10.1897
G1 X102.604 Y149.213 E10.22212
G1 X102.341 Y147.053 E10.26048
G1 X102.114 Y144.916 E10.29836
G1 X101.911 Y142.763 E10.33648
G1 X101.733 Y140.607 E10.37462
G1 X101.573 Y138.318 E10.41506
G1 X101.439 Y135.97 E10.45652
G1 X101.333 Y133.537 E10.49945
G1 X101.258 Y131.074 E10.54289
G1 X101.209 Y128.515 E10.58801
G1 X101.188 Y125.957 E10.6331
G1 X101.196 Y123.339 E10.67925
G1 X101.231 Y120.809 E10.72385
G1 X101.298 Y118.043 E10.77263
G1 X101.396 Y115.278 E10.8214
G1 X101.553 Y111.927 E10.88053
G1 X101.741 Y108.693 E10.93764
G1 X101.967 Y105.405 E10.99574
G1 X102.223 Y102.12 E11.05382
G1 X102.555 Y98.294 E11.12152
G1 X102.919 Y94.47 E11.18923
G0 F6000 X102.521 Y94.432
G1 F1200 X102.912 Y90.609 E11.25697
G1 X103.332 Y86.789 E11.32472
G1 X104 Y81.126 E11.42524
G1 X104.728 Y75.471 E11.52574
G1 X105.316 Y71.216 E11.60146
G1 X105.937 Y66.97 E11.67711
G1 X106.588 Y62.729 E11.75274
G1 X107.277 Y58.434 E11.82942
G1 X108.279 Y52.442 E11.93652
G1 X109.325 Y46.489 E12.04306
G1 X109.401 Y46.285 E12.0469
G1 X109.545 Y46.121 E12.05075
G1 X109.739 Y46.02 E12.0546
G1 X109.916 Y45.993 E12.05776
G1 X120.505 Y45.993 E12.24442
G1 X120.72 Y46.033 E12.24828
G1 X120.906 Y46.146 E12.25211
G1 X121.039 Y46.319 E12.25596
G1 X121.105 Y46.577 E12.26065
G1 X121.274 Y53.048 E12.37476
G1 X121.851 Y75.851 E12.77686
G1 X121.839 Y75.926 E12.7782
G1 X121.854 Y75.984 E12.77925
G1 X122.059 Y85.317 E12.94381
G1 X122.17 Y91.859 E13.05915
G1 X122.247 Y98.398 E13.17443
G1 X122.237 Y98.456 E13.17547
G1 X122.287 Y104.665 E13.28492
G1 X122.291 Y111.147 E13.39919
G1 X122.264 Y117.573 E13.51246
G1 X122.206 Y124.052 E13.62668
G1 X122.119 Y129.63 E13.72502
G1 X122.105 Y129.7 E13.72628
G1 X122.117 Y129.753 E13.72724
G1 X122.049 Y132.62 E13.77779
G1 X121.925 Y136.672 E13.84925
G1 X121.755 Y140.633 E13.91914
G1 X121.59 Y143.682 E13.97296
G1 X121.389 Y146.728 E14.02678
G1 X121.179 Y149.391 E14.07386
G1 X120.937 Y151.968 E14.11949
G1 X120.697 Y154.176 E14.15864
G1 X120.422 Y156.38 E14.1978
G1 X120.151 Y158.324 E14.2324
G1 X119.851 Y160.259 E14.26691
G1 X119.644 Y161.468 E14.28854
G1 X119.422 Y162.647 E14.30968
G1 X119.132 Y163.971 E14.33358
G1 X118.802 Y165.28 E14.35737
G1 X118.514 Y166.282 E14.37575
G1 X118.203 Y167.271 E14.39403
G1 X117.863 Y168.267 E14.41258
G1 X117.494 Y169.246 E14.43102
G1 X117.258 Y169.807 E14.44175
G1 X117.002 Y170.357 E14.45245
G1 X116.683 Y170.953 E14.46436
G1 X116.324 Y171.531 E14.47636
G1 X116.003 Y171.98 E14.48609
G1 X115.651 Y172.408 E14.49585
G1 X115.337 Y172.739 E14.5039
G1 X114.953 Y173.086 E14.51302
G1 X114.571 Y173.37 E14.52141
G1 X114.165 Y173.614 E14.52976
G1 X113.858 Y173.758 E14.53574
G1 X113.531 Y173.874 E14.54186
G1 X113.189 Y173.956 E14.54805
G1 X112.84 Y173.998 E14.55425
G1 X112.474 Y173.999 E14.5607
G1 X112.165 Y173.966 E14.56618
G1 X112.089 Y173.952 E14.56754
G1 X111.73 Y173.863 E14.57406
G1 X111.374 Y173.734 E14.58074
G1 X111.037 Y173.571 E14.58734
G1 X110.593 Y173.298 E14.59653
G1 X110.213 Y173.012 E14.60491
G1 X109.821 Y172.666 E14.61413
G1 X109.459 Y172.299 E14.62321
G1 X109.043 Y171.818 E14.63442
G1 X108.66 Y171.32 E14.6455
G1 X108.222 Y170.685 E14.6591
G1 X107.827 Y170.034 E14.67252
G1 X107.393 Y169.228 E14.68866
G1 X106.997 Y168.407 E14.70472
G1 X106.568 Y167.425 E14.72361
G1 X106.165 Y166.424 E14.74264
G1 X105.744 Y165.28 E14.76412
G1 X105.356 Y164.125 E14.7856
G1 X104.892 Y162.595 E14.81379
G1 X104.475 Y161.059 E14.84184
G1 X103.927 Y158.826 E14.88237
G1 X103.429 Y156.569 E14.92312
G1 X103.067 Y154.749 E14.95583
G1 X102.746 Y152.923 E14.98851
G1 X102.459 Y151.097 E15.02109
G1 X102.208 Y149.268 E15.05364
G1 X101.944 Y147.101 E15.09212
G1 X101.716 Y144.958 E15.13011
G1 X101.513 Y142.8 E15.16832
G1 X101.334 Y140.64 E15.20653
G1 X101.174 Y138.346 E15.24706
G1 X101.04 Y135.993 E15.28861
G1 X100.934 Y133.554 E15.33164
G1 X100.858 Y131.086 E15.37517
G1 X100.809 Y128.522 E15.42037
G1 X100.788 Y125.96 E15.46554
G1 X100.796 Y123.338 E15.51176
G1 X100.831 Y120.804 E15.55643
G1 X100.898 Y118.033 E15.60529
G1 X100.996 Y115.264 E15.65414
G1 X101.154 Y111.908 E15.71336
G1 X101.342 Y108.67 E15.77054
G1 X101.568 Y105.378 E15.8287
G1 X101.824 Y102.089 E15.88686
G1 X102.156 Y98.259 E15.95462
G1 X102.521 Y94.432 E16.02239
G0 F6000 X102.123 Y94.394
G1 F1200 X102.514 Y90.568 E16.09019
G1 X102.934 Y86.745 E16.15798
G1 X103.603 Y81.079 E16.25856
G1 X104.331 Y75.42 E16.35914
G1 X104.919 Y71.161 E16.43493
G1 X105.542 Y66.912 E16.51063
G1 X106.193 Y62.668 E16.58631
G1 X106.882 Y58.371 E16.66303
G1 X107.885 Y52.376 E16.77018
G1 X108.931 Y46.42 E16.87678
G1 X109.019 Y46.152 E16.88175
G1 X109.178 Y45.919 E16.88672
G1 X109.395 Y45.739 E16.89169
G1 X109.655 Y45.628 E16.89667
G1 X109.916 Y45.593 E16.90132
G1 X120.505 Y45.593 E17.08798
G1 X120.784 Y45.633 E17.09295
G1 X121.041 Y45.749 E17.09792
G1 X121.256 Y45.932 E17.10289
G1 X121.41 Y46.168 E17.10786
G1 X121.505 Y46.567 E17.11509
G1 X121.674 Y53.038 E17.2292
G1 X122.251 Y75.841 E17.6313
G1 X122.242 Y75.922 E17.63273
G1 X122.254 Y75.975 E17.63369
G1 X122.459 Y85.308 E17.79825
G1 X122.57 Y91.852 E17.91363
G1 X122.648 Y98.499 E18.03081
G1 X122.687 Y104.663 E18.13947
G1 X122.691 Y111.146 E18.25375
G1 X122.664 Y117.574 E18.36706
G1 X122.606 Y124.056 E18.48133
G1 X122.517 Y129.763 E18.58194
G1 X122.449 Y132.63 E18.6325
G1 X122.325 Y136.685 E18.70401
G1 X122.155 Y140.65 E18.77397
G1 X121.99 Y143.704 E18.82788
G1 X121.788 Y146.754 E18.88177
G1 X121.578 Y149.422 E18.92894
G1 X121.336 Y152.005 E18.97468
G1 X121.095 Y154.219 E19.01393
G1 X120.819 Y156.43 E19.05321
G1 X120.547 Y158.379 E19.0879
G1 X120.246 Y160.32 E19.12253
G1 X120.039 Y161.535 E19.14425
G1 X119.815 Y162.722 E19.16555
G1 X119.523 Y164.057 E19.18964
G1 X119.19 Y165.378 E19.21365
G1 X118.898 Y166.393 E19.23227
G1 X118.585 Y167.39 E19.25069
G1 X118.241 Y168.397 E19.26945
G1 X117.869 Y169.387 E19.28809
G1 X117.626 Y169.963 E19.29911
G1 X117.339 Y170.576 E19.31104
G1 X117.003 Y171.197 E19.32349
G1 X116.626 Y171.799 E19.33601
G1 X116.287 Y172.266 E19.34618
G1 X115.912 Y172.716 E19.35651
G1 X115.574 Y173.067 E19.3651
G1 X115.194 Y173.405 E19.37406
G1 X114.862 Y173.656 E19.3814
G1 X114.779 Y173.712 E19.38317
G1 X114.426 Y173.927 E19.39045
G1 X114.337 Y173.975 E19.39223
G1 X113.995 Y174.134 E19.39888
G1 X113.726 Y174.232 E19.40393
G1 X113.628 Y174.262 E19.40574
G1 X113.354 Y174.331 E19.41072
G1 X113.242 Y174.352 E19.41273
G1 X112.964 Y174.389 E19.41767
G1 X112.846 Y174.398 E19.41976
G1 X112.552 Y174.402 E19.42494
G1 X112.432 Y174.396 E19.42706
G1 X112.123 Y174.363 E19.43253
G1 X111.996 Y174.341 E19.43481
G1 X111.696 Y174.269 E19.44025
G1 X111.597 Y174.24 E19.44206
G1 X111.203 Y174.096 E19.44946
G1 X110.92 Y173.962 E19.45498
G1 X110.829 Y173.913 E19.4568
G1 X110.435 Y173.674 E19.46492
G1 X110.353 Y173.618 E19.46667
G1 X109.909 Y173.28 E19.47651
G1 X109.506 Y172.918 E19.48606
G1 X109.131 Y172.532 E19.49555
G1 X108.703 Y172.034 E19.50712
G1 X108.312 Y171.521 E19.51849
G1 X107.862 Y170.863 E19.53254
G1 X107.459 Y170.196 E19.54628
G1 X107.041 Y169.417 E19.56187
G1 X106.637 Y168.581 E19.57823
G1 X106.202 Y167.585 E19.59739
G1 X105.794 Y166.573 E19.61663
G1 X105.369 Y165.419 E19.63831
G1 X104.977 Y164.252 E19.66001
G1 X104.509 Y162.711 E19.6884
G1 X104.089 Y161.164 E19.71665
G1 X103.539 Y158.921 E19.75736
G1 X103.038 Y156.656 E19.79826
G1 X102.674 Y154.827 E19.83113
G1 X102.352 Y152.992 E19.86397
G1 X102.064 Y151.159 E19.89668
G1 X101.811 Y149.322 E19.92937
G1 X101.547 Y147.15 E19.96794
G1 X101.319 Y145.001 E20.00603
G1 X101.114 Y142.838 E20.04433
G1 X100.935 Y140.673 E20.08263
G1 X100.775 Y138.373 E20.12327
G1 X100.641 Y136.016 E20.16488
G1 X100.534 Y133.572 E20.20801
G1 X100.458 Y131.098 E20.25164
G1 X100.409 Y128.53 E20.29692
G1 X100.388 Y125.963 E20.34217
G1 X100.396 Y123.337 E20.38846
G1 X100.431 Y120.798 E20.43322
G1 X100.498 Y118.024 E20.48214
G1 X100.597 Y115.25 E20.53107
G1 X100.754 Y111.889 E20.59038
G1 X100.943 Y108.647 E20.64763
G1 X101.169 Y105.35 E20.70588
G1 X101.425 Y102.058 E20.76409
G1 X101.758 Y98.225 E20.83191
G1 X102.123 Y94.394 E20.89975
G0 F6000 X101.724 Y94.356
G1 F1200 X102.116 Y90.527 E20.9676
G1 X102.536 Y86.701 E21.03545
G1 X103.206 Y81.032 E21.13607
G1 X103.934 Y75.369 E21.23672
G1 X104.523 Y71.106 E21.31258
G1 X105.146 Y66.854 E21.38834
G1 X105.797 Y62.608 E21.46406
G1 X106.487 Y58.307 E21.54085
G1 X107.49 Y52.31 E21.64803
G1 X108.537 Y46.351 E21.75468
G1 X108.634 Y46.031 E21.76058
G1 X108.803 Y45.743 E21.76646
G1 X109.036 Y45.504 E21.77235
G1 X109.32 Y45.326 E21.77826
G1 X109.637 Y45.221 E21.78414
G1 X109.916 Y45.193 E21.78909
G1 X120.505 Y45.193 E21.97575
G1 X120.837 Y45.233 E21.98164
G1 X121.149 Y45.35 E21.98752
G1 X121.426 Y45.538 E21.99342
G1 X121.649 Y45.786 E21.9993
G1 X121.808 Y46.08 E22.00519
G1 X121.905 Y46.556 E22.01375
G1 X122.074 Y53.027 E22.12786
G1 X122.651 Y75.832 E22.52999
G1 X122.643 Y75.913 E22.53143
G1 X122.654 Y75.966 E22.53238
G1 X122.859 Y85.299 E22.69694
G1 X122.97 Y91.845 E22.81235
G1 X123.048 Y98.496 E22.9296
G1 X123.087 Y104.66 E23.03826
G1 X123.091 Y111.146 E23.1526
G1 X123.064 Y117.576 E23.26595
G1 X123.006 Y124.06 E23.38025
G1 X122.917 Y129.772 E23.48095
G1 X122.849 Y132.639 E23.53151
G1 X122.724 Y136.697 E23.60307
G1 X122.555 Y140.667 E23.67312
G1 X122.389 Y143.726 E23.72712
G1 X122.187 Y146.78 E23.78108
G1 X121.977 Y149.454 E23.82836
G1 X121.734 Y152.043 E23.8742
G1 X121.493 Y154.262 E23.91354
G1 X121.216 Y156.479 E23.95293
G1 X120.944 Y158.434 E23.98772
G1 X120.641 Y160.382 E24.02247
G1 X120.433 Y161.603 E24.04431
G1 X120.208 Y162.796 E24.06571
G1 X119.914 Y164.142 E24.08999
G1 X119.577 Y165.476 E24.11425
G1 X119.282 Y166.503 E24.13309
