;FLAVOR:Marlin
;TIME:2065
;Filament used: 1.62515m
;Layer height: 0.25
;MINX:94.504
;MINY:43.106
;MINZ:0.2
;MAXX:129.499
;MAXY:176.861
;MAXZ:81.95
;Generated with Cura_SteamEngine 4.6.1
M140 S60
M105
M190 S60
M104 S235
M105
M109 S235
M82 ;absolute extrusion mode
; Ender 3 Custom Start G-code
G92 E0 ; Reset Extruder
G28 ; Home all axes
G1 Z2.0 F3000 ; Move Z Axis up little to prevent scratching of Heat Bed
G1 X0.1 Y20 Z0.3 F5000.0 ; Move to start position
G1 X0.1 Y200.0 Z0.3 F1500.0 E15 ; Draw the first line
G1 X0.4 Y200.0 Z0.3 F5000.0 ; Move to side a little
G1 X0.4 Y20 Z0.3 F1500.0 E30 ; Draw the second line
G92 E0 ; Reset Extruder
G1 Z2.0 F3000 ; Move Z Axis up little to prevent scratching of Heat Bed
G1 X5 Y20 Z0.3 F5000.0 ; Move over to prevent blob squish
G92 E0
G92 E0
G1 F3000 E-1
;LAYER_COUNT:329
;LAYER:0
M107
G0 F6000 X118.044 Y45.759 Z0.2
;TYPE:SKIRT
G1 F3000 E0.20788
G1 F1200 X118.277 Y45.26 E0.21758
G1 X118.456 Y44.969 E0.22361
G1 X118.567 Y44.806 E0.22708
G1 X118.909 Y44.374 E0.2368
G1 X119.311 Y43.997 E0.24651
G1 X119.762 Y43.681 E0.25622
G1 X120.255 Y43.434 E0.26594
G1 X120.624 Y43.303 E0.27284
G1 X120.755 Y43.264 E0.27525
G1 X121.293 Y43.145 E0.28496
G1 X121.842 Y43.106 E0.29467
G1 X122.392 Y43.146 E0.30439
G1 X122.832 Y43.238 E0.31231
G1 X122.965 Y43.274 E0.31474
G1 X123.485 Y43.456 E0.32445
G1 X123.973 Y43.712 E0.33416
G1 X124.419 Y44.035 E0.34387
G1 X124.787 Y44.39 E0.35289
G1 X124.884 Y44.497 E0.35543
G1 X125.224 Y44.931 E0.36515
G1 X125.497 Y45.409 E0.37485
G1 X125.698 Y45.922 E0.38457
G1 X125.823 Y46.459 E0.39429
G1 X125.858 Y46.765 E0.39971
G1 X126.073 Y49.641 E0.45055
G1 X126.237 Y52.375 E0.49884
G1 X126.353 Y54.513 E0.53658
G1 X127.457 Y76.41 E0.92307
G1 X127.503 Y77.423 E0.94094
G1 X127.801 Y83.864 E1.0546
G1 X127.799 Y83.929 E1.05575
G1 X127.806 Y84.012 E1.05722
G1 X128.394 Y97.025 E1.28684
G1 X128.723 Y104.685 E1.422
G1 X128.919 Y109.794 E1.51213
G1 X129.083 Y114.692 E1.59852
G1 X129.167 Y117.597 E1.64975
G1 X129.291 Y122.594 E1.73786
G1 X129.399 Y128.588 E1.84354
G1 X129.475 Y134.565 E1.94891
G1 X129.499 Y138.147 E2.01205
G1 X129.499 Y141.771 E2.07594
G1 X129.466 Y145.008 E2.133
G1 X129.394 Y148.339 E2.19173
G1 X129.286 Y151.341 E2.24469
G1 X129.183 Y153.425 E2.28147
G1 X129.133 Y154.321 E2.29729
G1 X128.988 Y156.443 E2.33478
G1 X128.906 Y157.445 E2.3525
G1 X128.817 Y158.471 E2.37066
G1 X128.73 Y159.364 E2.38647
G1 X128.547 Y161.048 E2.41633
G1 X128.331 Y162.763 E2.4468
G1 X128.106 Y164.329 E2.47469
G1 X127.882 Y165.65 E2.49831
G1 X127.662 Y166.739 E2.5179
G1 X127.614 Y166.91 E2.52103
G1 X127.601 Y167.011 E2.52282
G1 X127.365 Y167.977 E2.54035
G1 X127.059 Y169.077 E2.56048
G1 X126.83 Y169.818 E2.57415
G1 X126.55 Y170.647 E2.58957
G1 X126.243 Y171.455 E2.60481
G1 X126.039 Y171.934 E2.61399
G1 X125.948 Y172.133 E2.61785
G1 X125.72 Y172.593 E2.6269
G1 X125.616 Y172.788 E2.63079
G1 X125.434 Y173.107 E2.63727
G1 X125.326 Y173.285 E2.64094
G1 X125.122 Y173.601 E2.64757
G1 X124.988 Y173.794 E2.65171
G1 X124.781 Y174.075 E2.65786
G1 X124.63 Y174.267 E2.66217
G1 X124.402 Y174.538 E2.66841
G1 X124.21 Y174.749 E2.67344
G1 X123.984 Y174.98 E2.67914
G1 X123.75 Y175.201 E2.68481
G1 X123.503 Y175.414 E2.69056
G1 X123.271 Y175.598 E2.69578
G1 X123.09 Y175.731 E2.69974
G1 X122.848 Y175.895 E2.70489
G1 X122.66 Y176.012 E2.70879
G1 X122.325 Y176.198 E2.71555
G1 X122.062 Y176.327 E2.72071
G1 X121.645 Y176.501 E2.72868
G1 X121.448 Y176.57 E2.73236
G1 X120.911 Y176.715 E2.74216
G1 X120.527 Y176.789 E2.74906
G1 X119.882 Y176.857 E2.76049
G1 X119.677 Y176.861 E2.7641
G1 X119.075 Y176.825 E2.77473
G1 X118.683 Y176.77 E2.78171
G1 X118.141 Y176.653 E2.79149
G1 X117.94 Y176.594 E2.79518
G1 X117.555 Y176.458 E2.80238
G1 X117.362 Y176.378 E2.80606
G1 X117.111 Y176.263 E2.81093
G1 X116.916 Y176.165 E2.81477
G1 X116.621 Y176.001 E2.82072
G1 X116.34 Y175.827 E2.82655
G1 X116.045 Y175.624 E2.83286
G1 X115.772 Y175.417 E2.8389
G1 X115.552 Y175.236 E2.84392
G1 X115.294 Y175.008 E2.84999
G1 X115.123 Y174.848 E2.85412
G1 X114.877 Y174.602 E2.86025
G1 X114.724 Y174.44 E2.86418
G1 X114.4 Y174.071 E2.87284
G1 X114.188 Y173.814 E2.87871
G1 X114.05 Y173.637 E2.88267
G1 X113.674 Y173.122 E2.89391
G1 X113.541 Y172.928 E2.89805
G1 X113.215 Y172.418 E2.90872
G1 X113.105 Y172.233 E2.91252
G1 X112.712 Y171.534 E2.92665
G1 X112.617 Y171.354 E2.93024
G1 X112.202 Y170.507 E2.94687
G1 X111.762 Y169.509 E2.9661
G1 X111.314 Y168.396 E2.98724
G1 X110.866 Y167.148 E3.01062
G1 X110.431 Y165.798 E3.03562
G1 X110.044 Y164.443 E3.06046
G1 X109.655 Y162.97 E3.08732
G1 X109.189 Y161.033 E3.12244
G1 X108.777 Y159.093 E3.1574
G1 X108.582 Y158.055 E3.17602
G1 X108.38 Y156.894 E3.19679
G1 X108.06 Y154.808 E3.23399
G1 X107.768 Y152.627 E3.27278
G1 X107.507 Y150.366 E3.3129
G1 X107.233 Y147.547 E3.36283
G1 X107.022 Y144.801 E3.41138
G1 X106.857 Y141.895 E3.46269
G1 X106.745 Y138.996 E3.51383
G1 X106.676 Y135.856 E3.56919
G1 X106.661 Y132.73 E3.6243
G1 X106.674 Y131.118 E3.65272
G1 X106.704 Y129.283 E3.68507
G1 X106.805 Y125.863 E3.74538
G1 X106.953 Y122.5 E3.80472
G1 X107.146 Y119.091 E3.86491
G1 X107.417 Y115.152 E3.93451
G1 X107.742 Y111.078 E4.00655
G1 X108.1 Y107.094 E4.07707
G1 X108.493 Y103.119 E4.14748
G1 X108.925 Y99.144 E4.21796
G1 X109.415 Y95.036 E4.29089
G1 X110.041 Y90.211 E4.37666
G1 X110.715 Y85.391 E4.46245
G1 X111.168 Y82.298 E4.51756
G1 X111.664 Y79.062 E4.57527
G1 X112.143 Y76.05 E4.62903
G1 X112.643 Y73.038 E4.68285
G1 X113.012 Y70.893 E4.72122
G1 X113.764 Y66.678 E4.79669
G1 X114.554 Y62.402 E4.87335
G1 X115.354 Y58.193 E4.94887
G1 X116.036 Y54.76 E5.01057
G1 X116.118 Y54.379 E5.01744
G1 X116.671 Y51.781 E5.06426
G1 X117.887 Y46.287 E5.16345
G1 X118.044 Y45.759 E5.17316
G0 F6000 X118.429 Y45.875
G1 F1200 X118.787 Y45.194 E5.18673
G1 X118.898 Y45.031 E5.1902
G1 X119.223 Y44.624 E5.19938
G1 X119.607 Y44.272 E5.20857
G1 X120.04 Y43.982 E5.21775
G1 X120.738 Y43.686 E5.23112
G1 X120.869 Y43.647 E5.23353
G1 X121.378 Y43.537 E5.24271
G1 X121.899 Y43.507 E5.25191
G1 X122.417 Y43.556 E5.26108
G1 X122.86 Y43.66 E5.2691
G1 X123.351 Y43.834 E5.27828
G1 X123.81 Y44.082 E5.28748
G1 X124.226 Y44.396 E5.29667
G1 X124.491 Y44.658 E5.30324
G1 X124.588 Y44.765 E5.30578
G1 X124.907 Y45.177 E5.31497
G1 X125.16 Y45.633 E5.32416
G1 X125.34 Y46.122 E5.33334
G1 X125.46 Y46.795 E5.3454
G1 X125.674 Y49.665 E5.39613
G1 X125.838 Y52.399 E5.44441
G1 X125.954 Y54.534 E5.4821
G1 X127.058 Y76.43 E5.86857
G1 X127.104 Y77.446 E5.8865
G1 X127.401 Y83.883 E6.00009
G1 X127.399 Y83.96 E6.00145
G1 X127.407 Y84.031 E6.00271
G1 X127.995 Y97.044 E6.23233
G1 X128.324 Y104.702 E6.36745
G1 X128.52 Y109.809 E6.45754
G1 X128.68 Y114.584 E6.54176
G1 X128.677 Y114.645 E6.54284
G1 X128.684 Y114.704 E6.54389
G1 X128.768 Y117.609 E6.59512
G1 X128.891 Y122.604 E6.6832
G1 X128.999 Y128.595 E6.78882
G1 X129.075 Y134.57 E6.89416
G1 X129.099 Y138.15 E6.95727
G1 X129.099 Y141.767 E7.02103
G1 X129.066 Y145.004 E7.07809
G1 X128.995 Y148.278 E7.13582
G1 X128.889 Y151.274 E7.18866
G1 X128.784 Y153.405 E7.22627
G1 X128.734 Y154.298 E7.24204
G1 X128.593 Y156.364 E7.27854
G1 X128.508 Y157.412 E7.29708
G1 X128.418 Y158.437 E7.31522
G1 X128.332 Y159.325 E7.33094
G1 X128.15 Y160.998 E7.36061
G1 X127.936 Y162.706 E7.39095
G1 X127.711 Y164.263 E7.41868
G1 X127.49 Y165.571 E7.44207
G1 X127.27 Y166.66 E7.46165
G1 X127.237 Y166.775 E7.46376
G1 X127.212 Y166.917 E7.4663
G1 X126.979 Y167.87 E7.4836
G1 X126.676 Y168.96 E7.50354
G1 X126.451 Y169.691 E7.51702
G1 X126.176 Y170.506 E7.53219
G1 X125.875 Y171.298 E7.54712
G1 X125.671 Y171.777 E7.5563
G1 X125.589 Y171.955 E7.55975
G1 X125.361 Y172.415 E7.5688
G1 X125.268 Y172.59 E7.5723
G1 X125.086 Y172.909 E7.57877
G1 X124.989 Y173.068 E7.58206
G1 X124.785 Y173.384 E7.58869
G1 X124.666 Y173.557 E7.59239
G1 X124.459 Y173.838 E7.59854
G1 X124.324 Y174.01 E7.60239
G1 X124.096 Y174.281 E7.60864
G1 X123.924 Y174.47 E7.61314
G1 X123.698 Y174.701 E7.61884
G1 X123.488 Y174.898 E7.62391
G1 X123.241 Y175.111 E7.62966
G1 X123.034 Y175.276 E7.63433
G1 X122.853 Y175.409 E7.63829
G1 X122.636 Y175.556 E7.64291
G1 X122.448 Y175.673 E7.64681
G1 X122.149 Y175.839 E7.65284
G1 X121.886 Y175.968 E7.65801
G1 X121.513 Y176.124 E7.66513
G1 X121.316 Y176.193 E7.66881
G1 X120.835 Y176.323 E7.6776
G1 X120.451 Y176.397 E7.68449
G1 X119.874 Y176.457 E7.69471
G1 X119.669 Y176.461 E7.69833
G1 X119.131 Y176.429 E7.70783
G1 X118.739 Y176.374 E7.71481
G1 X118.253 Y176.269 E7.72357
G1 X118.052 Y176.21 E7.72727
G1 X117.708 Y176.089 E7.73369
G1 X117.515 Y176.009 E7.73738
G1 X117.29 Y175.906 E7.74174
G1 X117.095 Y175.808 E7.74559
G1 X116.832 Y175.661 E7.7509
G1 X116.551 Y175.487 E7.75672
G1 X116.287 Y175.305 E7.76238
G1 X116.014 Y175.098 E7.76841
G1 X115.817 Y174.937 E7.7729
G1 X115.559 Y174.709 E7.77897
G1 X115.406 Y174.565 E7.78267
G1 X115.16 Y174.319 E7.78881
G1 X115.023 Y174.174 E7.79232
G1 X114.708 Y173.817 E7.80071
G1 X114.496 Y173.56 E7.80659
G1 X114.373 Y173.401 E7.81013
G1 X113.997 Y172.886 E7.82137
G1 X113.878 Y172.712 E7.82509
G1 X113.552 Y172.202 E7.83576
G1 X113.453 Y172.037 E7.83915
G1 X112.975 Y171.177 E7.85649
G1 X112.568 Y170.345 E7.87282
G1 X112.133 Y169.359 E7.89182
G1 X111.69 Y168.26 E7.91271
G1 X111.246 Y167.025 E7.93584
G1 X110.815 Y165.687 E7.96062
G1 X110.43 Y164.34 E7.98532
G1 X110.044 Y162.876 E8.012
G1 X109.581 Y160.949 E8.04694
G1 X109.17 Y159.019 E8.08173
G1 X108.975 Y157.981 E8.10034
G1 X108.776 Y156.833 E8.12088
G1 X108.456 Y154.755 E8.15794
G1 X108.166 Y152.581 E8.19661
G1 X107.905 Y150.327 E8.23661
G1 X107.632 Y147.516 E8.28639
G1 X107.422 Y144.778 E8.3348
G1 X107.257 Y141.88 E8.38597
G1 X107.145 Y138.987 E8.437
G1 X107.076 Y135.854 E8.49224
G1 X107.061 Y132.778 E8.54647
G1 X107.074 Y131.122 E8.57566
G1 X107.102 Y129.341 E8.60706
G1 X107.202 Y125.93 E8.66721
G1 X107.352 Y122.518 E8.72742
G1 X107.545 Y119.114 E8.78752
G1 X107.816 Y115.18 E8.85703
G1 X108.141 Y111.109 E8.92902
G1 X108.499 Y107.13 E8.99945
G1 X108.892 Y103.158 E9.06981
G1 X109.323 Y99.187 E9.14022
G1 X109.812 Y95.083 E9.21308
G1 X110.437 Y90.263 E9.29875
G1 X111.111 Y85.446 E9.38449
G1 X111.564 Y82.356 E9.43955
G1 X112.059 Y79.122 E9.49722
G1 X112.538 Y76.112 E9.55095
G1 X113.038 Y73.103 E9.60472
G1 X113.406 Y70.961 E9.64303
G1 X114.158 Y66.749 E9.71845
G1 X114.948 Y62.475 E9.79507
G1 X115.747 Y58.268 E9.87055
G1 X116.427 Y54.845 E9.93207
G1 X116.509 Y54.464 E9.93894
G1 X117.063 Y51.865 E9.98579
G1 X118.277 Y46.374 E10.08492
G1 X118.429 Y45.875 E10.09411
G0 F6000 X118.812 Y45.992
G1 F1200 X119.117 Y45.419 E10.10556
G1 X119.228 Y45.256 E10.10903
G1 X119.536 Y44.876 E10.11766
G1 X119.901 Y44.55 E10.12628
G1 X120.315 Y44.288 E10.13492
G1 X120.852 Y44.07 E10.14514
G1 X120.983 Y44.031 E10.14755
G1 X121.462 Y43.93 E10.15618
G1 X121.951 Y43.908 E10.1648
G1 X122.623 Y44.01 E10.17679
G1 X122.756 Y44.046 E10.17921
G1 X123.216 Y44.212 E10.18784
G1 X123.644 Y44.451 E10.19648
G1 X124.195 Y44.927 E10.20931
G1 X124.292 Y45.034 E10.21186
G1 X124.59 Y45.422 E10.22048
G1 X124.821 Y45.854 E10.22912
G1 X124.978 Y46.317 E10.23774
G1 X125.061 Y46.825 E10.24681
G1 X125.272 Y49.645 E10.29666
G1 X125.439 Y52.423 E10.34572
G1 X125.555 Y54.556 E10.38337
G1 X126.704 Y77.46 E10.78763
G1 X127.002 Y83.901 E10.90129
G1 X126.999 Y83.995 E10.90295
G1 X127.007 Y84.049 E10.90391
G1 X127.595 Y97.062 E11.13354
G1 X127.924 Y104.719 E11.26864
G1 X128.12 Y109.824 E11.3587
G1 X128.28 Y114.597 E11.44288
G1 X128.277 Y114.666 E11.4441
G1 X128.368 Y117.62 E11.4962
G1 X128.491 Y122.614 E11.58426
G1 X128.6 Y128.603 E11.68985
G1 X128.675 Y134.575 E11.79513
G1 X128.699 Y138.153 E11.8582
G1 X128.699 Y141.763 E11.92184
G1 X128.666 Y145 E11.9789
G1 X128.595 Y148.269 E12.03654
G1 X128.489 Y151.26 E12.0893
G1 X128.384 Y153.385 E12.12681
G1 X128.334 Y154.276 E12.14254
G1 X128.194 Y156.337 E12.17895
G1 X128.109 Y157.38 E12.1974
G1 X128.02 Y158.402 E12.21548
G1 X127.934 Y159.287 E12.23116
G1 X127.758 Y160.901 E12.25978
G1 X127.54 Y162.649 E12.29083
G1 X127.317 Y164.196 E12.31838
G1 X127.098 Y165.492 E12.34155
G1 X126.878 Y166.581 E12.36114
G1 X126.839 Y166.715 E12.3636
G1 X126.823 Y166.823 E12.36552
G1 X126.594 Y167.763 E12.38257
G1 X126.294 Y168.843 E12.40233
G1 X126.072 Y169.564 E12.41563
G1 X125.801 Y170.366 E12.43056
G1 X125.507 Y171.141 E12.44517
G1 X125.231 Y171.777 E12.45739
G1 X124.921 Y172.392 E12.46953
G1 X124.739 Y172.711 E12.476
G1 X124.653 Y172.851 E12.4789
G1 X124.449 Y173.167 E12.48553
G1 X124.344 Y173.319 E12.48879
G1 X124.137 Y173.6 E12.49494
G1 X124.018 Y173.752 E12.49834
G1 X123.79 Y174.023 E12.50458
G1 X123.638 Y174.19 E12.50857
G1 X123.412 Y174.421 E12.51426
G1 X123.227 Y174.595 E12.51874
G1 X122.98 Y174.808 E12.52449
G1 X122.797 Y174.954 E12.52861
G1 X122.616 Y175.087 E12.53257
G1 X122.425 Y175.216 E12.53664
G1 X122.237 Y175.333 E12.54054
G1 X121.973 Y175.479 E12.54586
G1 X121.71 Y175.608 E12.55102
G1 X121.381 Y175.746 E12.55731
G1 X121.184 Y175.815 E12.56099
G1 X120.76 Y175.93 E12.56874
G1 X120.376 Y176.004 E12.57563
G1 X119.867 Y176.057 E12.58465
G1 X119.662 Y176.061 E12.58826
G1 X119.186 Y176.033 E12.59667
G1 X118.794 Y175.978 E12.60365
G1 X118.366 Y175.886 E12.61136
G1 X118.165 Y175.827 E12.61506
G1 X117.861 Y175.719 E12.62074
G1 X117.668 Y175.639 E12.62443
G1 X117.47 Y175.549 E12.62826
G1 X117.275 Y175.451 E12.63211
G1 X117.043 Y175.321 E12.6368
G1 X116.762 Y175.147 E12.64262
G1 X116.528 Y174.987 E12.64762
G1 X116.255 Y174.78 E12.65366
G1 X116.081 Y174.637 E12.65763
G1 X115.823 Y174.409 E12.6637
G1 X115.689 Y174.282 E12.66695
G1 X115.322 Y173.909 E12.67618
G1 X115.017 Y173.562 E12.68432
G1 X114.805 Y173.305 E12.69019
G1 X114.696 Y173.165 E12.69332
G1 X114.32 Y172.65 E12.70456
G1 X114.215 Y172.497 E12.70783
G1 X113.889 Y171.987 E12.7185
G1 X113.802 Y171.841 E12.7215
G1 X113.334 Y171 E12.73847
G1 X112.934 Y170.183 E12.7545
G1 X112.503 Y169.209 E12.77328
G1 X112.066 Y168.124 E12.7939
G1 X111.627 Y166.902 E12.81678
G1 X111.2 Y165.577 E12.84132
G1 X110.817 Y164.238 E12.86587
G1 X110.432 Y162.783 E12.89241
G1 X109.972 Y160.866 E12.92716
G1 X109.564 Y158.945 E12.96178
G1 X109.369 Y157.907 E12.98039
G1 X109.171 Y156.772 E13.0007
G1 X108.853 Y154.702 E13.03762
G1 X108.563 Y152.535 E13.07616
G1 X108.303 Y150.289 E13.11602
G1 X108.031 Y147.486 E13.16566
G1 X107.821 Y144.755 E13.21395
G1 X107.656 Y141.864 E13.26499
G1 X107.545 Y138.978 E13.3159
G1 X107.476 Y135.852 E13.37102
G1 X107.461 Y132.776 E13.42524
G1 X107.474 Y131.125 E13.45435
G1 X107.502 Y129.347 E13.48569
G1 X107.602 Y125.942 E13.54574
G1 X107.752 Y122.535 E13.60586
G1 X107.945 Y119.137 E13.66586
G1 X108.215 Y115.207 E13.7353
G1 X108.54 Y111.141 E13.8072
G1 X108.897 Y107.166 E13.87755
G1 X109.29 Y103.198 E13.94784
G1 X109.721 Y99.23 E14.0182
G1 X110.209 Y95.131 E14.09097
G1 X110.834 Y90.314 E14.17659
G1 X111.507 Y85.501 E14.26226
G1 X111.96 Y82.414 E14.31726
G1 X112.455 Y79.183 E14.37488
G1 X112.933 Y76.175 E14.42857
G1 X113.433 Y73.169 E14.48229
G1 X113.8 Y71.029 E14.52056
G1 X114.552 Y66.819 E14.59595
G1 X115.341 Y62.548 E14.67251
G1 X116.14 Y58.342 E14.74798
G1 X116.809 Y54.975 E14.8085
G1 X117.454 Y51.948 E14.86305
G1 X118.668 Y46.46 E14.96213
G1 X118.812 Y45.992 E14.97077
G0 F6000 X119.195 Y46.112
G1 F1200 X119.448 Y45.645 E14.98013
G1 X119.559 Y45.482 E14.98361
G1 X119.847 Y45.129 E14.99164
G1 X120.193 Y44.832 E14.99967
G1 X120.585 Y44.6 E15.0077
G1 X120.966 Y44.453 E15.0149
G1 X121.097 Y44.414 E15.01731
G1 X121.544 Y44.323 E15.02535
G1 X121.999 Y44.311 E15.03338
G1 X122.518 Y44.396 E15.04265
G1 X122.651 Y44.432 E15.04508
G1 X123.079 Y44.589 E15.05311
G1 X123.473 Y44.819 E15.06115
G1 X123.898 Y45.196 E15.07117
G1 X123.995 Y45.303 E15.07372
