;FLAVOR:Marlin
;TIME:5975
;Filament used: 5.27688m
;Layer height: 0.25
;MINX:95.073
;MINY:21.744
;MINZ:0.2
;MAXX:128.926
;MAXY:198.262
;MAXZ:93.95
;Generated with Cura_SteamEngine 4.6.1
M140 S60
M105
M190 S60
M104 S235
M105
M109 S235
M82 ;absolute extrusion mode
; Ender 3 Custom Start G-code
G92 E0 ; Reset Extruder
G28 ; Home all axes
G1 Z2.0 F3000 ; Move Z Axis up little to prevent scratching of Heat Bed
G1 X0.1 Y20 Z0.3 F5000.0 ; Move to start position
G1 X0.1 Y200.0 Z0.3 F1500.0 E15 ; Draw the first line
G1 X0.4 Y200.0 Z0.3 F5000.0 ; Move to side a little
G1 X0.4 Y20 Z0.3 F1500.0 E30 ; Draw the second line
G92 E0 ; Reset Extruder
G1 Z2.0 F3000 ; Move Z Axis up little to prevent scratching of Heat Bed
G1 X5 Y20 Z0.3 F5000.0 ; Move over to prevent blob squish
G92 E0
G92 E0
G1 F3000 E-1
;LAYER_COUNT:376
;LAYER:0
M107
G0 F6000 X107.075 Y107.664 Z0.2
;TYPE:SKIRT
G1 F3000 E0.20788
G1 F1200 X107.219 Y111.609 E0.27746
G1 X107.528 Y118.953 E0.40704
G1 X107.532 Y119.03 E0.4084
G1 X107.753 Y123.677 E0.49041
G1 X107.994 Y128.33 E0.57254
G1 X108.424 Y135.905 E0.70628
G1 X108.895 Y143.483 E0.84013
G1 X109.058 Y145.915 E0.88309
G1 X120.14 Y145.527 E1.07857
G1 X120.1 Y144.785 E1.09166
G1 X119.877 Y141.396 E1.15153
G1 X119.605 Y137.998 E1.21163
G1 X119.287 Y134.588 E1.272
G1 X118.931 Y131.228 E1.33156
G1 X118.53 Y127.815 E1.39214
G1 X118.097 Y124.436 E1.45219
G1 X117.624 Y120.986 E1.51357
G1 X117.127 Y117.573 E1.57437
G1 X116.608 Y114.18 E1.63488
G1 X116.075 Y110.845 E1.69441
G1 X115.503 Y107.397 E1.75603
G1 X115.498 Y107.369 E1.75653
G1 X107.075 Y107.664 E1.9051
G0 F6000 X106.661 Y107.278
G1 F1200 X106.82 Y111.626 E1.98179
G1 X107.128 Y118.97 E2.11137
G1 X107.132 Y119.049 E2.11276
G1 X107.353 Y123.698 E2.19481
G1 X107.594 Y128.352 E2.27696
G1 X108.026 Y135.948 E2.41107
G1 X108.495 Y143.51 E2.54463
G1 X108.684 Y146.328 E2.59442
G1 X120.561 Y145.913 E2.80391
G1 X120.502 Y144.806 E2.82345
G1 X120.276 Y141.37 E2.88415
G1 X120 Y137.916 E2.94524
G1 X119.686 Y134.551 E3.00481
G1 X119.333 Y131.225 E3.06377
G1 X118.927 Y127.769 E3.12511
G1 X118.49 Y124.352 E3.18584
G1 X118.021 Y120.932 E3.24669
G1 X117.526 Y117.539 E3.30713
G1 X117.002 Y114.117 E3.36816
G1 X116.47 Y110.782 E3.42769
G1 X115.833 Y106.957 E3.49605
G1 X106.661 Y107.278 E3.65783
G0 F6000 X106.246 Y106.892
G1 F1200 X106.42 Y111.642 E3.74162
G1 X106.728 Y118.986 E3.87119
G1 X106.733 Y119.068 E3.87264
G1 X106.954 Y123.719 E3.95472
G1 X107.195 Y128.375 E4.0369
G1 X107.625 Y135.955 E4.17074
G1 X108.096 Y143.537 E4.30465
G1 X108.311 Y146.742 E4.36127
G1 X120.982 Y146.299 E4.58477
G1 X120.899 Y144.743 E4.61224
G1 X120.675 Y141.344 E4.67229
G1 X120.402 Y137.924 E4.73277
G1 X120.084 Y134.514 E4.79314
G1 X119.731 Y131.178 E4.85227
G1 X119.324 Y127.722 E4.91362
G1 X118.886 Y124.301 E4.97441
G1 X118.421 Y120.903 E5.03487
G1 X117.918 Y117.458 E5.09624
G1 X117.398 Y114.054 E5.15694
G1 X116.865 Y110.719 E5.21648
G1 X116.168 Y106.545 E5.29108
G1 X106.246 Y106.892 E5.46609
G0 F6000 X105.831 Y106.506
G1 F1200 X106.02 Y111.659 E5.55698
G1 X106.329 Y119.003 E5.68656
G1 X106.554 Y123.739 E5.77014
G1 X106.796 Y128.398 E5.85238
G1 X107.226 Y135.98 E5.98625
G1 X107.697 Y143.563 E6.12018
G1 X107.939 Y147.155 E6.18364
G1 X121.404 Y146.685 E6.42114
G1 X121.299 Y144.721 E6.45581
G1 X121.077 Y141.354 E6.5153
G1 X120.797 Y137.852 E6.57723
G1 X120.482 Y134.476 E6.637
G1 X120.124 Y131.102 E6.69681
G1 X119.722 Y127.675 E6.75763
G1 X119.283 Y124.25 E6.8185
G1 X118.813 Y120.823 E6.87948
G1 X118.314 Y117.4 E6.94045
G1 X117.793 Y113.991 E7.00125
G1 X117.26 Y110.656 E7.06078
G1 X116.687 Y107.201 E7.12252
G1 X116.504 Y106.132 E7.14164
G1 X105.831 Y106.506 E7.32989
G0 F6000 X105.418 Y106.121
G1 F1200 X105.622 Y111.687 E7.42808
G1 X105.929 Y119.02 E7.55745
G1 X105.934 Y119.106 E7.55897
G1 X106.156 Y123.769 E7.64126
G1 X106.396 Y128.42 E7.72336
G1 X106.826 Y136.005 E7.85728
G1 X107.298 Y143.59 E7.99125
G1 X107.567 Y147.568 E8.06153
G1 X121.824 Y147.07 E8.31301
G1 X121.821 Y147.004 E8.31417
G1 X121.698 Y144.7 E8.35484
G1 X121.474 Y141.291 E8.41507
G1 X121.196 Y137.82 E8.47645
G1 X120.884 Y134.467 E8.53581
G1 X120.522 Y131.06 E8.59621
G1 X120.119 Y127.629 E8.6571
G1 X119.683 Y124.219 E8.7177
G1 X119.209 Y120.769 E8.77909
G1 X118.71 Y117.342 E8.84014
G1 X118.185 Y113.914 E8.90127
G1 X117.655 Y110.593 E8.96056
G1 X117.082 Y107.135 E9.02234
G1 X116.839 Y105.721 E9.04763
G1 X105.418 Y106.121 E9.24909
G0 F6000 X105.003 Y105.735
G1 F1200 X105.222 Y111.702 E9.35434
G1 X105.529 Y119.037 E9.48376
G1 X105.534 Y119.125 E9.48531
G1 X105.756 Y123.781 E9.56748
G1 X105.998 Y128.452 E9.64993
G1 X106.427 Y136.029 E9.78371
G1 X106.9 Y143.625 E9.91787
G1 X107.195 Y147.981 E9.99483
G1 X122.242 Y147.455 E10.26024
G1 X122.221 Y146.987 E10.2685
G1 X122.098 Y144.679 E10.30924
G1 X121.873 Y141.265 E10.36955
G1 X121.595 Y137.788 E10.43104
G1 X121.279 Y134.402 E10.49099
G1 X120.92 Y131.018 E10.55098
G1 X120.516 Y127.582 E10.61196
G1 X120.077 Y124.149 E10.67297
G1 X119.606 Y120.714 E10.73409
G1 X119.106 Y117.285 E10.79518
G1 X118.583 Y113.865 E10.85616
G1 X118.05 Y110.53 E10.9157
G1 X117.476 Y107.07 E10.97753
G1 X117.173 Y105.309 E11.00902
G1 X105.003 Y105.735 E11.22369
G0 F6000 X104.588 Y105.349
G1 F1200 X104.822 Y111.709 E11.33588
G1 X105.13 Y119.053 E11.46545
G1 X105.134 Y119.144 E11.46705
G1 X105.356 Y123.802 E11.54926
G1 X105.598 Y128.466 E11.63159
G1 X106.029 Y136.062 E11.7657
G1 X106.5 Y143.643 E11.8996
G1 X106.823 Y148.395 E11.98356
G1 X122.658 Y147.841 E12.26287
G1 X122.62 Y146.969 E12.27825
G1 X122.497 Y144.658 E12.31905
G1 X122.273 Y141.259 E12.37909
G1 X121.993 Y137.757 E12.44102
G1 X121.677 Y134.365 E12.50108
G1 X121.318 Y130.976 E12.56115
G1 X120.916 Y127.55 E12.62196
G1 X120.473 Y124.098 E12.68331
G1 X120.002 Y120.66 E12.74448
G1 X119.503 Y117.237 E12.80546
G1 X118.976 Y113.793 E12.86688
G1 X118.445 Y110.467 E12.92625
G1 X117.871 Y107.004 E12.98813
G1 X117.508 Y104.897 E13.02582
G1 X104.588 Y105.349 E13.25371
G0 F6000 X104.174 Y104.963
G1 F1200 X104.422 Y111.726 E13.373
G1 X104.73 Y119.07 E13.50258
G1 X104.735 Y119.163 E13.50422
G1 X104.957 Y123.822 E13.58644
G1 X105.199 Y128.493 E13.66889
G1 X105.629 Y136.079 E13.80283
G1 X106.101 Y143.67 E13.9369
G1 X106.311 Y146.804 E13.99227
G1 X106.452 Y148.808 E14.02769
G1 X123.076 Y148.227 E14.32091
G1 X123.02 Y146.952 E14.34341
G1 X122.896 Y144.636 E14.38429
G1 X122.671 Y141.213 E14.44476
G1 X122.392 Y137.725 E14.50644
G1 X122.075 Y134.328 E14.56659
G1 X121.716 Y130.933 E14.62677
G1 X121.311 Y127.489 E14.6879
G1 X120.87 Y124.047 E14.74907
G1 X120.398 Y120.606 E14.81029
G1 X119.897 Y117.169 E14.87152
G1 X119.373 Y113.739 E14.93268
G1 X118.84 Y110.404 E14.99222
G1 X118.265 Y106.939 E15.05414
G1 X117.843 Y104.485 E15.09803
G1 X104.174 Y104.963 E15.33913
G0 F6000 X103.76 Y104.578
G1 F1200 X104.023 Y111.746 E15.46557
G1 X104.33 Y119.087 E15.59509
G1 X104.322 Y119.142 E15.59607
G1 X104.557 Y123.843 E15.67904
G1 X104.799 Y128.511 E15.76144
G1 X105.23 Y136.104 E15.89551
G1 X105.702 Y143.697 E16.02961
G1 X105.912 Y146.832 E16.085
G1 X106.079 Y149.221 E16.12722
G1 X123.494 Y148.612 E16.43439
G1 X123.42 Y146.934 E16.464
G1 X123.296 Y144.615 E16.50494
G1 X123.07 Y141.186 E16.56552
G1 X122.791 Y137.693 E16.62729
G1 X122.475 Y134.298 E16.68739
G1 X122.113 Y130.891 E16.74779
G1 X121.708 Y127.442 E16.809
G1 X121.267 Y123.996 E16.87024
G1 X120.796 Y120.557 E16.93143
G1 X120.293 Y117.112 E16.9928
G1 X119.768 Y113.676 E17.05408
G1 X119.235 Y110.341 E17.11361
G1 X118.66 Y106.873 E17.17558
G1 X118.179 Y104.073 E17.22566
G1 X103.76 Y104.578 E17.47999
G0 F6000 X103.345 Y104.192
G1 F1200 X103.623 Y111.76 E17.61349
G1 X103.936 Y119.201 E17.74478
G1 X104.158 Y123.864 E17.82707
G1 X104.4 Y128.534 E17.9095
G1 X104.831 Y136.129 E18.0436
G1 X105.303 Y143.725 E18.17776
G1 X105.513 Y146.86 E18.23315
G1 X105.707 Y149.634 E18.28217
G1 X123.91 Y148.998 E18.60324
G1 X123.819 Y146.917 E18.63996
G1 X123.695 Y144.594 E18.68097
G1 X123.469 Y141.16 E18.74163
G1 X123.19 Y137.661 E18.80351
G1 X122.872 Y134.254 E18.86383
G1 X122.511 Y130.849 E18.92419
G1 X122.105 Y127.395 E18.98549
G1 X121.664 Y123.945 E19.0468
G1 X121.191 Y120.497 E19.10815
G1 X120.689 Y117.054 E19.16949
G1 X120.162 Y113.611 E19.23089
G1 X119.63 Y110.278 E19.29039
G1 X119.055 Y106.808 E19.35239
G1 X118.514 Y103.662 E19.40866
G1 X118.259 Y103.67 E19.41316
G1 X103.345 Y104.192 E19.67622
G1 F3000 E18.67622
G0 F6000 X102.31 Y110.174
G1 F3000 E19.8841
G1 F1200 X102.059 Y103.186 E20.00736
G1 X102.078 Y103.122 E20.00854
G1 X102.057 Y103.084 E20.0093
G1 X101.828 Y95.88 E20.13636
G1 X101.038 Y68.905 E20.61207
G1 X101.068 Y68.804 E20.61393
G1 X101.034 Y68.742 E20.61518
G1 X100.999 Y67.462 E20.63775
G1 X101.019 Y67.395 E20.63898
G1 X101.001 Y67.361 E20.63966
G1 X100.715 Y55.966 E20.84059
G1 X100.266 Y37.084 E21.17354
G1 X100.291 Y37.002 E21.17505
G1 X100.263 Y36.951 E21.17607
G1 X100.24 Y35.927 E21.19413
G1 X100.263 Y35.852 E21.19551
G1 X100.249 Y35.826 E21.19603
G1 X100.154 Y30.819 E21.28431
G1 X100.132 Y28.23 E21.32995
G1 X100.123 Y25.787 E21.37302
G1 X100.131 Y25.728 E21.37406
G1 X100.173 Y25.588 E21.37664
G1 X100.236 Y25.492 E21.37867
G1 X100.348 Y25.398 E21.38124
G1 X100.459 Y25.352 E21.38336
G1 X100.603 Y25.339 E21.38591
G1 X100.712 Y25.36 E21.38787
G1 X100.842 Y25.426 E21.39044
G1 X100.926 Y25.508 E21.39251
G1 X100.993 Y25.63 E21.39496
G1 X101.719 Y28.075 E21.43992
G1 X103.214 Y33.017 E21.53094
G1 X103.939 Y35.46 E21.57586
G1 X104.658 Y37.967 E21.62183
G1 X105.778 Y42.019 E21.69594
G1 X106.672 Y45.341 E21.75658
G1 X107.977 Y50.265 E21.84638
G1 X108.954 Y54.009 E21.91459
G1 X109.905 Y57.721 E21.98213
G1 X110.835 Y61.438 E22.04968
G1 X112.161 Y66.928 E22.14924
G1 X112.772 Y69.528 E22.19632
G1 X114.114 Y75.406 E22.3026
G1 X115.431 Y81.405 E22.41087
G1 X116.32 Y85.586 E22.48622
G1 X117.176 Y89.763 E22.56138
G1 X118 Y93.944 E22.6365
G1 X118.773 Y98.036 E22.70991
G1 X119.291 Y100.865 E22.76061
G1 X119.79 Y103.697 E22.8113
G1 X120.731 Y109.259 E22.91074
G1 X121.34 Y113.047 E22.97837
G1 X121.922 Y116.839 E23.046
G1 X122.473 Y120.635 E23.11361
G1 X122.99 Y124.437 E23.18125
G1 X123.269 Y126.627 E23.22017
G1 X123.55 Y128.928 E23.26103
G1 X123.807 Y131.176 E23.30092
G1 X124.045 Y133.427 E23.34082
G1 X124.269 Y135.696 E23.38101
G1 X124.464 Y137.897 E23.41996
G1 X124.65 Y140.173 E23.46022
G1 X124.813 Y142.448 E23.50042
G1 X124.972 Y145.015 E23.54576
G1 X125.105 Y147.635 E23.59201
G1 X125.206 Y150.151 E23.63639
G1 X125.277 Y152.668 E23.68078
G1 X125.317 Y155.1 E23.72366
G1 X125.326 Y157.534 E23.76656
G1 X125.305 Y159.782 E23.80619
G1 X125.255 Y162.031 E23.84585
G1 X125.182 Y164.199 E23.88409
G1 X125.081 Y166.365 E23.92231
G1 X124.947 Y168.591 E23.96162
G1 X124.782 Y170.761 E23.99998
G1 X124.607 Y172.624 E24.03297
G1 X124.389 Y174.545 E24.06705
G1 X124.228 Y175.76 E24.08865
G1 X124.058 Y176.919 E24.1093
G1 X123.867 Y178.132 E24.13095
G1 X123.523 Y180.098 E24.16613
G1 X123.23 Y181.611 E24.1933
G1 X123.066 Y182.394 E24.2074
G1 X122.733 Y183.852 E24.23376
G1 X122.35 Y185.313 E24.26039
G1 X122.031 Y186.398 E24.28032
G1 X121.683 Y187.472 E24.30023
G1 X121.332 Y188.465 E24.31879
G1 X120.949 Y189.433 E24.33714
G1 X120.608 Y190.201 E24.35196
G1 X120.221 Y190.972 E24.36716
G1 X119.876 Y191.575 E24.37941
G1 X119.493 Y192.17 E24.39188
G1 X119.15 Y192.644 E24.4022
G1 X118.772 Y193.103 E24.41268
G1 X118.453 Y193.444 E24.42091
G1 X118.104 Y193.768 E24.4293
G1 X117.736 Y194.052 E24.4375
G1 X117.342 Y194.297 E24.44568
G1 X117.004 Y194.457 E24.45227
G1 X116.658 Y194.573 E24.4587
G1 X116.29 Y194.645 E24.46531
G1 X115.926 Y194.667 E24.47174
G1 X115.65 Y194.65 E24.47661
G1 X115.381 Y194.605 E24.48142
G1 X115.118 Y194.534 E24.48622
G1 X114.86 Y194.438 E24.49108
G1 X114.56 Y194.299 E24.49691
G1 X114.269 Y194.131 E24.50283
G1 X113.983 Y193.933 E24.50896
G1 X113.711 Y193.717 E24.51508
G1 X113.458 Y193.491 E24.52106
G1 X113.211 Y193.244 E24.52722
G1 X112.988 Y193.001 E24.53303
G1 X112.776 Y192.747 E24.53887
G1 X112.415 Y192.261 E24.54954
G1 X112.087 Y191.759 E24.56011
G1 X111.808 Y191.276 E24.56994
G1 X111.552 Y190.786 E24.57969
G1 X111.327 Y190.316 E24.58887
G1 X111.119 Y189.853 E24.59782
G1 X110.714 Y188.887 E24.61629
G1 X110.162 Y187.44 E24.64359
G1 X109.901 Y186.691 E24.65757
G1 X109.655 Y185.939 E24.67152
G1 X109.338 Y184.884 E24.69093
G1 X109.053 Y183.827 E24.71023
G1 X108.669 Y182.242 E24.73898
G1 X108.318 Y180.647 E24.76777
G1 X107.984 Y179.021 E24.79703
G1 X107.707 Y177.593 E24.82267
G1 X107.717 Y177.511 E24.82413
G1 X107.679 Y177.453 E24.82535
G1 X107.424 Y176.054 E24.85042
G1 X106.969 Y173.312 E24.89942
G1 X106.556 Y170.535 E24.94891
G1 X106.273 Y168.427 E24.9864
G1 X106.011 Y166.325 E25.02374
G1 X105.765 Y164.219 E25.06112
G1 X105.537 Y162.112 E25.09848
G1 X105.257 Y159.312 E25.14808
G1 X105.001 Y156.512 E25.19764
G1 X104.754 Y153.569 E25.24971
G1 X104.54 Y150.835 E25.29805
G1 X104.556 Y150.77 E25.29923
G1 X104.535 Y150.733 E25.29998
G1 X104.31 Y147.594 E25.35545
G1 X104.097 Y144.445 E25.41109
G1 X103.697 Y138.106 E25.52306
G1 X103.329 Y131.847 E25.63358
G1 X102.981 Y125.377 E25.7478
G1 X102.685 Y119.251 E25.85591
G1 X102.702 Y119.189 E25.85704
G1 X102.681 Y119.151 E25.85781
G1 X102.64 Y118.208 E25.87445
G1 X102.31 Y110.174 E26.01619
G0 F6000 X101.911 Y110.19
G1 F1200 X101.659 Y103.201 E26.13947
G1 X101.668 Y103.138 E26.14059
G1 X101.428 Y95.893 E26.26838
G1 X100.638 Y68.917 E26.74411
G1 X100.653 Y68.822 E26.74581
G1 X100.634 Y68.753 E26.74707
G1 X100.599 Y67.473 E26.76964
G1 X100.61 Y67.404 E26.77087
G1 X100.315 Y55.976 E26.97239
G1 X99.866 Y37.094 E27.30533
G1 X99.878 Y37.017 E27.30671
G1 X99.863 Y36.96 E27.30775
G1 X99.84 Y35.936 E27.3258
G1 X99.854 Y35.851 E27.32732
G1 X99.754 Y30.826 E27.41592
G1 X99.732 Y28.233 E27.46163
G1 X99.723 Y25.787 E27.50475
G1 X99.748 Y25.613 E27.50784
G1 X99.79 Y25.473 E27.51042
G1 X99.89 Y25.278 E27.51428
G1 X99.979 Y25.185 E27.51655
G1 X100.091 Y25.091 E27.51913
G1 X100.281 Y24.984 E27.52297
G1 X100.423 Y24.953 E27.52554
G1 X100.567 Y24.94 E27.52809
G1 X100.784 Y24.961 E27.53193
G1 X100.893 Y25.003 E27.53399
G1 X101.023 Y25.069 E27.53656
G1 X101.196 Y25.201 E27.54039
G1 X101.277 Y25.315 E27.54286
G1 X101.344 Y25.437 E27.54531
G1 X101.394 Y25.556 E27.54759
G1 X102.103 Y27.962 E27.5918
G1 X103.597 Y32.901 E27.68276
G1 X104.322 Y35.346 E27.72772
G1 X105.043 Y37.856 E27.77375
G1 X106.163 Y41.912 E27.84793
G1 X107.058 Y45.237 E27.90863
G1 X108.364 Y50.163 E27.99846
G1 X109.341 Y53.908 E28.06669
G1 X110.292 Y57.622 E28.13427
G1 X111.223 Y61.341 E28.20185
G1 X112.55 Y66.834 E28.30147
G1 X113.161 Y69.437 E28.3486
G1 X114.504 Y75.317 E28.45492
G1 X115.822 Y81.319 E28.56324
G1 X116.711 Y85.503 E28.63865
G1 X117.568 Y89.682 E28.71385
G1 X118.393 Y93.867 E28.78904
G1 X119.166 Y97.962 E28.8625
G1 X119.684 Y100.793 E28.91323
G1 X120.184 Y103.628 E28.96398
G1 X121.126 Y109.192 E29.06346
G1 X121.735 Y112.984 E29.13116
G1 X122.317 Y116.778 E29.19882
G1 X122.869 Y120.578 E29.26651
G1 X123.387 Y124.383 E29.3342
G1 X123.666 Y126.576 E29.37317
G1 X123.947 Y128.879 E29.41407
G1 X124.204 Y131.131 E29.45402
G1 X124.443 Y133.385 E29.49398
G1 X124.667 Y135.657 E29.53422
G1 X124.863 Y137.862 E29.57325
G1 X125.049 Y140.14 E29.61354
G1 X125.212 Y142.419 E29.65381
G1 X125.371 Y144.99 E29.69922
G1 X125.504 Y147.615 E29.74555
G1 X125.606 Y150.135 E29.79001
G1 X125.677 Y152.657 E29.83449
G1 X125.717 Y155.093 E29.87744
G1 X125.726 Y157.533 E29.92045
G1 X125.705 Y159.786 E29.96016
G1 X125.655 Y162.04 E29.99991
G1 X125.582 Y164.212 E30.03822
G1 X125.48 Y166.384 E30.07655
G1 X125.346 Y168.615 E30.11595
G1 X125.181 Y170.791 E30.15441
G1 X125.005 Y172.661 E30.18752
