;FLAVOR:Marlin
;TIME:2068
;Filament used: 1.62686m
;Layer height: 0.25
;MINX:90.502
;MINY:43.12
;MINZ:0.2
;MAXX:125.497
;MAXY:176.852
;MAXZ:81.95
;Generated with Cura_SteamEngine 4.6.1
M140 S60
M105
M190 S60
M104 S235
M105
M109 S235
M82 ;absolute extrusion mode
; Ender 3 Custom Start G-code
G92 E0 ; Reset Extruder
G28 ; Home all axes
G1 Z2.0 F3000 ; Move Z Axis up little to prevent scratching of Heat Bed
G1 X0.1 Y20 Z0.3 F5000.0 ; Move to start position
G1 X0.1 Y200.0 Z0.3 F1500.0 E15 ; Draw the first line
G1 X0.4 Y200.0 Z0.3 F5000.0 ; Move to side a little
G1 X0.4 Y20 Z0.3 F1500.0 E30 ; Draw the second line
G92 E0 ; Reset Extruder
G1 Z2.0 F3000 ; Move Z Axis up little to prevent scratching of Heat Bed
G1 X5 Y20 Z0.3 F5000.0 ; Move over to prevent blob squish
G92 E0
G92 E0
G1 F3000 E-1
;LAYER_COUNT:329
;LAYER:0
M107
G0 F6000 X94.611 Y45.203 Z0.2
;TYPE:SKIRT
G1 F3000 E0.20788
G1 F1200 X94.907 Y44.738 E0.21759
G1 X95.267 Y44.32 E0.22732
G1 X95.707 Y43.941 E0.23755
G1 X95.82 Y43.858 E0.24003
G1 X96.287 Y43.565 E0.24974
G1 X96.791 Y43.343 E0.25945
G1 X97.322 Y43.195 E0.26917
G1 X97.805 Y43.13 E0.27776
G1 X97.948 Y43.12 E0.28029
G1 X98.499 Y43.122 E0.29
G1 X99.044 Y43.203 E0.29971
G1 X99.571 Y43.362 E0.30942
G1 X100.101 Y43.613 E0.31975
G1 X100.225 Y43.684 E0.32227
G1 X100.682 Y43.992 E0.33199
G1 X101.09 Y44.363 E0.34171
G1 X101.44 Y44.788 E0.35141
G1 X101.696 Y45.205 E0.36004
G1 X101.76 Y45.326 E0.36245
G1 X101.982 Y45.831 E0.37218
G1 X102.112 Y46.287 E0.38054
G1 X102.711 Y49.013 E0.42974
G1 X103.322 Y51.746 E0.4791
G1 X103.976 Y54.82 E0.5345
G1 X104.638 Y58.155 E0.59444
G1 X105.457 Y62.468 E0.67183
G1 X106.246 Y66.733 E0.74828
G1 X107.003 Y70.98 E0.82433
G1 X107.374 Y73.145 E0.86305
G1 X107.873 Y76.156 E0.91685
G1 X108.353 Y79.172 E0.97069
G1 X108.847 Y82.409 E1.02841
G1 X109.3 Y85.501 E1.0835
G1 X109.972 Y90.308 E1.16906
G1 X110.614 Y95.271 E1.25727
G1 X111.085 Y99.243 E1.32778
G1 X111.517 Y103.222 E1.39834
G1 X111.91 Y107.201 E1.46882
G1 X112.277 Y111.324 E1.54179
G1 X112.59 Y115.252 E1.61125
G1 X112.859 Y119.189 E1.68081
G1 X113.052 Y122.595 E1.74095
G1 X113.202 Y126.065 E1.80217
G1 X113.298 Y129.43 E1.86151
G1 X113.326 Y131.088 E1.89075
G1 X113.339 Y132.876 E1.92226
G1 X113.321 Y136.069 E1.97855
G1 X113.248 Y139.206 E2.03387
G1 X113.132 Y142.109 E2.08508
G1 X112.968 Y144.949 E2.13523
G1 X112.748 Y147.773 E2.18516
G1 X112.469 Y150.579 E2.23487
G1 X112.214 Y152.766 E2.27368
G1 X111.919 Y154.958 E2.31267
G1 X111.595 Y157.042 E2.34985
G1 X111.403 Y158.135 E2.36941
G1 X111.189 Y159.25 E2.38942
G1 X110.772 Y161.204 E2.42464
G1 X110.309 Y163.115 E2.4593
G1 X109.945 Y164.493 E2.48443
G1 X109.513 Y165.978 E2.51169
G1 X109.104 Y167.245 E2.53516
G1 X108.61 Y168.595 E2.5605
G1 X108.208 Y169.587 E2.57937
G1 X107.746 Y170.622 E2.59935
G1 X107.306 Y171.503 E2.61671
G1 X106.926 Y172.186 E2.63049
G1 X106.807 Y172.384 E2.63456
G1 X106.469 Y172.913 E2.64562
G1 X106.345 Y173.096 E2.64952
G1 X105.972 Y173.611 E2.66073
G1 X105.818 Y173.809 E2.66515
G1 X105.515 Y174.171 E2.67347
G1 X105.293 Y174.422 E2.67938
G1 X105.145 Y174.58 E2.6832
G1 X104.893 Y174.834 E2.6895
G1 X104.711 Y175.005 E2.69391
G1 X104.453 Y175.233 E2.69998
G1 X104.238 Y175.41 E2.70489
G1 X103.966 Y175.617 E2.71091
G1 X103.675 Y175.818 E2.71714
G1 X103.391 Y175.995 E2.72304
G1 X103.08 Y176.169 E2.72933
G1 X102.886 Y176.266 E2.73315
G1 X102.617 Y176.388 E2.73836
G1 X102.42 Y176.468 E2.7421
G1 X102.077 Y176.588 E2.74851
G1 X101.876 Y176.648 E2.75221
G1 X101.317 Y176.77 E2.76229
G1 X100.925 Y176.825 E2.76927
G1 X100.126 Y176.852 E2.78336
G1 X99.762 Y176.826 E2.7898
G1 X99.165 Y176.736 E2.80044
G1 X98.939 Y176.683 E2.80453
G1 X98.557 Y176.571 E2.81155
G1 X98.359 Y176.502 E2.81525
G1 X97.983 Y176.349 E2.8224
G1 X97.795 Y176.26 E2.82607
G1 X97.53 Y176.121 E2.83134
G1 X97.347 Y176.016 E2.83506
G1 X97.097 Y175.86 E2.84026
G1 X96.921 Y175.74 E2.84401
G1 X96.652 Y175.538 E2.84994
G1 X96.446 Y175.369 E2.85464
G1 X96.204 Y175.153 E2.86036
G1 X95.855 Y174.813 E2.86895
G1 X95.599 Y174.537 E2.87558
G1 X95.371 Y174.266 E2.88182
G1 X95.22 Y174.074 E2.88613
G1 X95.013 Y173.793 E2.89228
G1 X94.869 Y173.583 E2.89677
G1 X94.631 Y173.21 E2.90457
G1 X94.513 Y173.012 E2.90863
G1 X94.334 Y172.69 E2.91513
G1 X94.237 Y172.505 E2.91881
G1 X94.013 Y172.044 E2.92785
G1 X93.935 Y171.872 E2.93117
G1 X93.704 Y171.32 E2.94172
G1 X93.404 Y170.518 E2.95682
G1 X93.151 Y169.758 E2.97094
G1 X92.886 Y168.882 E2.98707
G1 X92.606 Y167.863 E3.0057
G1 X92.4 Y167.019 E3.02101
G1 X92.37 Y166.842 E3.02418
G1 X92.34 Y166.746 E3.02595
G1 X92.094 Y165.523 E3.04794
G1 X91.881 Y164.241 E3.07085
G1 X91.658 Y162.694 E3.0984
G1 X91.445 Y160.983 E3.1288
G1 X91.275 Y159.407 E3.15674
G1 X91.188 Y158.505 E3.17271
G1 X91.008 Y156.39 E3.21013
G1 X90.871 Y154.364 E3.24593
G1 X90.818 Y153.455 E3.26198
G1 X90.777 Y152.558 E3.27781
G1 X90.711 Y151.287 E3.30024
G1 X90.606 Y148.289 E3.35312
G1 X90.535 Y145.052 E3.4102
G1 X90.502 Y141.769 E3.46807
G1 X90.502 Y138.149 E3.53189
G1 X90.525 Y134.589 E3.59464
G1 X90.601 Y128.61 E3.70005
G1 X90.71 Y122.618 E3.80569
G1 X90.831 Y117.617 E3.89387
G1 X90.917 Y114.691 E3.94548
G1 X90.924 Y114.627 E3.94661
G1 X90.921 Y114.569 E3.94763
G1 X91.081 Y109.81 E4.03157
G1 X91.275 Y104.705 E4.12163
G1 X91.606 Y97.021 E4.25721
G1 X92.193 Y84.014 E4.48673
G1 X92.203 Y83.934 E4.48815
G1 X92.2 Y83.864 E4.48938
G1 X92.542 Y76.426 E4.62064
G1 X92.651 Y74.166 E4.66052
G1 X93.655 Y54.374 E5.00986
G1 X93.779 Y52.105 E5.04992
G1 X93.955 Y49.222 E5.10083
G1 X94.118 Y46.873 E5.14234
G1 X94.196 Y46.327 E5.15206
G1 X94.338 Y45.837 E5.16106
G1 X94.386 Y45.705 E5.16353
G1 X94.611 Y45.203 E5.17323
G0 F6000 X94.977 Y45.367
G1 F1200 X95.262 Y44.931 E5.18241
G1 X95.61 Y44.544 E5.19159
G1 X95.944 Y44.264 E5.19927
G1 X96.057 Y44.181 E5.20174
G1 X96.5 Y43.905 E5.21094
G1 X96.979 Y43.701 E5.22012
G1 X97.484 Y43.572 E5.22931
G1 X97.833 Y43.529 E5.23551
G1 X97.976 Y43.519 E5.23803
G1 X98.497 Y43.523 E5.24722
G1 X99.011 Y43.606 E5.2564
G1 X99.507 Y43.767 E5.26559
G1 X99.902 Y43.96 E5.27334
G1 X100.026 Y44.031 E5.27586
G1 X100.458 Y44.324 E5.28506
G1 X100.839 Y44.68 E5.29425
G1 X101.161 Y45.089 E5.30343
G1 X101.342 Y45.392 E5.30965
G1 X101.406 Y45.513 E5.31206
G1 X101.614 Y45.991 E5.32125
G1 X101.722 Y46.373 E5.32825
G1 X102.324 Y49.111 E5.37767
G1 X102.931 Y51.833 E5.42683
G1 X103.574 Y54.852 E5.48124
G1 X104.246 Y58.233 E5.54201
G1 X105.064 Y62.543 E5.61934
G1 X105.852 Y66.806 E5.69576
G1 X106.609 Y71.05 E5.77175
G1 X106.98 Y73.212 E5.81042
G1 X107.478 Y76.222 E5.8642
G1 X107.958 Y79.235 E5.91798
G1 X108.452 Y82.47 E5.97567
G1 X108.904 Y85.559 E6.0307
G1 X109.576 Y90.363 E6.11621
G1 X110.217 Y95.322 E6.20436
G1 X110.688 Y99.29 E6.2748
G1 X111.119 Y103.265 E6.34528
G1 X111.512 Y107.24 E6.41569
G1 X111.879 Y111.359 E6.48859
G1 X112.191 Y115.284 E6.55799
G1 X112.46 Y119.216 E6.62747
G1 X112.653 Y122.617 E6.68752
G1 X112.803 Y126.076 E6.74855
G1 X112.899 Y129.441 E6.80789
G1 X112.926 Y131.094 E6.83703
G1 X112.939 Y132.879 E6.8685
G1 X112.921 Y136.06 E6.92458
G1 X112.848 Y139.19 E6.97977
G1 X112.732 Y142.086 E7.03086
G1 X112.569 Y144.918 E7.08086
G1 X112.349 Y147.734 E7.13065
G1 X112.072 Y150.532 E7.18022
G1 X111.818 Y152.712 E7.21891
G1 X111.524 Y154.897 E7.25777
G1 X111.201 Y156.973 E7.29481
G1 X111.01 Y158.06 E7.31426
G1 X110.798 Y159.166 E7.33411
G1 X110.383 Y161.11 E7.36915
G1 X109.922 Y163.013 E7.40367
G1 X109.561 Y164.382 E7.42863
G1 X109.132 Y165.856 E7.45569
G1 X108.728 Y167.109 E7.4789
G1 X108.239 Y168.446 E7.50399
G1 X107.842 Y169.425 E7.52261
G1 X107.388 Y170.445 E7.5423
G1 X106.956 Y171.308 E7.55931
G1 X106.576 Y171.991 E7.57309
G1 X106.47 Y172.169 E7.57674
G1 X106.132 Y172.698 E7.5878
G1 X106.021 Y172.861 E7.59128
G1 X105.648 Y173.376 E7.60249
G1 X105.51 Y173.554 E7.60646
G1 X105.216 Y173.906 E7.61454
G1 X104.994 Y174.157 E7.62045
G1 X104.861 Y174.299 E7.62388
G1 X104.609 Y174.553 E7.63019
G1 X104.446 Y174.706 E7.63413
G1 X104.188 Y174.934 E7.6402
G1 X103.996 Y175.092 E7.64458
G1 X103.724 Y175.299 E7.65061
G1 X103.463 Y175.478 E7.65619
G1 X103.179 Y175.655 E7.66208
G1 X102.902 Y175.811 E7.66769
G1 X102.708 Y175.908 E7.67151
G1 X102.466 Y176.017 E7.67619
G1 X102.269 Y176.097 E7.67994
G1 X101.963 Y176.205 E7.68566
G1 X101.762 Y176.265 E7.68936
G1 X101.261 Y176.374 E7.69839
G1 X100.869 Y176.429 E7.70537
G1 X100.155 Y176.453 E7.71797
G1 X99.791 Y176.427 E7.7244
G1 X99.257 Y176.346 E7.73392
G1 X99.031 Y176.293 E7.73801
G1 X98.688 Y176.194 E7.74431
G1 X98.49 Y176.125 E7.748
G1 X98.154 Y175.987 E7.7544
G1 X97.966 Y175.898 E7.75807
G1 X97.729 Y175.774 E7.76279
G1 X97.546 Y175.669 E7.76651
G1 X97.323 Y175.529 E7.77115
G1 X97.147 Y175.409 E7.7749
G1 X96.906 Y175.229 E7.7802
G1 X96.7 Y175.06 E7.7849
G1 X96.483 Y174.866 E7.79003
G1 X96.134 Y174.526 E7.79862
G1 X95.905 Y174.28 E7.80455
G1 X95.677 Y174.009 E7.81079
G1 X95.542 Y173.837 E7.81464
G1 X95.335 Y173.556 E7.8208
G1 X95.206 Y173.368 E7.82481
G1 X94.968 Y172.995 E7.83261
G1 X94.862 Y172.818 E7.83625
G1 X94.683 Y172.496 E7.84275
G1 X94.597 Y172.33 E7.84604
G1 X94.303 Y171.715 E7.85806
G1 X94.078 Y171.179 E7.8683
G1 X93.783 Y170.391 E7.88314
G1 X93.534 Y169.642 E7.89705
G1 X93.271 Y168.776 E7.913
G1 X92.995 Y167.768 E7.93143
G1 X92.789 Y166.924 E7.94674
G1 X92.768 Y166.797 E7.94901
G1 X92.732 Y166.667 E7.95139
G1 X92.488 Y165.457 E7.97315
G1 X92.277 Y164.184 E7.9959
G1 X92.055 Y162.645 E8.02331
G1 X91.843 Y160.94 E8.05359
G1 X91.673 Y159.364 E8.08153
G1 X91.586 Y158.467 E8.09742
G1 X91.407 Y156.363 E8.13464
G1 X91.27 Y154.337 E8.17044
G1 X91.218 Y153.432 E8.18642
G1 X91.177 Y152.539 E8.20218
G1 X91.111 Y151.273 E8.22452
G1 X91.007 Y148.326 E8.27651
G1 X90.935 Y145.044 E8.33438
G1 X90.902 Y141.765 E8.39218
G1 X90.902 Y138.152 E8.45587
G1 X90.925 Y134.592 E8.51863
G1 X91.001 Y128.615 E8.624
G1 X91.11 Y122.626 E8.72959
G1 X91.231 Y117.626 E8.81775
G1 X91.316 Y114.703 E8.8693
G1 X91.324 Y114.626 E8.87066
G1 X91.481 Y109.824 E8.95536
G1 X91.674 Y104.72 E9.0454
G1 X92.005 Y97.038 E9.18094
G1 X92.6 Y83.883 E9.41307
G1 X92.942 Y76.445 E9.54433
G1 X93.051 Y74.186 E9.58419
G1 X94.054 Y54.394 E9.93353
G1 X94.178 Y52.127 E9.97355
G1 X94.354 Y49.246 E10.02443
G1 X94.517 Y46.9 E10.06589
G1 X94.593 Y46.385 E10.07507
G1 X94.714 Y45.974 E10.08262
G1 X94.762 Y45.842 E10.08509
G1 X94.977 Y45.367 E10.09429
G0 F6000 X95.342 Y45.534
G1 F1200 X95.616 Y45.128 E10.10292
G1 X95.952 Y44.772 E10.11155
G1 X96.181 Y44.586 E10.11675
G1 X96.294 Y44.503 E10.11922
G1 X96.711 Y44.247 E10.12785
G1 X97.164 Y44.061 E10.13648
G1 X97.861 Y43.928 E10.14899
G1 X98.004 Y43.918 E10.15151
G1 X98.493 Y43.924 E10.16013
G1 X98.975 Y44.009 E10.16876
G1 X99.437 Y44.172 E10.1774
G1 X99.704 Y44.308 E10.18268
G1 X99.828 Y44.379 E10.1852
G1 X100.231 Y44.656 E10.19382
G1 X100.584 Y44.995 E10.20245
G1 X100.989 Y45.579 E10.21498
G1 X101.053 Y45.7 E10.21739
G1 X101.246 Y46.15 E10.22602
G1 X101.331 Y46.459 E10.23167
G1 X101.931 Y49.187 E10.28091
G1 X102.541 Y51.92 E10.33027
G1 X103.183 Y54.935 E10.38461
G1 X103.854 Y58.311 E10.44528
G1 X104.671 Y62.617 E10.52254
G1 X105.459 Y66.879 E10.59895
G1 X106.215 Y71.12 E10.67489
G1 X106.586 Y73.28 E10.71352
G1 X107.084 Y76.287 E10.76725
G1 X107.563 Y79.298 E10.82099
G1 X108.057 Y82.53 E10.87863
G1 X108.508 Y85.617 E10.93362
G1 X109.18 Y90.418 E11.01908
G1 X109.82 Y95.374 E11.10717
G1 X110.291 Y99.337 E11.17752
G1 X110.722 Y103.308 E11.24793
G1 X111.114 Y107.279 E11.31827
G1 X111.48 Y111.395 E11.39111
G1 X111.793 Y115.316 E11.46045
G1 X112.061 Y119.244 E11.52986
G1 X112.253 Y122.64 E11.58982
G1 X112.401 Y126.043 E11.64986
G1 X112.499 Y129.452 E11.70998
G1 X112.526 Y131.101 E11.73905
G1 X112.539 Y132.882 E11.77045
G1 X112.521 Y136.05 E11.82629
G1 X112.449 Y139.174 E11.88138
G1 X112.333 Y142.063 E11.93235
G1 X112.17 Y144.887 E11.98221
G1 X111.951 Y147.694 E12.03184
G1 X111.675 Y150.486 E12.0813
G1 X111.421 Y152.659 E12.11986
G1 X111.128 Y154.835 E12.15857
G1 X110.807 Y156.904 E12.19548
G1 X110.625 Y157.941 E12.21404
G1 X110.406 Y159.083 E12.23453
G1 X109.994 Y161.016 E12.26937
G1 X109.535 Y162.912 E12.30376
G1 X109.177 Y164.271 E12.32854
G1 X108.752 Y165.734 E12.35539
G1 X108.352 Y166.972 E12.37833
G1 X107.868 Y168.296 E12.40318
G1 X107.476 Y169.263 E12.42157
G1 X107.029 Y170.267 E12.44094
G1 X106.607 Y171.114 E12.45762
G1 X106.227 Y171.797 E12.4714
G1 X106.133 Y171.953 E12.47461
G1 X105.697 Y172.627 E12.48876
G1 X105.324 Y173.142 E12.49997
G1 X105.202 Y173.298 E12.50346
G1 X104.916 Y173.641 E12.51134
G1 X104.577 Y174.017 E12.52026
G1 X104.325 Y174.271 E12.52657
G1 X104.182 Y174.406 E12.53003
G1 X103.924 Y174.634 E12.5361
G1 X103.754 Y174.773 E12.53997
G1 X103.482 Y174.98 E12.546
G1 X103.252 Y175.139 E12.55093
G1 X102.968 Y175.316 E12.55683
G1 X102.723 Y175.453 E12.56178
G1 X102.529 Y175.55 E12.5656
G1 X102.316 Y175.647 E12.56972
G1 X102.119 Y175.727 E12.57347
G1 X101.848 Y175.822 E12.57854
G1 X101.647 Y175.882 E12.58223
G1 X101.206 Y175.978 E12.59019
G1 X100.814 Y176.033 E12.59717
G1 X100.183 Y176.054 E12.6083
G1 X99.819 Y176.028 E12.61473
G1 X99.348 Y175.957 E12.62313
G1 X99.122 Y175.904 E12.62722
G1 X98.82 Y175.816 E12.63276
G1 X98.622 Y175.747 E12.63646
G1 X98.325 Y175.626 E12.64211
G1 X98.137 Y175.537 E12.64578
G1 X97.928 Y175.427 E12.64994
G1 X97.745 Y175.322 E12.65366
G1 X97.548 Y175.199 E12.65775
G1 X97.372 Y175.079 E12.66151
G1 X97.159 Y174.919 E12.66621
G1 X96.953 Y174.75 E12.6709
G1 X96.763 Y174.58 E12.6754
G1 X96.414 Y174.24 E12.68399
G1 X96.211 Y174.022 E12.68924
G1 X95.983 Y173.751 E12.69548
G1 X95.864 Y173.599 E12.69888
G1 X95.657 Y173.318 E12.70504
G1 X95.543 Y173.153 E12.70857
G1 X95.305 Y172.78 E12.71637
G1 X95.212 Y172.624 E12.71957
G1 X94.957 Y172.155 E12.72898
G1 X94.671 Y171.558 E12.74065
G1 X94.452 Y171.038 E12.7506
G1 X94.162 Y170.264 E12.76517
G1 X93.916 Y169.525 E12.7789
G1 X93.657 Y168.67 E12.79465
G1 X93.384 Y167.673 E12.81287
G1 X93.178 Y166.829 E12.82818
G1 X93.154 Y166.68 E12.83084
G1 X93.124 Y166.587 E12.83257
G1 X92.883 Y165.391 E12.85407
G1 X92.673 Y164.127 E12.87666
G1 X92.452 Y162.595 E12.90394
G1 X92.24 Y160.897 E12.93411
G1 X92.07 Y159.321 E12.96205
G1 X91.984 Y158.429 E12.97785
G1 X91.806 Y156.336 E13.01488
G1 X91.669 Y154.31 E13.05067
G1 X91.617 Y153.409 E13.06658
G1 X91.576 Y152.521 E13.08225
G1 X91.511 Y151.259 E13.10453
G1 X91.407 Y148.312 E13.15651
G1 X91.335 Y145.035 E13.21429
G1 X91.302 Y141.761 E13.27201
G1 X91.302 Y138.155 E13.33557
G1 X91.325 Y134.595 E13.39833
G1 X91.401 Y128.62 E13.50366
G1 X91.509 Y122.633 E13.60922
G1 X91.631 Y117.636 E13.69733
G1 X91.716 Y114.714 E13.74886
G1 X91.723 Y114.652 E13.74996
G1 X91.721 Y114.596 E13.75095
G1 X91.881 Y109.837 E13.83489
G1 X92.074 Y104.735 E13.92489
G1 X92.405 Y97.055 E14.0604
G1 X92.992 Y84.05 E14.28988
G1 X93.001 Y83.979 E14.29114
G1 X92.999 Y83.901 E14.29252
G1 X93.341 Y76.463 E14.42377
G1 X93.451 Y74.205 E14.46363
G1 X94.454 Y54.414 E14.81295
G1 X94.577 Y52.149 E14.85293
G1 X94.754 Y49.271 E14.90376
G1 X94.916 Y46.928 E14.94516
G1 X94.99 Y46.444 E14.95379
G1 X95.09 Y46.111 E14.95992
G1 X95.138 Y45.979 E14.9624
G1 X95.342 Y45.534 E14.97103
G0 F6000 X95.706 Y45.703
G1 F1200 X95.968 Y45.33 E14.97906
G1 X96.418 Y44.909 E14.98993
G1 X96.531 Y44.826 E14.9924
G1 X96.92 Y44.589 E15.00043
G1 X97.345 Y44.424 E15.00846
G1 X97.889 Y44.327 E15.0182
G1 X98.032 Y44.317 E15.02073
G1 X98.487 Y44.325 E15.02875
G1 X98.934 Y44.413 E15.03678
G1 X99.505 Y44.655 E15.04772
G1 X99.629 Y44.726 E15.05023
G1 X100.003 Y44.986 E15.05826
G1 X100.326 Y45.307 E15.06629
G1 X100.635 Y45.766 E15.07605
G1 X100.699 Y45.887 E15.07846
G1 X100.876 Y46.307 E15.08649
G1 X100.94 Y46.545 E15.09084
