;FLAVOR:Marlin
;TIME:5814
;Filament used: 5.67933m
;Layer height: 0.25
;MINX:94.509
;MINY:42.793
;MINZ:0.2
;MAXX:122.412
;MAXY:177.202
;MAXZ:186.95
;Generated with Cura_SteamEngine 4.6.1
M140 S60
M105
M190 S60
M104 S235
M105
M109 S235
M82 ;absolute extrusion mode
; Ender 3 Custom Start G-code
G92 E0 ; Reset Extruder
G28 ; Home all axes
G1 Z2.0 F3000 ; Move Z Axis up little to prevent scratching of Heat Bed
G1 X0.1 Y20 Z0.3 F5000.0 ; Move to start position
G1 X0.1 Y200.0 Z0.3 F1500.0 E15 ; Draw the first line
G1 X0.4 Y200.0 Z0.3 F5000.0 ; Move to side a little
G1 X0.4 Y20 Z0.3 F1500.0 E30 ; Draw the second line
G92 E0 ; Reset Extruder
G1 Z2.0 F3000 ; Move Z Axis up little to prevent scratching of Heat Bed
G1 X5 Y20 Z0.3 F5000.0 ; Move over to prevent blob squish
G92 E0
G92 E0
G1 F3000 E-1
;LAYER_COUNT:748
;LAYER:0
M107
G0 F6000 X103.043 Y95.142 Z0.2
;TYPE:SKIRT
G1 F3000 E0.20788
G1 F1200 X103.001 Y98.526 E0.26753
G1 X102.96 Y105.912 E0.39773
G1 X102.963 Y109.572 E0.46225
G1 X113.449 Y109.572 E0.6471
G1 X113.31 Y107.391 E0.68562
G1 X113.056 Y103.916 E0.74704
G1 X112.767 Y100.432 E0.80867
G1 X112.454 Y96.992 E0.86956
G1 X112.269 Y95.142 E0.90233
G1 X103.043 Y95.142 E1.06497
G0 F6000 X102.648 Y94.742
G1 F1200 X102.597 Y98.482 E1.1309
G1 X102.56 Y105.91 E1.26184
G1 X102.564 Y109.972 E1.33345
G1 X113.875 Y109.972 E1.53284
G1 X113.707 Y107.33 E1.5795
G1 X113.455 Y103.887 E1.64036
G1 X113.166 Y100.399 E1.70206
G1 X112.852 Y96.955 E1.76302
G1 X112.631 Y94.742 E1.80222
G1 X102.648 Y94.742 E1.9782
G0 F6000 X102.252 Y94.342
G1 F1200 X102.201 Y98.522 E2.05189
G1 X102.16 Y105.908 E2.18209
G1 X102.164 Y110.372 E2.26078
G1 X114.301 Y110.372 E2.47473
G1 X114.106 Y107.304 E2.52893
G1 X113.854 Y103.858 E2.58983
G1 X113.564 Y100.366 E2.6516
G1 X113.25 Y96.919 E2.71262
G1 X112.993 Y94.342 E2.75827
G1 X102.252 Y94.342 E2.94761
G0 F6000 X101.857 Y93.942
G1 F1200 X101.801 Y98.519 E3.0283
G1 X101.76 Y105.905 E3.1585
G1 X101.765 Y110.772 E3.2443
G1 X114.727 Y110.772 E3.47279
G1 X114.505 Y107.279 E3.53449
G1 X114.253 Y103.829 E3.59546
G1 X113.963 Y100.333 E3.6573
G1 X113.649 Y96.883 E3.71837
G1 X113.354 Y93.942 E3.77047
G1 X101.857 Y93.942 E3.97314
G0 F6000 X101.462 Y93.542
G1 F1200 X101.402 Y98.414 E4.05903
G1 X101.396 Y98.472 E4.06006
G1 X101.36 Y105.903 E4.19105
G1 X101.365 Y111.172 E4.28393
G1 X115.149 Y111.172 E4.52692
G1 X115.13 Y110.811 E4.53329
G1 X114.904 Y107.253 E4.59614
G1 X114.652 Y103.799 E4.65718
G1 X114.363 Y100.317 E4.71878
G1 X114.047 Y96.846 E4.78022
G1 X113.716 Y93.542 E4.83875
G1 X101.462 Y93.542 E5.05476
G0 F6000 X101.067 Y93.142
G1 F1200 X101.002 Y98.409 E5.14761
G1 X100.994 Y98.472 E5.14873
G1 X100.96 Y105.901 E5.27969
G1 X100.965 Y111.572 E5.37966
G1 X115.57 Y111.572 E5.63712
G1 X115.528 Y110.766 E5.65134
G1 X115.304 Y107.228 E5.71384
G1 X115.051 Y103.77 E5.77496
G1 X114.76 Y100.267 E5.83692
G1 X114.445 Y96.81 E5.89811
G1 X114.078 Y93.142 E5.96309
G1 X101.067 Y93.142 E6.19245
G0 F6000 X100.672 Y92.742
G1 F1200 X100.601 Y98.513 E6.29419
G1 X100.56 Y105.899 E6.42439
G1 X100.566 Y111.972 E6.53144
G1 X115.992 Y111.972 E6.80337
G1 X115.928 Y110.745 E6.82503
G1 X115.703 Y107.203 E6.88759
G1 X115.45 Y103.741 E6.94878
G1 X115.159 Y100.234 E7.01082
G1 X114.844 Y96.774 E7.07206
G1 X114.44 Y92.742 E7.14349
G1 X100.672 Y92.742 E7.38619
G0 F6000 X100.277 Y92.342
G1 F1200 X100.201 Y98.511 E7.49495
G1 X100.16 Y105.897 E7.62515
G1 X100.166 Y112.372 E7.73929
G1 X116.413 Y112.372 E8.02569
G1 X116.327 Y110.724 E8.05478
G1 X116.102 Y107.177 E8.11743
G1 X115.85 Y103.722 E8.1785
G1 X115.557 Y100.201 E8.24078
G1 X115.242 Y96.738 E8.30208
G1 X114.802 Y92.342 E8.37996
G1 X100.277 Y92.342 E8.636
G0 F6000 X99.882 Y91.942
G1 F1200 X99.802 Y98.394 E8.74975
G1 X99.789 Y98.459 E8.75091
G1 X99.801 Y98.508 E8.7518
G1 X99.76 Y105.894 E8.882
G1 X99.766 Y112.772 E9.00325
G1 X116.835 Y112.772 E9.30414
G1 X116.727 Y110.703 E9.34066
G1 X116.501 Y107.152 E9.40338
G1 X116.248 Y103.683 E9.4647
G1 X115.956 Y100.168 E9.52687
G1 X115.64 Y96.701 E9.58824
G1 X115.164 Y91.942 E9.67255
G1 X99.882 Y91.942 E9.94194
G1 F3000 E8.94194
G0 F6000 X99.402 Y98.389
G1 F3000 E10.14982
G1 F1200 X99.378 Y98.46 E10.15114
G1 X99.401 Y98.506 E10.15204
G1 X99.36 Y105.892 E10.28225
G1 X99.367 Y113.172 E10.41058
G1 X117.256 Y113.172 E10.72592
G1 X117.126 Y110.682 E10.76988
G1 X116.9 Y107.127 E10.83267
G1 X116.647 Y103.654 E10.89405
G1 X116.355 Y100.135 E10.9563
G1 X116.039 Y96.665 E11.01772
G1 X115.526 Y91.542 E11.10848
G1 X99.487 Y91.542 E11.39121
G1 X99.402 Y98.389 E11.51192
G0 F6000 X98.153 Y98.403
G1 F1200 X98.232 Y91.72 E11.62974
G1 X98.343 Y85.247 E11.74386
G1 X98.546 Y75.994 E11.90701
G1 X98.566 Y75.937 E11.90807
G1 X98.549 Y75.862 E11.90943
G1 X99.132 Y52.829 E12.31558
G1 X99.295 Y46.588 E12.42563
G1 X99.337 Y46.47 E12.42784
G1 X99.495 Y46.393 E12.43094
G1 X110.084 Y46.393 E12.6176
G1 X110.203 Y46.432 E12.61981
G1 X110.281 Y46.558 E12.62242
G1 X111.336 Y52.562 E12.72988
G1 X112.345 Y58.605 E12.83788
G1 X113.024 Y62.843 E12.91354
G1 X113.675 Y67.082 E12.98914
G1 X114.296 Y71.324 E13.06472
G1 X114.882 Y75.575 E13.14036
G1 X115.609 Y81.225 E13.24078
G1 X116.277 Y86.886 E13.34126
G1 X116.696 Y90.703 E13.40895
G1 X117.087 Y94.524 E13.47666
G1 X117.45 Y98.347 E13.54435
G1 X117.781 Y102.173 E13.61205
G1 X118.035 Y105.46 E13.67017
G1 X118.259 Y108.69 E13.72724
G1 X118.45 Y111.98 E13.78533
G1 X118.603 Y115.247 E13.84299
G1 X118.701 Y118.013 E13.89178
G1 X118.769 Y120.777 E13.94051
G1 X118.804 Y123.393 E13.98663
G1 X118.812 Y125.925 E14.03127
G1 X118.792 Y128.485 E14.0764
G1 X118.743 Y131.041 E14.12146
G1 X118.668 Y133.504 E14.1649
G1 X118.557 Y136.025 E14.20938
G1 X118.431 Y138.287 E14.24932
G1 X118.272 Y140.577 E14.28978
G1 X118.094 Y142.732 E14.3279
G1 X117.891 Y144.886 E14.36604
G1 X117.659 Y147.05 E14.4044
G1 X117.4 Y149.18 E14.44223
G1 X117.15 Y151.001 E14.47463
G1 X116.868 Y152.82 E14.50708
G1 X116.548 Y154.636 E14.53958
G1 X116.189 Y156.448 E14.57215
G1 X115.694 Y158.697 E14.61274
G1 X115.149 Y160.921 E14.6531
G1 X114.733 Y162.456 E14.68114
G1 X114.273 Y163.977 E14.70915
G1 X113.89 Y165.119 E14.73038
G1 X113.473 Y166.253 E14.75168
G1 X113.076 Y167.243 E14.77048
G1 X112.654 Y168.212 E14.78912
G1 X112.263 Y169.022 E14.80497
G1 X111.84 Y169.809 E14.82072
G1 X111.458 Y170.44 E14.83372
G1 X111.034 Y171.061 E14.84698
G1 X110.67 Y171.538 E14.85756
G1 X110.273 Y172 E14.86829
G1 X109.929 Y172.353 E14.87698
G1 X109.565 Y172.679 E14.8856
G1 X109.176 Y172.975 E14.89421
G1 X108.761 Y173.228 E14.90278
G1 X108.457 Y173.372 E14.90871
G1 X108.144 Y173.484 E14.91457
G1 X107.825 Y173.562 E14.92036
G1 X107.492 Y173.601 E14.92627
G1 X107.168 Y173.598 E14.93198
G1 X106.867 Y173.56 E14.93733
G1 X106.575 Y173.488 E14.94263
G1 X106.286 Y173.384 E14.94805
G1 X106.008 Y173.254 E14.95346
G1 X105.647 Y173.035 E14.9609
G1 X105.294 Y172.77 E14.96868
G1 X104.97 Y172.48 E14.97634
G1 X104.668 Y172.164 E14.98405
G1 X104.335 Y171.764 E14.99322
G1 X104.028 Y171.338 E15.00248
G1 X103.68 Y170.781 E15.01406
G1 X103.375 Y170.211 E15.02545
G1 X103.119 Y169.666 E15.03607
G1 X102.889 Y169.122 E15.04648
G1 X102.523 Y168.154 E15.06472
G1 X102.186 Y167.169 E15.08307
G1 X101.878 Y166.19 E15.10117
G1 X101.593 Y165.201 E15.11931
G1 X101.263 Y163.907 E15.14285
G1 X100.979 Y162.607 E15.16631
G1 X100.751 Y161.404 E15.18789
G1 X100.549 Y160.229 E15.20891
G1 X100.249 Y158.301 E15.2433
G1 X99.978 Y156.363 E15.2778
G1 X99.704 Y154.164 E15.31686
G1 X99.463 Y151.962 E15.35591
G1 X99.215 Y149.31 E15.40286
G1 X99.013 Y146.732 E15.44845
G1 X98.811 Y143.692 E15.50215
G1 X98.645 Y140.646 E15.55593
G1 X98.471 Y136.524 E15.62865
G1 X98.351 Y132.612 E15.69765
G1 X98.283 Y129.745 E15.7482
G1 X98.305 Y129.671 E15.74956
G1 X98.281 Y129.624 E15.75049
G1 X98.193 Y123.944 E15.85063
G1 X98.136 Y117.519 E15.96389
G1 X98.109 Y111.043 E16.07805
G1 X98.114 Y104.535 E16.19277
G1 X98.153 Y98.403 E16.30087
G0 F6000 X97.764 Y98.441
G1 F1200 X97.832 Y91.715 E16.41944
G1 X97.943 Y85.24 E16.5336
G1 X98.146 Y75.984 E16.6968
G1 X98.162 Y75.908 E16.69817
G1 X98.149 Y75.852 E16.69918
G1 X98.732 Y52.819 E17.10534
G1 X98.895 Y46.578 E17.21539
G1 X98.94 Y46.364 E17.21925
G1 X99.059 Y46.181 E17.22309
G1 X99.235 Y46.052 E17.22694
G1 X99.495 Y45.993 E17.23164
G1 X110.084 Y45.993 E17.4183
G1 X110.299 Y46.033 E17.42216
G1 X110.485 Y46.146 E17.42599
G1 X110.618 Y46.319 E17.42984
G1 X110.675 Y46.489 E17.433
G1 X111.73 Y52.493 E17.54046
G1 X112.74 Y58.539 E17.64851
G1 X113.419 Y62.78 E17.72423
G1 X114.07 Y67.021 E17.79986
G1 X114.692 Y71.266 E17.87549
G1 X115.278 Y75.52 E17.95119
G1 X116.006 Y81.174 E18.05168
G1 X116.674 Y86.839 E18.15223
G1 X117.093 Y90.66 E18.21999
G1 X117.485 Y94.483 E18.28774
G1 X117.848 Y98.309 E18.35548
G1 X118.18 Y102.138 E18.42323
G1 X118.434 Y105.429 E18.48142
G1 X118.658 Y108.663 E18.53857
G1 X118.849 Y111.957 E18.59673
G1 X119.002 Y115.228 E18.65445
G1 X119.101 Y117.999 E18.70333
G1 X119.169 Y120.767 E18.75214
G1 X119.204 Y123.388 E18.79835
G1 X119.212 Y125.924 E18.84305
G1 X119.192 Y128.488 E18.88825
G1 X119.143 Y131.049 E18.9334
G1 X119.068 Y133.516 E18.97691
G1 X118.956 Y136.042 E19.02148
G1 X118.83 Y138.309 E19.06151
G1 X118.671 Y140.605 E19.10208
G1 X118.493 Y142.765 E19.14028
G1 X118.289 Y144.923 E19.17849
G1 X118.057 Y147.093 E19.21696
G1 X117.797 Y149.229 E19.2549
G1 X117.546 Y151.055 E19.28739
G1 X117.263 Y152.881 E19.31996
G1 X116.942 Y154.705 E19.35261
G1 X116.582 Y156.526 E19.38533
G1 X116.085 Y158.783 E19.42607
G1 X115.538 Y161.016 E19.46659
G1 X115.119 Y162.561 E19.49481
G1 X114.656 Y164.093 E19.52303
G1 X114.269 Y165.246 E19.54446
G1 X113.848 Y166.391 E19.56597
G1 X113.447 Y167.392 E19.58498
G1 X113.021 Y168.371 E19.6038
G1 X112.623 Y169.196 E19.61995
G1 X112.192 Y169.998 E19.636
G1 X111.8 Y170.647 E19.64936
G1 X111.364 Y171.286 E19.663
G1 X110.988 Y171.781 E19.67396
G1 X110.576 Y172.261 E19.68511
G1 X110.215 Y172.632 E19.69423
G1 X109.832 Y172.977 E19.70332
G1 X109.367 Y173.328 E19.71359
G1 X108.912 Y173.6 E19.72293
G1 X108.573 Y173.756 E19.72951
G1 X108.217 Y173.879 E19.73615
G1 X107.844 Y173.964 E19.74289
G1 X107.462 Y174.002 E19.74966
G1 X107.094 Y173.993 E19.75615
G1 X106.746 Y173.944 E19.76235
G1 X106.419 Y173.858 E19.76831
G1 X106.097 Y173.738 E19.77436
G1 X105.782 Y173.585 E19.78054
G1 X105.39 Y173.343 E19.78866
G1 X105.013 Y173.056 E19.79701
G1 X104.703 Y172.777 E19.80436
G1 X104.379 Y172.441 E19.81259
G1 X104.027 Y172.019 E19.82228
G1 X103.703 Y171.572 E19.83201
G1 X103.341 Y170.992 E19.84406
G1 X103.022 Y170.4 E19.85591
G1 X102.757 Y169.835 E19.86692
G1 X102.52 Y169.278 E19.87759
G1 X102.149 Y168.295 E19.89611
G1 X101.807 Y167.298 E19.91469
G1 X101.497 Y166.31 E19.93294
G1 X101.209 Y165.312 E19.95125
G1 X100.876 Y164.006 E19.97501
G1 X100.588 Y162.692 E19.99872
G1 X100.358 Y161.479 E20.02049
G1 X100.155 Y160.296 E20.04165
G1 X99.854 Y158.362 E20.07615
G1 X99.582 Y156.418 E20.11075
G1 X99.307 Y154.213 E20.14992
G1 X99.066 Y152.005 E20.18907
G1 X98.817 Y149.347 E20.23613
G1 X98.614 Y146.763 E20.28183
G1 X98.412 Y143.719 E20.3356
G1 X98.246 Y140.668 E20.38946
G1 X98.072 Y136.541 E20.46228
G1 X97.951 Y132.624 E20.53136
G1 X97.883 Y129.754 E20.58197
G1 X97.894 Y129.684 E20.58322
G1 X97.881 Y129.63 E20.5842
G1 X97.793 Y123.95 E20.68433
G1 X97.736 Y117.522 E20.79765
G1 X97.709 Y111.044 E20.91184
G1 X97.714 Y104.535 E21.02658
G1 X97.752 Y98.501 E21.13295
G1 X97.764 Y98.441 E21.13403
G0 F6000 X97.353 Y98.393
G1 F1200 X97.432 Y91.71 E21.25185
G1 X97.543 Y85.233 E21.36604
G1 X97.746 Y75.975 E21.52928
G1 X97.754 Y75.924 E21.53019
G1 X97.749 Y75.842 E21.53164
G1 X98.332 Y52.809 E21.93779
G1 X98.495 Y46.568 E22.04784
G1 X98.542 Y46.289 E22.05283
G1 X98.665 Y46.035 E22.0578
G1 X98.854 Y45.826 E22.06277
G1 X99.093 Y45.677 E22.06774
G1 X99.495 Y45.593 E22.07498
G1 X110.084 Y45.593 E22.26164
G1 X110.363 Y45.633 E22.26661
G1 X110.62 Y45.749 E22.27158
G1 X110.835 Y45.932 E22.27655
G1 X110.989 Y46.168 E22.28152
G1 X111.069 Y46.42 E22.28618
G1 X112.124 Y52.424 E22.39364
G1 X113.134 Y58.473 E22.50175
G1 X113.814 Y62.717 E22.57751
G1 X114.465 Y66.96 E22.65318
G1 X115.087 Y71.208 E22.72887
G1 X115.675 Y75.465 E22.80462
G1 X116.403 Y81.123 E22.90518
G1 X117.071 Y86.792 E23.00581
G1 X117.491 Y90.616 E23.07362
G1 X117.883 Y94.442 E23.14142
G1 X118.247 Y98.271 E23.20922
G1 X118.578 Y102.104 E23.27704
G1 X118.833 Y105.398 E23.33528
G1 X119.057 Y108.635 E23.39248
G1 X119.248 Y111.934 E23.45073
G1 X119.402 Y115.209 E23.50852
G1 X119.5 Y117.985 E23.55749
G1 X119.569 Y120.757 E23.60637
G1 X119.604 Y123.383 E23.65266
G1 X119.612 Y125.923 E23.69744
G1 X119.592 Y128.491 E23.74271
G1 X119.543 Y131.056 E23.78793
G1 X119.468 Y133.528 E23.83153
G1 X119.356 Y136.06 E23.8762
G1 X119.229 Y138.332 E23.91632
G1 X119.07 Y140.632 E23.95696
G1 X118.892 Y142.798 E23.99527
G1 X118.688 Y144.961 E24.03357
G1 X118.454 Y147.136 E24.07213
G1 X118.194 Y149.277 E24.11015
G1 X117.943 Y151.11 E24.14276
G1 X117.658 Y152.943 E24.17546
G1 X117.336 Y154.774 E24.20823
G1 X116.974 Y156.603 E24.2411
G1 X116.476 Y158.869 E24.282
G1 X115.926 Y161.111 E24.32269
G1 X115.505 Y162.666 E24.35109
G1 X115.039 Y164.208 E24.37949
G1 X114.648 Y165.374 E24.40116
G1 X114.224 Y166.529 E24.42285
G1 X113.818 Y167.541 E24.44207
G1 X113.388 Y168.531 E24.4611
G1 X112.983 Y169.37 E24.47752
G1 X112.519 Y170.232 E24.49478
G1 X112.113 Y170.9 E24.50856
G1 X111.663 Y171.556 E24.52258
G1 X111.27 Y172.068 E24.53396
G1 X110.836 Y172.569 E24.54565
G1 X110.453 Y172.958 E24.55527
G1 X110.035 Y173.328 E24.56511
G1 X109.658 Y173.613 E24.57344
G1 X109.575 Y173.669 E24.57521
G1 X109.177 Y173.911 E24.58342
G1 X109.082 Y173.962 E24.58532
G1 X108.707 Y174.133 E24.59258
G1 X108.412 Y174.238 E24.5981
G1 X108.311 Y174.268 E24.59996
G1 X108.012 Y174.34 E24.60538
G1 X107.888 Y174.362 E24.6076
G1 X107.58 Y174.396 E24.61306
G1 X107.457 Y174.402 E24.61523
G1 X107.158 Y174.398 E24.62051
G1 X107.043 Y174.39 E24.62254
G1 X106.765 Y174.354 E24.62748
G1 X106.648 Y174.332 E24.62958
G1 X106.379 Y174.264 E24.63447
G1 X106.283 Y174.234 E24.63624
G1 X105.926 Y174.1 E24.64296
G1 X105.666 Y173.977 E24.64803
G1 X105.574 Y173.927 E24.64988
G1 X105.149 Y173.663 E24.6587
G1 X104.745 Y173.353 E24.66768
G1 X104.382 Y173.023 E24.67632
G1 X104.042 Y172.664 E24.68504
G1 X103.678 Y172.221 E24.69515
G1 X103.341 Y171.75 E24.70536
G1 X102.969 Y171.147 E24.71785
G1 X102.645 Y170.541 E24.72996
G1 X102.394 Y170.005 E24.74039
G1 X102.152 Y169.433 E24.75134
G1 X101.775 Y168.436 E24.77013
G1 X101.429 Y167.428 E24.78892
G1 X101.115 Y166.43 E24.80736
G1 X100.824 Y165.423 E24.82584
G1 X100.488 Y164.105 E24.84981
G1 X100.197 Y162.778 E24.87376
G1 X99.965 Y161.553 E24.89574
G1 X99.76 Y160.364 E24.91701
G1 X99.459 Y158.423 E24.95163
G1 X99.186 Y156.474 E24.98633
G1 X98.91 Y154.263 E25.0256
G1 X98.668 Y152.048 E25.06488
G1 X98.418 Y149.384 E25.11205
G1 X98.215 Y146.794 E25.15784
G1 X98.013 Y143.745 E25.21171
G1 X97.846 Y140.689 E25.26566
G1 X97.672 Y136.558 E25.33855
G1 X97.551 Y132.637 E25.4077
G1 X97.483 Y129.764 E25.45836
G1 X97.492 Y129.685 E25.45976
G1 X97.481 Y129.636 E25.46064
G1 X97.393 Y123.956 E25.56078
G1 X97.336 Y117.526 E25.67413
G1 X97.309 Y111.045 E25.78838
G1 X97.314 Y104.534 E25.90316
G1 X97.353 Y98.393 E26.01141
G0 F6000 X96.953 Y98.388
G1 F1200 X97.032 Y91.705 E26.12923
G1 X97.143 Y85.226 E26.24345
G1 X97.346 Y75.966 E26.40673
G1 X97.354 Y75.912 E26.40769
G1 X97.349 Y75.832 E26.4091
G1 X98.095 Y46.556 E26.92534
G1 X98.144 Y46.226 E26.93122
G1 X98.269 Y45.916 E26.93712
G1 X98.465 Y45.645 E26.94301
G1 X98.719 Y45.428 E26.9489
G1 X99.017 Y45.277 E26.95479
G1 X99.495 Y45.193 E26.96335
G1 X110.084 Y45.193 E27.15001
