;FLAVOR:Marlin
;TIME:2083
;Filament used: 2.27603m
;Layer height: 0.2
;MINX:89.408
;MINY:69.56
;MINZ:0.2
;MAXX:135.08
;MAXY:150.43
;MAXZ:64
;Generated with Cura_SteamEngine 4.6.1
M140 S60
M105
M190 S60
M104 S220
M105
M109 S220
M82 ;absolute extrusion mode
; Ender 3 Custom Start G-code
G92 E0 ; Reset Extruder
G28 ; Home all axes
G1 Z2.0 F3000 ; Move Z Axis up little to prevent scratching of Heat Bed
G1 X0.1 Y20 Z0.3 F5000.0 ; Move to start position
G1 X0.1 Y200.0 Z0.3 F1500.0 E15 ; Draw the first line
G1 X0.4 Y200.0 Z0.3 F5000.0 ; Move to side a little
G1 X0.4 Y20 Z0.3 F1500.0 E30 ; Draw the second line
G92 E0 ; Reset Extruder
G1 Z2.0 F3000 ; Move Z Axis up little to prevent scratching of Heat Bed
G1 X5 Y20 Z0.3 F5000.0 ; Move over to prevent blob squish
G92 E0
G92 E0
G1 F1500 E-6
;LAYER_COUNT:320
;LAYER:0
M107
G0 F6000 X98.682 Y82.215 Z0.2
;TYPE:SKIRT
G1 F1500 E0.04158
G1 F1200 X99.212 Y81.591 E0.06881
G1 X99.782 Y80.951 E0.09731
G1 X100.338 Y80.36 E0.1243
G1 X100.923 Y79.77 E0.15193
G1 X101.544 Y79.174 E0.18056
G1 X102.151 Y78.624 E0.2078
G1 X102.773 Y78.088 E0.23511
G1 X103.45 Y77.534 E0.26421
G1 X104.082 Y77.048 E0.29073
G1 X104.772 Y76.543 E0.31917
G1 X105.477 Y76.056 E0.34766
G1 X106.109 Y75.646 E0.37272
G1 X106.822 Y75.207 E0.40057
G1 X107.451 Y74.846 E0.42469
G1 X108.193 Y74.439 E0.45284
G1 X108.846 Y74.107 E0.4772
G1 X109.587 Y73.749 E0.50458
G1 X110.319 Y73.421 E0.53125
G1 X111.017 Y73.131 E0.55639
G1 X111.78 Y72.835 E0.58361
G1 X112.504 Y72.577 E0.60918
G1 X113.259 Y72.33 E0.6356
G1 X113.996 Y72.109 E0.66119
G1 X114.767 Y71.898 E0.68778
G1 X115.52 Y71.713 E0.71357
G1 X116.771 Y71.433 E0.7562
G1 X118.114 Y71.148 E0.80187
G1 X119.406 Y70.895 E0.84566
G1 X120.722 Y70.655 E0.89015
G1 X122.049 Y70.43 E0.93491
G1 X123.375 Y70.226 E0.97954
G1 X124.687 Y70.041 E1.0236
G1 X126.013 Y69.871 E1.06807
G1 X127.333 Y69.721 E1.11225
G1 X128.594 Y69.59 E1.15442
G1 X129.274 Y69.56 E1.17706
G1 X129.953 Y69.609 E1.1997
G1 X130.622 Y69.738 E1.22236
G1 X131.271 Y69.944 E1.24501
G1 X131.891 Y70.225 E1.26765
G1 X132.474 Y70.576 E1.29028
G1 X133.012 Y70.994 E1.31294
G1 X133.497 Y71.471 E1.33557
G1 X133.923 Y72.002 E1.35821
G1 X134.284 Y72.58 E1.38088
G1 X134.574 Y73.196 E1.40352
G1 X134.791 Y73.841 E1.42616
G1 X134.962 Y74.762 E1.45731
G1 X135.05 Y75.612 E1.48574
G1 X135.08 Y76.292 E1.50838
G1 X135.031 Y76.971 E1.53102
G1 X134.902 Y77.64 E1.55368
G1 X134.695 Y78.288 E1.5763
G1 X134.414 Y78.909 E1.59897
G1 X134.063 Y79.492 E1.62161
G1 X133.645 Y80.029 E1.64424
G1 X133.167 Y80.514 E1.66689
G1 X132.636 Y80.94 E1.68953
G1 X132.058 Y81.301 E1.7122
G1 X131.443 Y81.591 E1.73481
G1 X130.797 Y81.807 E1.75747
G1 X129.89 Y81.977 E1.78816
G1 X128.888 Y82.083 E1.82167
G1 X128.734 Y82.339 E1.83161
G1 X128.6 Y82.55 E1.83992
G1 X128.125 Y83.267 E1.86853
G1 X127.839 Y83.663 E1.88478
G1 X127.305 Y84.338 E1.9134
G1 X126.98 Y84.714 E1.92993
G1 X126.389 Y85.342 E1.95862
G1 X126.038 Y85.685 E1.97494
G1 X125.398 Y86.259 E2.00353
G1 X125.006 Y86.58 E2.02038
G1 X124.317 Y87.097 E2.04903
G1 X123.921 Y87.369 E2.06501
G1 X123.192 Y87.827 E2.09365
G1 X122.754 Y88.077 E2.11042
G1 X121.986 Y88.471 E2.13913
G1 X121.548 Y88.673 E2.15517
G1 X120.754 Y89 E2.18373
G1 X120.274 Y89.173 E2.2007
G1 X119.348 Y89.462 E2.23297
G1 X118.674 Y89.659 E2.25632
G1 X118.116 Y89.85 E2.27594
G1 X117.749 Y89.992 E2.28903
G1 X117.21 Y90.228 E2.3086
G1 X116.697 Y90.48 E2.32761
G1 X116.367 Y90.659 E2.34009
G1 X115.951 Y90.908 E2.35622
G1 X115.32 Y91.324 E2.38136
G1 X114.637 Y91.838 E2.40979
G1 X114 Y92.386 E2.43774
G1 X113.393 Y92.982 E2.46603
G1 X112.809 Y93.628 E2.49499
G1 X112.269 Y94.306 E2.52382
G1 X111.758 Y95.034 E2.55341
G1 X111.305 Y95.771 E2.58218
G1 X110.875 Y96.575 E2.6125
G1 X110.281 Y97.839 E2.65896
G1 X109.715 Y99.185 E2.70752
G1 X109.227 Y100.498 E2.75411
G1 X108.792 Y101.843 E2.80113
G1 X108.415 Y103.22 E2.84861
G1 X108.104 Y104.596 E2.89553
G1 X107.984 Y105.244 E2.91745
G1 X107.877 Y105.899 E2.93953
G1 X107.739 Y106.943 E2.97455
G1 X107.642 Y107.963 E3.00863
G1 X107.584 Y108.987 E3.04274
G1 X107.564 Y110.001 E3.07647
G1 X107.583 Y111.004 E3.10984
G1 X107.643 Y112.054 E3.14482
G1 X107.737 Y113.052 E3.17816
G1 X107.875 Y114.091 E3.21302
G1 X107.987 Y114.778 E3.23617
G1 X108.101 Y115.382 E3.25662
G1 X108.419 Y116.8 E3.30495
G1 X108.791 Y118.156 E3.35172
G1 X109.22 Y119.485 E3.39817
G1 X109.718 Y120.827 E3.44578
G1 X110.282 Y122.165 E3.49407
G1 X110.873 Y123.421 E3.54024
G1 X111.306 Y124.23 E3.57076
G1 X111.764 Y124.975 E3.59984
G1 X112.262 Y125.685 E3.62869
G1 X112.81 Y126.373 E3.65794
G1 X113.392 Y127.017 E3.68681
G1 X113.999 Y127.613 E3.71511
G1 X114.636 Y128.161 E3.74306
G1 X115.315 Y128.673 E3.77134
G1 X116.04 Y129.149 E3.80019
G1 X116.339 Y129.325 E3.81173
G1 X116.705 Y129.523 E3.82557
G1 X117.208 Y129.772 E3.84423
G1 X117.719 Y129.995 E3.86278
G1 X118.288 Y130.211 E3.88302
G1 X118.661 Y130.337 E3.89612
G1 X119.616 Y130.621 E3.92925
G1 X120.275 Y130.827 E3.95222
G1 X120.754 Y131 E3.96916
G1 X121.548 Y131.327 E3.99772
G1 X121.987 Y131.53 E4.0138
G1 X122.753 Y131.923 E4.04244
G1 X123.184 Y132.168 E4.05893
G1 X123.915 Y132.626 E4.08762
G1 X124.32 Y132.904 E4.10396
G1 X125.008 Y133.421 E4.13258
G1 X125.397 Y133.741 E4.14934
G1 X126.038 Y134.316 E4.17798
G1 X126.389 Y134.658 E4.19428
G1 X126.98 Y135.286 E4.22296
G1 X127.303 Y135.66 E4.23939
G1 X127.836 Y136.333 E4.26795
G1 X128.125 Y136.732 E4.28433
G1 X128.601 Y137.451 E4.31301
G1 X128.734 Y137.662 E4.32131
G1 X128.888 Y137.918 E4.33125
G1 X129.898 Y138.026 E4.36503
G1 X130.569 Y138.138 E4.38766
G1 X131.223 Y138.328 E4.41031
G1 X131.85 Y138.594 E4.43296
G1 X132.442 Y138.931 E4.45562
G1 X132.99 Y139.335 E4.47826
G1 X133.487 Y139.8 E4.5009
G1 X133.926 Y140.321 E4.52356
G1 X134.301 Y140.889 E4.5462
G1 X134.606 Y141.497 E4.56882
G1 X134.839 Y142.137 E4.59147
G1 X134.994 Y142.8 E4.61412
G1 X135.071 Y143.477 E4.63678
G1 X135.05 Y144.378 E4.66676
G1 X134.964 Y145.226 E4.69511
G1 X134.856 Y145.898 E4.71774
G1 X134.67 Y146.553 E4.74039
G1 X134.408 Y147.182 E4.76305
G1 X134.074 Y147.775 E4.78569
G1 X133.673 Y148.326 E4.80836
G1 X133.211 Y148.825 E4.83098
G1 X132.693 Y149.267 E4.85362
G1 X132.126 Y149.645 E4.87629
G1 X131.52 Y149.954 E4.89891
G1 X130.881 Y150.19 E4.92157
G1 X130.219 Y150.35 E4.94422
G1 X129.543 Y150.43 E4.96686
G1 X128.59 Y150.409 E4.99857
G1 X127.279 Y150.272 E5.04241
G1 X125.964 Y150.122 E5.08643
G1 X124.659 Y149.955 E5.13019
G1 X123.335 Y149.767 E5.17467
G1 X121.992 Y149.56 E5.21986
G1 X120.697 Y149.341 E5.26355
G1 X119.377 Y149.1 E5.30817
G1 X118.074 Y148.844 E5.35234
G1 X116.713 Y148.554 E5.39862
G1 X115.389 Y148.256 E5.44376
G1 X114.656 Y148.072 E5.4689
G1 X113.878 Y147.857 E5.49574
G1 X113.146 Y147.634 E5.5212
G1 X112.378 Y147.379 E5.54811
G1 X111.662 Y147.119 E5.57345
G1 X110.911 Y146.826 E5.60026
G1 X110.208 Y146.53 E5.62563
G1 X109.464 Y146.194 E5.65278
G1 X108.747 Y145.846 E5.67929
G1 X108.067 Y145.493 E5.70477
G1 X107.355 Y145.101 E5.7318
G1 X106.712 Y144.724 E5.7566
G1 X106.008 Y144.291 E5.78408
G1 X105.368 Y143.87 E5.80956
G1 X104.664 Y143.381 E5.83807
G1 X103.978 Y142.875 E5.86643
G1 X103.353 Y142.387 E5.8928
G1 X102.686 Y141.841 E5.92147
G1 X102.045 Y141.285 E5.94969
G1 X101.446 Y140.736 E5.97672
G1 X100.839 Y140.15 E6.00478
G1 X100.243 Y139.544 E6.03305
G1 X99.686 Y138.945 E6.06025
G1 X99.134 Y138.32 E6.08799
G1 X98.625 Y137.716 E6.11426
G1 X98.084 Y137.041 E6.14303
G1 X97.586 Y136.381 E6.17053
G1 X97.116 Y135.725 E6.19737
G1 X96.652 Y135.045 E6.22475
G1 X96.208 Y134.355 E6.25204
G1 X95.759 Y133.619 E6.28072
G1 X95.376 Y132.948 E6.30641
G1 X94.97 Y132.202 E6.33466
G1 X94.579 Y131.434 E6.36333
G1 X93.791 Y129.764 E6.42474
G1 X93.085 Y128.125 E6.4841
G1 X92.746 Y127.281 E6.51435
G1 X92.412 Y126.402 E6.54563
G1 X92.095 Y125.521 E6.57677
G1 X91.8 Y124.649 E6.60738
G1 X91.518 Y123.761 E6.63837
G1 X91.253 Y122.877 E6.66907
G1 X91.002 Y121.968 E6.70043
G1 X90.768 Y121.058 E6.73168
G1 X90.555 Y120.158 E6.76244
G1 X90.359 Y119.249 E6.79337
G1 X90.18 Y118.336 E6.82432
G1 X90.02 Y117.416 E6.85538
G1 X89.879 Y116.511 E6.88584
G1 X89.751 Y115.556 E6.91789
G1 X89.647 Y114.633 E6.94878
G1 X89.56 Y113.705 E6.97978
G1 X89.493 Y112.761 E7.01126
G1 X89.446 Y111.845 E7.04176
G1 X89.416 Y110.885 E7.07371
G1 X89.408 Y109.949 E7.10484
G1 X89.418 Y109.018 E7.13581
G1 X89.449 Y108.06 E7.16769
G1 X89.499 Y107.157 E7.19777
G1 X89.568 Y106.202 E7.22962
G1 X89.655 Y105.294 E7.25995
G1 X89.763 Y104.346 E7.29169
G1 X89.892 Y103.403 E7.32334
G1 X90.033 Y102.507 E7.35351
G1 X90.198 Y101.571 E7.38512
G1 X90.373 Y100.687 E7.4151
G1 X90.576 Y99.751 E7.44695
G1 X90.787 Y98.868 E7.47715
G1 X91.022 Y97.959 E7.50837
G1 X91.278 Y97.039 E7.54014
G1 X91.537 Y96.178 E7.57004
G1 X91.828 Y95.264 E7.60194
G1 X92.119 Y94.416 E7.63176
G1 X92.439 Y93.528 E7.66316
G1 X92.774 Y92.65 E7.69441
G1 X93.135 Y91.758 E7.72642
G1 X93.892 Y90.019 E7.7895
G1 X94.66 Y88.403 E7.84901
G1 X95.016 Y87.712 E7.87486
G1 X95.432 Y86.949 E7.90377
G1 X95.826 Y86.273 E7.92979
G1 X96.27 Y85.546 E7.95813
G1 X96.702 Y84.88 E7.98453
G1 X97.193 Y84.162 E8.01346
G1 X97.655 Y83.527 E8.03958
G1 X98.158 Y82.867 E8.06718
G1 X98.682 Y82.215 E8.095
G0 F6000 X98.987 Y82.474
G1 F1200 X99.512 Y81.856 E8.12197
G1 X100.074 Y81.225 E8.15007
G1 X100.623 Y80.641 E8.17673
G1 X101.201 Y80.058 E8.20404
G1 X101.813 Y79.47 E8.23227
G1 X102.412 Y78.926 E8.25918
G1 X103.028 Y78.397 E8.28619
G1 X103.694 Y77.851 E8.31483
G1 X104.319 Y77.37 E8.34106
G1 X105 Y76.871 E8.36914
G1 X105.696 Y76.391 E8.39726
G1 X106.32 Y75.986 E8.422
G1 X107.022 Y75.554 E8.44942
G1 X107.645 Y75.195 E8.47333
G1 X108.374 Y74.795 E8.50099
G1 X109.021 Y74.466 E8.52513
G1 X109.751 Y74.114 E8.55209
G1 X110.474 Y73.79 E8.57844
G1 X111.163 Y73.504 E8.60325
G1 X111.915 Y73.211 E8.63009
G1 X112.63 Y72.957 E8.65533
G1 X113.375 Y72.713 E8.6814
G1 X114.102 Y72.494 E8.70666
G1 X114.863 Y72.286 E8.7329
G1 X115.608 Y72.103 E8.75841
G1 X116.855 Y71.825 E8.80091
G1 X118.192 Y71.54 E8.84637
G1 X119.478 Y71.288 E8.88996
G1 X120.789 Y71.049 E8.93428
G1 X122.11 Y70.826 E8.97884
G1 X123.431 Y70.622 E9.0233
G1 X124.738 Y70.438 E9.0672
G1 X126.058 Y70.269 E9.11146
G1 X127.374 Y70.119 E9.15551
G1 X128.635 Y69.988 E9.19768
G1 X129.291 Y69.96 E9.21952
G1 X129.946 Y70.012 E9.24137
G1 X130.59 Y70.143 E9.26323
G1 X131.213 Y70.351 E9.28508
G1 X131.806 Y70.633 E9.30692
G1 X132.361 Y70.986 E9.32879
G1 X132.868 Y71.403 E9.35063
G1 X133.322 Y71.878 E9.37248
G1 X133.714 Y72.406 E9.39435
G1 X134.039 Y72.976 E9.41618
G1 X134.292 Y73.582 E9.43802
G1 X134.47 Y74.215 E9.45989
G1 X134.564 Y74.803 E9.47969
G1 X134.652 Y75.653 E9.50812
G1 X134.68 Y76.309 E9.52995
G1 X134.628 Y76.964 E9.55181
G1 X134.497 Y77.608 E9.57367
G1 X134.288 Y78.231 E9.59552
G1 X134.006 Y78.824 E9.61736
G1 X133.653 Y79.378 E9.63921
G1 X133.236 Y79.886 E9.66107
G1 X132.76 Y80.339 E9.68293
G1 X132.233 Y80.731 E9.70477
G1 X131.662 Y81.056 E9.72662
G1 X131.056 Y81.309 E9.74847
G1 X130.423 Y81.487 E9.77034
G1 X129.848 Y81.579 E9.7897
G1 X128.648 Y81.706 E9.82984
G1 X128.391 Y82.133 E9.84641
G1 X128.267 Y82.329 E9.85413
G1 X127.792 Y83.046 E9.88273
G1 X127.525 Y83.414 E9.89786
G1 X126.991 Y84.089 E9.92648
G1 X126.688 Y84.44 E9.94191
G1 X126.097 Y85.068 E9.97059
G1 X125.77 Y85.387 E9.98578
G1 X125.13 Y85.961 E10.01438
G1 X124.766 Y86.26 E10.03004
G1 X124.077 Y86.777 E10.05869
G1 X123.709 Y87.03 E10.07355
G1 X122.98 Y87.488 E10.10218
G1 X122.572 Y87.721 E10.11781
G1 X121.804 Y88.115 E10.14652
G1 X121.395 Y88.303 E10.16149
G1 X120.601 Y88.63 E10.19005
G1 X120.155 Y88.792 E10.20583
G1 X119.235 Y89.078 E10.23788
G1 X118.552 Y89.277 E10.26154
G1 X117.983 Y89.472 E10.28154
G1 X117.614 Y89.616 E10.29472
G1 X117.034 Y89.868 E10.31575
G1 X116.499 Y90.132 E10.33559
G1 X116.176 Y90.307 E10.34781
G1 X115.741 Y90.567 E10.36467
G1 X115.08 Y91.002 E10.39099
G1 X114.394 Y91.519 E10.41956
G1 X113.734 Y92.088 E10.44854
G1 X113.09 Y92.719 E10.47853
G1 X112.511 Y93.36 E10.50726
G1 X111.942 Y94.075 E10.53765
G1 X111.429 Y94.805 E10.56732
G1 X110.958 Y95.571 E10.59723
G1 X110.524 Y96.383 E10.62786
G1 X109.913 Y97.683 E10.67563
G1 X109.345 Y99.031 E10.72428
G1 X108.845 Y100.376 E10.77201
G1 X108.409 Y101.727 E10.81923
G1 X108.029 Y103.112 E10.86699
G1 X107.707 Y104.538 E10.91562
G1 X107.593 Y105.151 E10.93635
G1 X107.479 Y105.853 E10.96001
G1 X107.344 Y106.878 E10.9944
G1 X107.241 Y107.955 E11.03038
G1 X107.184 Y108.956 E11.06373
G1 X107.164 Y110.001 E11.09849
G1 X107.183 Y111.034 E11.13285
G1 X107.242 Y112.059 E11.167
G1 X107.342 Y113.115 E11.20228
G1 X107.478 Y114.141 E11.23671
G1 X107.592 Y114.845 E11.26043
G1 X107.712 Y115.483 E11.28202
G1 X108.028 Y116.887 E11.32988
G1 X108.406 Y118.267 E11.37747
G1 X108.839 Y119.606 E11.42428
G1 X109.352 Y120.989 E11.47334
G1 X109.91 Y122.312 E11.5211
G1 X110.52 Y123.609 E11.56877
G1 X110.955 Y124.423 E11.59947
G1 X111.428 Y125.193 E11.62952
G1 X111.944 Y125.927 E11.65936
G1 X112.512 Y126.641 E11.68971
G1 X113.089 Y127.28 E11.71834
G1 X113.733 Y127.911 E11.74833
G1 X114.393 Y128.48 E11.77732
G1 X115.076 Y128.994 E11.80575
G1 X115.827 Y129.487 E11.83563
G1 X116.16 Y129.683 E11.84848
G1 X116.495 Y129.865 E11.86116
G1 X117.041 Y130.135 E11.88142
G1 X117.588 Y130.373 E11.90126
G1 X118.143 Y130.585 E11.92102
G1 X118.554 Y130.723 E11.93544
G1 X119.497 Y131.003 E11.96816
G1 X120.156 Y131.209 E11.99112
G1 X120.601 Y131.37 E12.00686
G1 X121.395 Y131.697 E12.03542
G1 X121.804 Y131.885 E12.05039
G1 X122.57 Y132.278 E12.07903
G1 X122.972 Y132.507 E12.09441
G1 X123.703 Y132.965 E12.12311
G1 X124.08 Y133.224 E12.13832
G1 X124.768 Y133.741 E12.16694
G1 X125.13 Y134.038 E12.18252
G1 X125.771 Y134.613 E12.21116
G1 X126.097 Y134.932 E12.22633
G1 X126.688 Y135.56 E12.25501
G1 X126.989 Y135.908 E12.27031
G1 X127.522 Y136.581 E12.29887
G1 X127.792 Y136.953 E12.31415
G1 X128.268 Y137.672 E12.34283
G1 X128.391 Y137.868 E12.35053
G1 X128.648 Y138.295 E12.36711
G1 X129.855 Y138.424 E12.40748
G1 X130.503 Y138.533 E12.42934
G1 X131.133 Y138.721 E12.4512
G1 X131.735 Y138.983 E12.47304
G1 X132.301 Y139.317 E12.4949
G1 X132.822 Y139.717 E12.51674
G1 X133.291 Y140.177 E12.53859
G1 X133.7 Y140.691 E12.56044
G1 X134.044 Y141.251 E12.5823
G1 X134.318 Y141.848 E12.60415
G1 X134.516 Y142.474 E12.62599
G1 X134.638 Y143.12 E12.64785
G1 X134.68 Y143.775 E12.66968
G1 X134.652 Y144.338 E12.68843
G1 X134.566 Y145.186 E12.71678
G1 X134.461 Y145.834 E12.73861
G1 X134.277 Y146.465 E12.76047
G1 X134.018 Y147.069 E12.78233
G1 X133.687 Y147.636 E12.80417
G1 X133.29 Y148.16 E12.82604
G1 X132.832 Y148.631 E12.84789
G1 X132.321 Y149.044 E12.86974
G1 X131.763 Y149.391 E12.89159
G1 X131.167 Y149.667 E12.91344
G1 X130.542 Y149.87 E12.9353
G1 X129.897 Y149.995 E12.95715
G1 X129.242 Y150.041 E12.97899
G1 X128.632 Y150.012 E12.9993
G1 X127.371 Y149.88 E13.04147
G1 X126.015 Y149.725 E13.08686
G1 X124.715 Y149.559 E13.13045
G1 X123.396 Y149.372 E13.17476
G1 X122.059 Y149.166 E13.21975
G1 X120.769 Y148.948 E13.26327
G1 X119.454 Y148.708 E13.30773
G1 X118.157 Y148.452 E13.3517
G1 X116.8 Y148.164 E13.39784
G1 X115.486 Y147.868 E13.44264
G1 X114.761 Y147.686 E13.4675
G1 X113.994 Y147.474 E13.49397
G1 X113.271 Y147.255 E13.51909
G1 X112.513 Y147.003 E13.54566
G1 X111.806 Y146.746 E13.57068
G1 X111.066 Y146.457 E13.5971
G1 X110.372 Y146.165 E13.62215
G1 X109.638 Y145.834 E13.64893
G1 X108.93 Y145.49 E13.67511
G1 X108.259 Y145.142 E13.70025
G1 X107.556 Y144.756 E13.72692
G1 X106.92 Y144.383 E13.75144
G1 X106.228 Y143.956 E13.77849
G1 X105.595 Y143.54 E13.80368
G1 X104.901 Y143.059 E13.83177
G1 X104.223 Y142.559 E13.85979
G1 X103.605 Y142.077 E13.88585
G1 X102.947 Y141.539 E13.91412
