;FLAVOR:Marlin
;TIME:2104
;Filament used: 2.07188m
;Layer height: 0.2
;MINX:87.695
;MINY:69.58
;MINZ:0.2
;MAXX:133.359
;MAXY:150.424
;MAXZ:69.4
;Generated with Cura_SteamEngine 4.6.1
M140 S60
M105
M190 S60
M104 S220
M105
M109 S220
M82 ;absolute extrusion mode
; Ender 3 Custom Start G-code
G92 E0 ; Reset Extruder
G28 ; Home all axes
G1 Z2.0 F3000 ; Move Z Axis up little to prevent scratching of Heat Bed
G1 X0.1 Y20 Z0.3 F5000.0 ; Move to start position
G1 X0.1 Y200.0 Z0.3 F1500.0 E15 ; Draw the first line
G1 X0.4 Y200.0 Z0.3 F5000.0 ; Move to side a little
G1 X0.4 Y20 Z0.3 F1500.0 E30 ; Draw the second line
G92 E0 ; Reset Extruder
G1 Z2.0 F3000 ; Move Z Axis up little to prevent scratching of Heat Bed
G1 X5 Y20 Z0.3 F5000.0 ; Move over to prevent blob squish
G92 E0
G92 E0
G1 F1500 E-6
;LAYER_COUNT:347
;LAYER:0
M107
G0 F6000 X89.153 Y71.628 Z0.2
;TYPE:SKIRT
G1 F1500 E0.04158
G1 F1200 X89.623 Y71.135 E0.06423
G1 X90.147 Y70.7 E0.08688
G1 X90.718 Y70.33 E0.10951
G1 X91.329 Y70.029 E0.13217
G1 X91.971 Y69.802 E0.15481
G1 X92.635 Y69.652 E0.17745
G1 X93.312 Y69.58 E0.2001
G1 X94.18 Y69.605 E0.22898
G1 X95.508 Y69.743 E0.27339
G1 X96.809 Y69.894 E0.31695
G1 X98.117 Y70.061 E0.36081
G1 X99.437 Y70.249 E0.40515
G1 X100.776 Y70.455 E0.45021
G1 X102.072 Y70.674 E0.49393
G1 X103.401 Y70.916 E0.53886
G1 X104.696 Y71.171 E0.58276
G1 X106.015 Y71.45 E0.6276
G1 X107.37 Y71.757 E0.67381
G1 X108.127 Y71.947 E0.69977
G1 X108.885 Y72.157 E0.72593
G1 X109.625 Y72.382 E0.75165
G1 X110.39 Y72.637 E0.77847
G1 X111.108 Y72.897 E0.80387
G1 X111.857 Y73.19 E0.83062
G1 X112.575 Y73.492 E0.85653
G1 X113.296 Y73.818 E0.88285
G1 X114.006 Y74.162 E0.90909
G1 X114.697 Y74.52 E0.93497
G1 X115.393 Y74.901 E0.96136
G1 X116.083 Y75.305 E0.98796
G1 X116.754 Y75.723 E1.01425
G1 X117.409 Y76.152 E1.04029
G1 X118.092 Y76.627 E1.06796
G1 X118.79 Y77.138 E1.09673
G1 X119.422 Y77.634 E1.12346
G1 X120.088 Y78.18 E1.1521
G1 X120.703 Y78.716 E1.17923
G1 X121.329 Y79.287 E1.20741
G1 X121.933 Y79.869 E1.23531
G1 X122.5 Y80.448 E1.26227
G1 X123.086 Y81.073 E1.29076
G1 X123.625 Y81.684 E1.31786
G1 X124.163 Y82.322 E1.34562
G1 X124.678 Y82.969 E1.37312
G1 X125.179 Y83.631 E1.40073
G1 X125.663 Y84.303 E1.42828
G1 X126.12 Y84.978 E1.45539
G1 X126.571 Y85.676 E1.48303
G1 X126.996 Y86.376 E1.51027
G1 X127.403 Y87.083 E1.5374
G1 X127.807 Y87.829 E1.56562
G1 X128.187 Y88.581 E1.59364
G1 X128.953 Y90.2 E1.65321
G1 X129.678 Y91.875 E1.71392
G1 X130.021 Y92.732 E1.74462
G1 X130.358 Y93.613 E1.77599
G1 X130.67 Y94.485 E1.8068
G1 X130.97 Y95.372 E1.83794
G1 X131.253 Y96.261 E1.86897
G1 X131.514 Y97.14 E1.89947
G1 X131.766 Y98.047 E1.93078
G1 X131.997 Y98.95 E1.96178
G1 X132.211 Y99.85 E1.99255
G1 X132.406 Y100.757 E2.0234
G1 X132.586 Y101.668 E2.05429
G1 X132.747 Y102.591 E2.08545
G1 X132.887 Y103.501 E2.11607
G1 X133.013 Y104.433 E2.14736
G1 X133.121 Y105.386 E2.17925
G1 X133.204 Y106.291 E2.20948
G1 X133.273 Y107.233 E2.2409
G1 X133.321 Y108.171 E2.27214
G1 X133.349 Y109.103 E2.30315
G1 X133.359 Y110.066 E2.33518
G1 X133.347 Y110.967 E2.36515
G1 X133.317 Y111.931 E2.39723
G1 X133.267 Y112.859 E2.42814
G1 X133.197 Y113.79 E2.45919
G1 X133.11 Y114.715 E2.49009
G1 X133.003 Y115.644 E2.52119
G1 X132.874 Y116.591 E2.55298
G1 X132.732 Y117.493 E2.58335
G1 X132.568 Y118.418 E2.6146
G1 X132.391 Y119.319 E2.64514
G1 X132.189 Y120.243 E2.6766
G1 X131.978 Y121.124 E2.70673
G1 X131.744 Y122.033 E2.73795
G1 X131.49 Y122.944 E2.7694
G1 X131.228 Y123.819 E2.79978
G1 X130.945 Y124.703 E2.83065
G1 X130.638 Y125.606 E2.86238
G1 X130.332 Y126.449 E2.8922
G1 X130.002 Y127.316 E2.92306
G1 X129.632 Y128.234 E2.95598
G1 X128.873 Y129.976 E3.01918
G1 X128.115 Y131.565 E3.07773
G1 X127.752 Y132.273 E3.1042
G1 X127.337 Y133.035 E3.13306
G1 X126.941 Y133.715 E3.15923
G1 X126.5 Y134.436 E3.18734
G1 X126.063 Y135.108 E3.214
G1 X125.594 Y135.794 E3.24164
G1 X125.105 Y136.472 E3.26944
G1 X124.606 Y137.123 E3.29672
G1 X124.076 Y137.783 E3.32488
G1 X123.552 Y138.4 E3.3518
G1 X122.998 Y139.022 E3.37951
G1 X122.418 Y139.639 E3.40767
G1 X121.847 Y140.213 E3.4346
G1 X121.233 Y140.804 E3.46294
G1 X120.617 Y141.362 E3.49059
G1 X119.972 Y141.917 E3.51889
G1 X119.346 Y142.428 E3.54577
G1 X118.669 Y142.952 E3.57424
G1 X117.983 Y143.452 E3.60247
G1 X117.312 Y143.912 E3.62953
G1 X116.656 Y144.34 E3.65558
G1 X115.974 Y144.759 E3.68221
G1 X115.291 Y145.155 E3.70847
G1 X114.595 Y145.536 E3.73486
G1 X113.886 Y145.897 E3.76132
G1 X113.187 Y146.232 E3.7871
G1 X112.448 Y146.563 E3.81403
G1 X111.741 Y146.857 E3.8395
G1 X111.005 Y147.142 E3.86575
G1 X110.257 Y147.411 E3.89219
G1 X109.504 Y147.657 E3.91854
G1 X108.76 Y147.88 E3.94437
G1 X108.003 Y148.085 E3.97045
G1 X107.257 Y148.27 E3.99602
G1 X105.966 Y148.561 E4.04003
G1 X104.646 Y148.839 E4.0849
G1 X103.355 Y149.092 E4.12866
G1 X102.028 Y149.334 E4.17352
G1 X100.725 Y149.553 E4.21747
G1 X99.402 Y149.757 E4.26199
G1 X98.072 Y149.945 E4.30666
G1 X96.764 Y150.112 E4.35052
G1 X95.361 Y150.273 E4.39749
G1 X94.172 Y150.395 E4.43725
G1 X93.492 Y150.424 E4.45988
G1 X92.813 Y150.374 E4.48253
G1 X92.144 Y150.245 E4.50519
G1 X91.496 Y150.038 E4.52781
G1 X90.876 Y149.756 E4.55047
G1 X90.293 Y149.404 E4.57312
G1 X89.756 Y148.986 E4.59575
G1 X89.271 Y148.507 E4.61843
G1 X88.846 Y147.976 E4.64105
G1 X88.486 Y147.398 E4.6637
G1 X88.196 Y146.782 E4.68634
G1 X87.98 Y146.136 E4.709
G1 X87.81 Y145.21 E4.74031
G1 X87.724 Y144.361 E4.76869
G1 X87.695 Y143.68 E4.79136
G1 X87.746 Y143.001 E4.81401
G1 X87.876 Y142.333 E4.83664
G1 X88.084 Y141.685 E4.85928
G1 X88.367 Y141.065 E4.88195
G1 X88.72 Y140.483 E4.90459
G1 X89.138 Y139.946 E4.92722
G1 X89.617 Y139.462 E4.94987
G1 X90.15 Y139.037 E4.97254
G1 X90.728 Y138.678 E4.99517
G1 X91.344 Y138.389 E5.0178
G1 X91.991 Y138.174 E5.04048
G1 X92.884 Y138.008 E5.07069
G1 X93.914 Y137.899 E5.10514
G1 X94.057 Y137.662 E5.11435
G1 X94.191 Y137.45 E5.12269
G1 X94.666 Y136.733 E5.15129
G1 X94.956 Y136.333 E5.16773
G1 X95.491 Y135.658 E5.19637
G1 X95.812 Y135.286 E5.21272
G1 X96.403 Y134.658 E5.2414
G1 X96.751 Y134.318 E5.25758
G1 X97.39 Y133.744 E5.28615
G1 X97.785 Y133.42 E5.30314
G1 X98.474 Y132.903 E5.33179
G1 X98.87 Y132.631 E5.34777
G1 X99.599 Y132.173 E5.37641
G1 X100.037 Y131.923 E5.39318
G1 X100.805 Y131.529 E5.42189
G1 X101.246 Y131.326 E5.43804
G1 X102.041 Y130.999 E5.46663
G1 X102.53 Y130.823 E5.48391
G1 X103.637 Y130.481 E5.52245
G1 X104.112 Y130.343 E5.5389
G1 X104.669 Y130.152 E5.55848
G1 X105.046 Y130.006 E5.57193
G1 X105.559 Y129.782 E5.59055
G1 X106.174 Y129.475 E5.61341
G1 X106.514 Y129.288 E5.62632
G1 X106.825 Y129.101 E5.63839
G1 X107.486 Y128.667 E5.66469
G1 X108.159 Y128.159 E5.69273
G1 X108.784 Y127.621 E5.72016
G1 X109.398 Y127.018 E5.74878
G1 X109.98 Y126.374 E5.77765
G1 X110.585 Y125.607 E5.81015
G1 X111.025 Y124.979 E5.83565
G1 X111.487 Y124.226 E5.86503
G1 X111.918 Y123.421 E5.8954
G1 X112.511 Y122.161 E5.94172
G1 X113.077 Y120.815 E5.99029
G1 X113.564 Y119.507 E6.03671
G1 X114.006 Y118.136 E6.08462
G1 X114.376 Y116.789 E6.13108
G1 X114.689 Y115.4 E6.17844
G1 X114.832 Y114.607 E6.20524
G1 X114.916 Y114.1 E6.22233
G1 X115.055 Y113.048 E6.25762
G1 X115.15 Y112.048 E6.29103
G1 X115.208 Y111.011 E6.32558
G1 X115.228 Y109.999 E6.35924
G1 X115.208 Y108.995 E6.39264
G1 X115.148 Y107.945 E6.42762
G1 X115.054 Y106.947 E6.46096
G1 X114.918 Y105.92 E6.49542
G1 X114.804 Y105.227 E6.51878
G1 X114.684 Y104.585 E6.5405
G1 X114.375 Y103.21 E6.58738
G1 X113.997 Y101.838 E6.63471
G1 X113.569 Y100.509 E6.68115
G1 X113.073 Y99.174 E6.72851
G1 X112.512 Y97.843 E6.77656
G1 X111.917 Y96.577 E6.82308
G1 X111.485 Y95.77 E6.85353
G1 X111.028 Y95.024 E6.88262
G1 X110.523 Y94.306 E6.91182
G1 X109.989 Y93.636 E6.94032
G1 X109.398 Y92.982 E6.96963
G1 X108.791 Y92.386 E6.99793
G1 X108.152 Y91.836 E7.02597
G1 X107.484 Y91.333 E7.05378
G1 X106.751 Y90.851 E7.08296
G1 X106.444 Y90.671 E7.0948
G1 X106.089 Y90.478 E7.10824
G1 X105.591 Y90.233 E7.1267
G1 X105.045 Y89.994 E7.14652
G1 X104.656 Y89.843 E7.1604
G1 X104.109 Y89.655 E7.17964
G1 X103.172 Y89.378 E7.21213
G1 X102.514 Y89.172 E7.23507
G1 X102.041 Y89.001 E7.2518
G1 X101.246 Y88.674 E7.28039
G1 X100.805 Y88.471 E7.29653
G1 X100.037 Y88.077 E7.32524
G1 X99.599 Y87.827 E7.34202
G1 X98.87 Y87.369 E7.37065
G1 X98.474 Y87.097 E7.38663
G1 X97.785 Y86.58 E7.41528
G1 X97.39 Y86.256 E7.43227
G1 X96.751 Y85.682 E7.46084
G1 X96.403 Y85.342 E7.47702
G1 X95.812 Y84.714 E7.50571
G1 X95.493 Y84.345 E7.52193
G1 X94.958 Y83.671 E7.55055
G1 X94.664 Y83.265 E7.56722
G1 X94.056 Y82.338 E7.60409
G1 X93.912 Y82.1 E7.61335
G1 X92.885 Y81.991 E7.6477
G1 X92.213 Y81.88 E7.67035
G1 X91.559 Y81.691 E7.69299
G1 X90.932 Y81.426 E7.71563
G1 X90.339 Y81.09 E7.7383
G1 X89.791 Y80.687 E7.76093
G1 X89.293 Y80.222 E7.78359
G1 X88.853 Y79.702 E7.80624
G1 X88.478 Y79.134 E7.82888
G1 X88.171 Y78.527 E7.85151
G1 X87.938 Y77.887 E7.87416
G1 X87.781 Y77.224 E7.89682
G1 X87.703 Y76.548 E7.91945
G1 X87.724 Y75.634 E7.94986
G1 X87.816 Y74.735 E7.97992
G1 X87.937 Y74.039 E8.00341
G1 X88.132 Y73.386 E8.02608
G1 X88.403 Y72.761 E8.04874
G1 X88.745 Y72.173 E8.07136
G1 X89.153 Y71.628 E8.09401
G0 F6000 X89.534 Y71.799
G1 F1200 X89.998 Y71.334 E8.11586
G1 X90.515 Y70.929 E8.1377
G1 X91.078 Y70.589 E8.15957
G1 X91.677 Y70.321 E8.1814
G1 X92.305 Y70.127 E8.20326
G1 X92.952 Y70.011 E8.22512
G1 X93.607 Y69.974 E8.24694
G1 X94.139 Y70.003 E8.26466
G1 X95.462 Y70.141 E8.30891
G1 X96.758 Y70.291 E8.3523
G1 X98.061 Y70.457 E8.39599
G1 X99.377 Y70.644 E8.4402
G1 X100.71 Y70.849 E8.48505
G1 X102 Y71.067 E8.52857
G1 X103.323 Y71.308 E8.5733
G1 X104.613 Y71.562 E8.61703
G1 X105.927 Y71.84 E8.6617
G1 X107.274 Y72.145 E8.70763
G1 X108.021 Y72.332 E8.73324
G1 X108.77 Y72.54 E8.7591
G1 X109.5 Y72.762 E8.78448
G1 X110.254 Y73.013 E8.81091
G1 X110.963 Y73.27 E8.83599
G1 X111.703 Y73.558 E8.8624
G1 X112.411 Y73.857 E8.88796
G1 X113.122 Y74.179 E8.91392
G1 X113.823 Y74.518 E8.93982
G1 X114.506 Y74.871 E8.96539
G1 X115.192 Y75.247 E8.99141
G1 X115.872 Y75.645 E9.01762
G1 X116.536 Y76.058 E9.04363
G1 X117.181 Y76.481 E9.06928
G1 X117.857 Y76.95 E9.09665
G1 X118.543 Y77.454 E9.12496
G1 X119.17 Y77.944 E9.15143
G1 X119.826 Y78.481 E9.17962
G1 X120.434 Y79.012 E9.20647
G1 X121.052 Y79.576 E9.2343
G1 X121.647 Y80.15 E9.2618
G1 X122.209 Y80.722 E9.28847
G1 X122.787 Y81.338 E9.31656
G1 X123.32 Y81.943 E9.34338
G1 X123.85 Y82.572 E9.37074
G1 X124.359 Y83.211 E9.39791
G1 X124.855 Y83.865 E9.42521
G1 X125.332 Y84.528 E9.45237
G1 X125.785 Y85.196 E9.47922
G1 X126.229 Y85.884 E9.50645
G1 X126.65 Y86.577 E9.53342
G1 X127.052 Y87.274 E9.56018
G1 X127.45 Y88.01 E9.58801
G1 X127.826 Y88.753 E9.61571
G1 X128.586 Y90.36 E9.67484
G1 X129.307 Y92.024 E9.73515
G1 X129.647 Y92.875 E9.76563
G1 X129.981 Y93.749 E9.79675
G1 X130.292 Y94.614 E9.82732
G1 X130.589 Y95.494 E9.85822
G1 X130.869 Y96.376 E9.88899
G1 X131.129 Y97.247 E9.91923
G1 X131.378 Y98.147 E9.95029
G1 X131.608 Y99.043 E9.98105
G1 X131.82 Y99.934 E10.01151
G1 X132.014 Y100.835 E10.04217
G1 X132.192 Y101.738 E10.07278
G1 X132.351 Y102.653 E10.10367
G1 X132.491 Y103.555 E10.13403
G1 X132.615 Y104.479 E10.16504
G1 X132.723 Y105.423 E10.19664
G1 X132.805 Y106.321 E10.22663
G1 X132.873 Y107.254 E10.25775
G1 X132.922 Y108.183 E10.28869
G1 X132.949 Y109.108 E10.31947
G1 X132.959 Y110.061 E10.35116
G1 X132.948 Y110.955 E10.3809
G1 X132.918 Y111.91 E10.41268
G1 X132.868 Y112.83 E10.44333
G1 X132.799 Y113.753 E10.47411
G1 X132.713 Y114.669 E10.50471
G1 X132.606 Y115.591 E10.53558
G1 X132.479 Y116.529 E10.56706
G1 X132.338 Y117.423 E10.59717
G1 X132.176 Y118.341 E10.62817
G1 X132 Y119.234 E10.65844
G1 X131.8 Y120.15 E10.68963
G1 X131.591 Y121.025 E10.71955
G1 X131.358 Y121.926 E10.7505
G1 X131.107 Y122.829 E10.78168
G1 X130.847 Y123.697 E10.81181
G1 X130.566 Y124.575 E10.84247
G1 X130.262 Y125.47 E10.87391
G1 X129.958 Y126.306 E10.9035
G1 X129.63 Y127.167 E10.93414
G1 X129.265 Y128.075 E10.96669
G1 X128.512 Y129.804 E11.02942
G1 X127.759 Y131.383 E11.0876
G1 X127.401 Y132.082 E11.11372
G1 X126.991 Y132.834 E11.14221
G1 X126.599 Y133.507 E11.16811
G1 X126.164 Y134.219 E11.19586
G1 X125.732 Y134.883 E11.22221
G1 X125.269 Y135.561 E11.24952
G1 X124.787 Y136.229 E11.27692
G1 X124.293 Y136.873 E11.30391
G1 X123.77 Y137.525 E11.33171
G1 X123.253 Y138.134 E11.35828
G1 X122.705 Y138.749 E11.38568
G1 X122.134 Y139.358 E11.41344
G1 X121.569 Y139.926 E11.44009
G1 X120.964 Y140.508 E11.46801
G1 X120.355 Y141.059 E11.49533
G1 X119.718 Y141.608 E11.5233
G1 X119.1 Y142.112 E11.54982
G1 X118.432 Y142.63 E11.57794
G1 X117.756 Y143.123 E11.60576
G1 X117.092 Y143.577 E11.63252
G1 X116.445 Y144 E11.65823
G1 X115.772 Y144.414 E11.68451
G1 X115.098 Y144.805 E11.71042
G1 X114.413 Y145.18 E11.7364
G1 X113.712 Y145.537 E11.76256
G1 X113.023 Y145.867 E11.78797
G1 X112.293 Y146.194 E11.81458
G1 X111.596 Y146.484 E11.83969
G1 X110.869 Y146.766 E11.86562
G1 X110.132 Y147.031 E11.89167
G1 X109.388 Y147.274 E11.9177
G1 X108.654 Y147.494 E11.94319
G1 X107.907 Y147.697 E11.96894
G1 X107.168 Y147.88 E11.99426
G1 X105.884 Y148.17 E12.03804
G1 X104.569 Y148.446 E12.08273
G1 X103.283 Y148.699 E12.12632
G1 X101.962 Y148.94 E12.17098
G1 X100.664 Y149.158 E12.21476
G1 X99.346 Y149.361 E12.25911
G1 X98.021 Y149.548 E12.30362
G1 X96.719 Y149.715 E12.34728
G1 X95.32 Y149.875 E12.39411
G1 X94.131 Y149.997 E12.43387
G1 X93.475 Y150.024 E12.4557
G1 X92.82 Y149.971 E12.47756
G1 X92.176 Y149.839 E12.49943
G1 X91.554 Y149.63 E12.52125
G1 X90.961 Y149.347 E12.5431
G1 X90.407 Y148.994 E12.56495
G1 X89.9 Y148.577 E12.58679
G1 X89.447 Y148.1 E12.60867
G1 X89.056 Y147.573 E12.63049
G1 X88.731 Y147.001 E12.65237
G1 X88.478 Y146.395 E12.67421
G1 X88.301 Y145.762 E12.69608
G1 X88.207 Y145.169 E12.71605
G1 X88.121 Y144.32 E12.74443
G1 X88.095 Y143.664 E12.76626
G1 X88.149 Y143.009 E12.78812
G1 X88.281 Y142.366 E12.80996
G1 X88.491 Y141.743 E12.83182
G1 X88.775 Y141.151 E12.85366
G1 X89.129 Y140.597 E12.87553
G1 X89.547 Y140.09 E12.89738
G1 X90.024 Y139.638 E12.91924
G1 X90.552 Y139.248 E12.94107
G1 X91.124 Y138.924 E12.96294
G1 X91.731 Y138.672 E12.9848
G1 X92.363 Y138.496 E13.00662
G1 X92.926 Y138.406 E13.02558
G1 X94.154 Y138.276 E13.06665
G1 X94.524 Y137.671 E13.09024
G1 X94.999 Y136.954 E13.11884
G1 X95.269 Y136.582 E13.13413
G1 X95.804 Y135.907 E13.16278
G1 X96.104 Y135.56 E13.17804
G1 X96.695 Y134.932 E13.20672
G1 X97.018 Y134.616 E13.22175
G1 X97.657 Y134.042 E13.25032
G1 X98.025 Y133.74 E13.26615
G1 X98.714 Y133.223 E13.2948
G1 X99.082 Y132.97 E13.30965
G1 X99.811 Y132.512 E13.33829
G1 X100.219 Y132.279 E13.35391
G1 X100.987 Y131.885 E13.38262
G1 X101.398 Y131.696 E13.39767
G1 X102.193 Y131.369 E13.42626
G1 X102.649 Y131.205 E13.44238
G1 X103.749 Y130.865 E13.48067
G1 X104.24 Y130.722 E13.49768
G1 X104.794 Y130.532 E13.51716
G1 X105.189 Y130.379 E13.53125
G1 X105.735 Y130.141 E13.55106
G1 X106.366 Y129.826 E13.57452
G1 X106.702 Y129.641 E13.58728
G1 X107.046 Y129.435 E13.60061
G1 X107.725 Y128.988 E13.62765
G1 X108.401 Y128.478 E13.65581
G1 X109.05 Y127.919 E13.6843
G1 X109.701 Y127.281 E13.71462
G1 X110.285 Y126.635 E13.74358
G1 X110.858 Y125.916 E13.77416
G1 X111.359 Y125.201 E13.8032
G1 X111.834 Y124.426 E13.83343
G1 X112.275 Y123.602 E13.86452
G1 X112.879 Y122.317 E13.91174
G1 X113.446 Y120.969 E13.96038
G1 X113.943 Y119.635 E14.00773
G1 X114.389 Y118.252 E14.05606
G1 X114.761 Y116.897 E14.1028
G1 X115.078 Y115.49 E14.15077
G1 X115.233 Y114.636 E14.17964
G1 X115.313 Y114.152 E14.19595
G1 X115.45 Y113.113 E14.23081
G1 X115.55 Y112.056 E14.26612
G1 X115.608 Y111.043 E14.29987
G1 X115.628 Y109.999 E14.3346
G1 X115.608 Y108.964 E14.36903
