;FLAVOR:Marlin
;TIME:4112
;Filament used: 1.77851m
;Layer height: 0.2
;MINX:90.568
;MINY:86.606
;MINZ:0.2
;MAXX:129.428
;MAXY:133.4
;MAXZ:147.8
;Generated with Cura_SteamEngine 4.6.1
M140 S60
M105
M190 S60
M104 S220
M105
M109 S220
M82 ;absolute extrusion mode
; Ender 3 Custom Start G-code
G92 E0 ; Reset Extruder
G28 ; Home all axes
G1 Z2.0 F3000 ; Move Z Axis up little to prevent scratching of Heat Bed
G1 X0.1 Y20 Z0.3 F5000.0 ; Move to start position
G1 X0.1 Y200.0 Z0.3 F1500.0 E15 ; Draw the first line
G1 X0.4 Y200.0 Z0.3 F5000.0 ; Move to side a little
G1 X0.4 Y20 Z0.3 F1500.0 E30 ; Draw the second line
G92 E0 ; Reset Extruder
G1 Z2.0 F3000 ; Move Z Axis up little to prevent scratching of Heat Bed
G1 X5 Y20 Z0.3 F5000.0 ; Move over to prevent blob squish
G92 E0
G92 E0
G1 F1500 E-6
;LAYER_COUNT:745
;LAYER:0
M107
G0 F6000 X94.857 Y88.338 Z0.2
;TYPE:SKIRT
G1 F1500 E0.04158
G1 F1200 X95.368 Y87.888 E0.06422
G1 X95.928 Y87.501 E0.08686
G1 X96.613 Y87.144 E0.11255
G1 X96.75 Y87.084 E0.11753
G1 X97.389 Y86.848 E0.14019
G1 X98.051 Y86.689 E0.16283
G1 X98.727 Y86.608 E0.18547
G1 X99.408 Y86.606 E0.20812
G1 X100.118 Y86.691 E0.23191
G1 X100.266 Y86.718 E0.23691
G1 X100.927 Y86.879 E0.25954
G1 X101.565 Y87.117 E0.28219
G1 X102.171 Y87.428 E0.30484
G1 X102.736 Y87.808 E0.32749
G1 X103.404 Y88.402 E0.35722
G1 X103.506 Y88.508 E0.36211
G1 X103.949 Y89.026 E0.38478
G1 X104.328 Y89.592 E0.40744
G1 X104.638 Y90.198 E0.43008
G1 X104.874 Y90.836 E0.4527
G1 X105.034 Y91.498 E0.47536
G1 X105.089 Y91.868 E0.4878
G1 X105.57 Y96.061 E0.62817
G1 X105.957 Y99.754 E0.75167
G1 X106.665 Y100.095 E0.77781
G1 X108.631 Y101.113 E0.85145
G1 X110.554 Y102.182 E0.92462
G1 X112.455 Y103.313 E0.9982
G1 X113.96 Y104.264 E1.05741
G1 X114.321 Y104.501 E1.07177
G1 X115.818 Y105.509 E1.1318
G1 X116.116 Y105.719 E1.14392
G1 X117.655 Y106.822 E1.2069
G1 X117.946 Y107.041 E1.21901
G1 X119.443 Y108.184 E1.28166
G1 X119.728 Y108.412 E1.2938
G1 X121.196 Y109.604 E1.35669
G1 X121.473 Y109.84 E1.36879
G1 X122.92 Y111.092 E1.43244
G1 X124.581 Y112.615 E1.50739
G1 X126.07 Y114.062 E1.57645
G1 X126.363 Y114.368 E1.59054
G1 X126.779 Y114.836 E1.61136
G1 X127.182 Y115.344 E1.63293
G1 X127.54 Y115.851 E1.65357
G1 X127.891 Y116.414 E1.67564
G1 X128.19 Y116.961 E1.69637
G1 X128.472 Y117.554 E1.71821
G1 X128.708 Y118.133 E1.73901
G1 X128.921 Y118.753 E1.76081
G1 X129.089 Y119.351 E1.78147
G1 X129.23 Y119.989 E1.80321
G1 X129.33 Y120.604 E1.82393
G1 X129.398 Y121.256 E1.84573
G1 X129.428 Y121.878 E1.86645
G1 X129.426 Y122.484 E1.8866
G1 X129.397 Y122.997 E1.90369
G1 X129.334 Y123.58 E1.92319
G1 X129.236 Y124.197 E1.94397
G1 X129.095 Y124.845 E1.96603
G1 X128.928 Y125.444 E1.98671
G1 X128.709 Y126.082 E2.00915
G1 X128.473 Y126.659 E2.02988
G1 X128.2 Y127.234 E2.05105
G1 X127.902 Y127.782 E2.0718
G1 X127.552 Y128.347 E2.09391
G1 X127.192 Y128.859 E2.11472
G1 X126.784 Y129.375 E2.1366
G1 X126.371 Y129.84 E2.15729
G1 X125.911 Y130.302 E2.17897
G1 X125.447 Y130.719 E2.19972
G1 X124.923 Y131.138 E2.22204
G1 X124.412 Y131.5 E2.24286
G1 X123.851 Y131.851 E2.26487
G1 X123.303 Y132.152 E2.28567
G1 X122.726 Y132.428 E2.30694
G1 X122.15 Y132.666 E2.32767
G1 X121.512 Y132.887 E2.35013
G1 X120.914 Y133.056 E2.3708
G1 X120.272 Y133.199 E2.39267
G1 X119.654 Y133.3 E2.4135
G1 X119.008 Y133.369 E2.43511
G1 X118.386 Y133.4 E2.45582
G1 X117.805 Y133.4 E2.47515
G1 X117.329 Y133.376 E2.491
G1 X116.784 Y133.322 E2.50921
G1 X116.201 Y133.237 E2.52881
G1 X115.573 Y133.11 E2.55012
G1 X115.006 Y132.962 E2.56961
G1 X114.426 Y132.777 E2.58986
G1 X113.874 Y132.569 E2.60948
G1 X113.298 Y132.316 E2.6304
G1 X112.773 Y132.05 E2.64998
G1 X112.503 Y131.904 E2.66019
G1 X104.889 Y127.526 E2.95231
G1 X104.465 Y127.306 E2.9682
G1 X104.121 Y127.165 E2.98056
G1 X103.771 Y127.055 E2.99276
G1 X103.423 Y126.978 E3.00462
G1 X103.046 Y126.929 E3.01726
G1 X102.574 Y126.908 E3.03298
G1 X101.072 Y126.908 E3.08293
G1 X100.392 Y126.868 E3.10559
G1 X99.722 Y126.749 E3.12822
G1 X99.07 Y126.552 E3.15088
G1 X98.178 Y126.135 E3.18363
G1 X93.474 Y123.427 E3.36416
G1 X92.905 Y123.053 E3.3868
G1 X92.384 Y122.615 E3.40944
G1 X91.917 Y122.119 E3.4321
G1 X91.512 Y121.572 E3.45474
G1 X91.174 Y120.981 E3.47738
G1 X90.907 Y120.354 E3.50005
G1 X90.716 Y119.701 E3.52268
G1 X90.602 Y119.03 E3.54531
G1 X90.568 Y118.35 E3.56796
G1 X90.588 Y117.916 E3.58241
G1 X91.189 Y110.768 E3.82099
G1 X91.776 Y104.46 E4.0317
G1 X92.277 Y99.485 E4.19801
G1 X93.099 Y91.949 E4.45014
G1 X93.213 Y91.278 E4.47278
G1 X93.404 Y90.624 E4.49544
G1 X93.671 Y89.998 E4.51808
G1 X93.935 Y89.522 E4.53618
G1 X94.01 Y89.401 E4.54092
G1 X94.402 Y88.845 E4.56354
G1 X94.857 Y88.338 E4.5862
G0 F6000 X95.171 Y88.59
G1 F1200 X95.669 Y88.16 E4.60808
G1 X96.215 Y87.795 E4.62993
G1 X96.774 Y87.511 E4.65078
G1 X96.911 Y87.451 E4.65576
G1 X97.527 Y87.224 E4.67759
G1 X98.167 Y87.074 E4.69946
G1 X98.82 Y87.003 E4.7213
G1 X99.477 Y87.012 E4.74316
G1 X100.046 Y87.085 E4.76224
G1 X100.194 Y87.112 E4.76724
G1 X100.832 Y87.269 E4.78909
G1 X101.446 Y87.502 E4.81094
G1 X102.027 Y87.808 E4.83278
G1 X102.567 Y88.183 E4.85464
G1 X103.116 Y88.68 E4.87927
G1 X103.218 Y88.786 E4.88417
G1 X103.644 Y89.286 E4.90601
G1 X104.006 Y89.834 E4.92786
G1 X104.299 Y90.422 E4.94971
G1 X104.518 Y91.042 E4.97158
G1 X104.692 Y91.914 E5.00115
G1 X105.173 Y96.103 E5.1414
G1 X105.584 Y100.019 E5.27236
G1 X106.481 Y100.451 E5.30547
G1 X108.437 Y101.463 E5.37872
G1 X110.351 Y102.526 E5.45154
G1 X112.242 Y103.652 E5.52474
G1 X113.741 Y104.598 E5.58369
G1 X114.098 Y104.833 E5.59791
G1 X115.588 Y105.836 E5.65765
G1 X115.886 Y106.046 E5.66978
G1 X117.414 Y107.141 E5.7323
G1 X117.705 Y107.36 E5.74441
G1 X119.193 Y108.496 E5.80668
G1 X119.478 Y108.724 E5.81882
G1 X120.937 Y109.909 E5.88133
G1 X121.214 Y110.145 E5.89344
G1 X122.65 Y111.388 E5.95661
G1 X124.302 Y112.901 E6.03111
G1 X125.791 Y114.348 E6.10017
G1 X126.064 Y114.633 E6.1133
G1 X126.48 Y115.101 E6.13412
G1 X126.855 Y115.574 E6.1542
G1 X127.213 Y116.081 E6.17484
G1 X127.54 Y116.606 E6.19541
G1 X127.839 Y117.153 E6.21615
G1 X128.102 Y117.705 E6.23649
G1 X128.338 Y118.284 E6.25728
G1 X128.536 Y118.861 E6.27757
G1 X128.704 Y119.459 E6.29823
G1 X128.835 Y120.053 E6.31846
G1 X128.935 Y120.668 E6.33919
G1 X128.999 Y121.275 E6.35949
G1 X129.029 Y121.897 E6.3802
G1 X129.026 Y122.462 E6.39899
G1 X128.997 Y122.975 E6.41608
G1 X128.939 Y123.517 E6.43421
G1 X128.841 Y124.134 E6.45499
G1 X128.71 Y124.737 E6.47551
G1 X128.543 Y125.336 E6.49619
G1 X128.339 Y125.93 E6.51708
G1 X128.103 Y126.507 E6.53782
G1 X127.849 Y127.043 E6.55755
G1 X127.551 Y127.591 E6.57829
G1 X127.224 Y128.117 E6.59889
G1 X126.864 Y128.629 E6.61971
G1 X126.484 Y129.109 E6.64007
G1 X126.071 Y129.574 E6.66076
G1 X125.644 Y130.004 E6.68091
G1 X125.18 Y130.421 E6.70166
G1 X124.692 Y130.811 E6.72244
G1 X124.181 Y131.173 E6.74327
G1 X123.659 Y131.5 E6.76376
G1 X123.111 Y131.801 E6.78455
G1 X122.573 Y132.059 E6.8044
G1 X121.997 Y132.297 E6.82512
G1 X121.404 Y132.502 E6.84599
G1 X120.806 Y132.671 E6.86666
G1 X120.208 Y132.804 E6.88704
G1 X119.59 Y132.905 E6.90787
G1 X118.988 Y132.969 E6.928
G1 X118.366 Y133 E6.94871
G1 X117.825 Y133 E6.96671
G1 X117.349 Y132.976 E6.98256
G1 X116.842 Y132.927 E6.9995
G1 X116.259 Y132.842 E7.0191
G1 X115.674 Y132.723 E7.03895
G1 X115.107 Y132.575 E7.05844
G1 X114.567 Y132.403 E7.07729
G1 X114.015 Y132.195 E7.09691
G1 X113.478 Y131.959 E7.11642
G1 X112.953 Y131.693 E7.136
G1 X112.702 Y131.557 E7.14549
G1 X105.084 Y127.177 E7.43776
G1 X104.632 Y126.942 E7.45471
G1 X104.263 Y126.791 E7.46797
G1 X103.875 Y126.669 E7.48149
G1 X103.481 Y126.582 E7.49491
G1 X103.092 Y126.531 E7.50796
G1 X102.569 Y126.508 E7.52538
G1 X101.072 Y126.508 E7.57517
G1 X100.416 Y126.468 E7.59702
G1 X99.77 Y126.349 E7.61887
G1 X99.143 Y126.152 E7.64073
G1 X98.378 Y125.788 E7.66891
G1 X93.674 Y123.08 E7.84944
G1 X93.125 Y122.718 E7.87131
G1 X92.625 Y122.292 E7.89316
G1 X92.18 Y121.809 E7.915
G1 X91.797 Y121.275 E7.93686
G1 X91.482 Y120.699 E7.95869
G1 X91.239 Y120.089 E7.98053
G1 X91.072 Y119.453 E8.0024
G1 X90.983 Y118.802 E8.02426
G1 X90.987 Y117.95 E8.05259
G1 X91.587 Y110.802 E8.29117
G1 X92.174 Y104.497 E8.50179
G1 X92.675 Y99.525 E8.66799
G1 X93.497 Y91.992 E8.92003
G1 X93.608 Y91.345 E8.94186
G1 X93.796 Y90.716 E8.9637
G1 X94.06 Y90.114 E8.98556
G1 X94.275 Y89.733 E9.00011
G1 X94.35 Y89.612 E9.00485
G1 X94.73 Y89.076 E9.0267
G1 X95.171 Y88.59 E9.04853
G0 F6000 X95.485 Y88.843
G1 F1200 X95.969 Y88.436 E9.06956
G1 X96.5 Y88.093 E9.09059
G1 X96.934 Y87.877 E9.10671
G1 X97.071 Y87.817 E9.11168
G1 X97.665 Y87.6 E9.13272
G1 X98.282 Y87.461 E9.15375
G1 X98.911 Y87.4 E9.17477
G1 X99.543 Y87.419 E9.1958
G1 X100.122 Y87.505 E9.21527
G1 X100.736 Y87.658 E9.23632
G1 X101.325 Y87.886 E9.25732
G1 X101.881 Y88.188 E9.27837
G1 X102.394 Y88.557 E9.29939
G1 X102.828 Y88.957 E9.31902
G1 X102.93 Y89.063 E9.32391
G1 X103.339 Y89.545 E9.34493
G1 X103.683 Y90.075 E9.36595
G1 X103.958 Y90.645 E9.387
G1 X104.159 Y91.244 E9.40801
G1 X104.294 Y91.96 E9.43225
G1 X104.769 Y96.096 E9.57072
G1 X105.209 Y100.283 E9.71074
G1 X106.298 Y100.806 E9.75092
G1 X108.243 Y101.813 E9.82377
G1 X110.148 Y102.871 E9.89625
G1 X112.028 Y103.99 E9.96901
G1 X113.522 Y104.933 E10.02778
G1 X113.875 Y105.165 E10.04183
G1 X115.357 Y106.163 E10.10125
G1 X115.655 Y106.373 E10.11338
G1 X117.174 Y107.461 E10.17552
G1 X117.465 Y107.68 E10.18763
G1 X118.943 Y108.809 E10.24949
G1 X119.253 Y109.057 E10.2627
G1 X120.678 Y110.213 E10.32373
G1 X120.955 Y110.449 E10.33583
G1 X122.38 Y111.683 E10.39853
G1 X124.024 Y113.188 E10.47266
G1 X125.513 Y114.635 E10.54172
G1 X125.765 Y114.899 E10.55386
G1 X126.181 Y115.367 E10.57468
G1 X126.528 Y115.805 E10.59327
G1 X126.886 Y116.312 E10.61391
G1 X127.189 Y116.798 E10.63296
G1 X127.488 Y117.345 E10.65369
G1 X127.731 Y117.856 E10.67251
G1 X127.967 Y118.435 E10.69331
G1 X128.151 Y118.97 E10.71213
G1 X128.319 Y119.568 E10.73279
G1 X128.44 Y120.118 E10.75152
G1 X128.54 Y120.733 E10.77224
G1 X128.599 Y121.294 E10.791
G1 X128.629 Y121.916 E10.81171
G1 X128.627 Y122.439 E10.82911
G1 X128.598 Y122.952 E10.8462
G1 X128.544 Y123.454 E10.86299
G1 X128.446 Y124.071 E10.88377
G1 X128.324 Y124.63 E10.9028
G1 X128.157 Y125.229 E10.92348
G1 X127.969 Y125.779 E10.94282
G1 X127.733 Y126.356 E10.96355
G1 X127.498 Y126.852 E10.98181
G1 X127.2 Y127.4 E11.00255
G1 X126.897 Y127.887 E11.02163
G1 X126.537 Y128.399 E11.04245
G1 X126.185 Y128.843 E11.06129
G1 X125.772 Y129.308 E11.08198
G1 X125.376 Y129.707 E11.10067
G1 X124.912 Y130.124 E11.12142
G1 X124.46 Y130.485 E11.14066
G1 X123.949 Y130.847 E11.16149
G1 X123.466 Y131.149 E11.18044
G1 X122.918 Y131.45 E11.20123
G1 X122.42 Y131.689 E11.21961
G1 X121.844 Y131.927 E11.24033
G1 X121.295 Y132.118 E11.25967
G1 X120.697 Y132.287 E11.28034
G1 X120.143 Y132.41 E11.29921
G1 X119.525 Y132.511 E11.32004
G1 X118.968 Y132.57 E11.33867
G1 X118.346 Y132.601 E11.35938
G1 X117.845 Y132.601 E11.37605
G1 X117.369 Y132.577 E11.3919
G1 X116.9 Y132.531 E11.40757
G1 X116.317 Y132.446 E11.42717
G1 X115.775 Y132.336 E11.44556
G1 X115.208 Y132.188 E11.46505
G1 X114.708 Y132.029 E11.4825
G1 X114.156 Y131.821 E11.50212
G1 X113.659 Y131.602 E11.52019
G1 X113.134 Y131.336 E11.53976
G1 X112.902 Y131.211 E11.54853
G1 X105.262 Y126.818 E11.84165
G1 X104.803 Y126.581 E11.85883
G1 X104.395 Y126.412 E11.87352
G1 X103.979 Y126.282 E11.88801
G1 X103.561 Y126.19 E11.90225
G1 X103.116 Y126.131 E11.91718
G1 X102.586 Y126.108 E11.93482
G1 X101.072 Y126.108 E11.98518
G1 X100.441 Y126.068 E12.00621
G1 X99.82 Y125.949 E12.02724
G1 X99.22 Y125.752 E12.04824
G1 X98.577 Y125.441 E12.072
G1 X93.873 Y122.733 E12.25253
G1 X93.347 Y122.384 E12.27352
G1 X92.868 Y121.971 E12.29456
G1 X92.446 Y121.501 E12.31557
G1 X92.086 Y120.981 E12.3366
G1 X91.794 Y120.42 E12.35764
G1 X91.576 Y119.827 E12.37865
G1 X91.434 Y119.211 E12.39968
G1 X91.371 Y118.582 E12.4207
G1 X91.385 Y117.983 E12.44063
G1 X91.986 Y110.837 E12.67915
G1 X92.573 Y104.534 E12.88969
G1 X93.073 Y99.566 E13.05576
G1 X93.894 Y92.036 E13.3077
G1 X94.003 Y91.413 E13.32873
G1 X94.188 Y90.809 E13.34974
G1 X94.449 Y90.233 E13.37078
G1 X94.69 Y89.823 E13.38659
G1 X95.057 Y89.308 E13.40763
G1 X95.485 Y88.843 E13.42865
G0 F6000 X95.797 Y89.098
G1 F1200 X96.266 Y88.714 E13.44881
G1 X96.782 Y88.395 E13.46898
G1 X97.095 Y88.243 E13.48056
G1 X97.232 Y88.183 E13.48553
G1 X97.802 Y87.977 E13.50569
G1 X98.394 Y87.848 E13.52584
G1 X98.998 Y87.798 E13.546
G1 X99.903 Y87.872 E13.5762
G1 X100.051 Y87.899 E13.5812
G1 X100.639 Y88.047 E13.60137
G1 X101.202 Y88.271 E13.62152
G1 X101.731 Y88.567 E13.64169
G1 X102.217 Y88.93 E13.66186
G1 X102.54 Y89.234 E13.67662
G1 X102.642 Y89.34 E13.68151
G1 X103.032 Y89.804 E13.70167
G1 X103.359 Y90.315 E13.72185
G1 X103.615 Y90.865 E13.74202
G1 X103.797 Y91.443 E13.76218
G1 X103.897 Y92.005 E13.78116
G1 X104.372 Y96.141 E13.91963
G1 X104.835 Y100.548 E14.06702
G1 X106.114 Y101.162 E14.1142
G1 X108.049 Y102.163 E14.18666
G1 X109.944 Y103.215 E14.25875
G1 X111.446 Y104.102 E14.31677
G1 X111.815 Y104.328 E14.33116
G1 X113.302 Y105.267 E14.38966
G1 X113.652 Y105.497 E14.40359
G1 X115.127 Y106.49 E14.46273
G1 X115.425 Y106.7 E14.47485
G1 X116.933 Y107.781 E14.53656
G1 X117.224 Y108 E14.54868
G1 X118.694 Y109.121 E14.61016
G1 X118.979 Y109.349 E14.6223
G1 X120.418 Y110.518 E14.68397
G1 X120.695 Y110.754 E14.69607
G1 X122.11 Y111.978 E14.7583
G1 X123.745 Y113.475 E14.83203
G1 X125.234 Y114.922 E14.90109
G1 X125.466 Y115.165 E14.91226
G1 X125.882 Y115.633 E14.93309
G1 X126.202 Y116.036 E14.9502
G1 X126.56 Y116.543 E14.97084
G1 X126.838 Y116.99 E14.98835
G1 X127.137 Y117.537 E15.00909
G1 X127.361 Y118.007 E15.0264
G1 X127.597 Y118.586 E15.0472
G1 X127.766 Y119.078 E15.0645
G1 X127.934 Y119.676 E15.08516
G1 X128.045 Y120.182 E15.10239
G1 X128.145 Y120.797 E15.12311
G1 X128.2 Y121.313 E15.14037
G1 X128.23 Y121.935 E15.16109
G1 X128.228 Y122.417 E15.17712
G1 X128.199 Y122.93 E15.19421
G1 X128.149 Y123.392 E15.20966
G1 X128.051 Y124.009 E15.23044
G1 X127.939 Y124.522 E15.24791
G1 X127.772 Y125.121 E15.26859
G1 X127.599 Y125.627 E15.28637
G1 X127.363 Y126.204 E15.30711
G1 X127.146 Y126.661 E15.32394
G1 X126.848 Y127.209 E15.34468
G1 X126.57 Y127.657 E15.36222
G1 X126.21 Y128.169 E15.38304
G1 X125.886 Y128.578 E15.40039
G1 X125.473 Y129.043 E15.42108
G1 X125.109 Y129.409 E15.43824
G1 X124.645 Y129.826 E15.45899
G1 X124.229 Y130.159 E15.47672
G1 X123.718 Y130.521 E15.49755
G1 X123.274 Y130.799 E15.51497
G1 X122.726 Y131.1 E15.53576
G1 X122.268 Y131.319 E15.55265
G1 X121.692 Y131.557 E15.57338
G1 X121.186 Y131.733 E15.5912
G1 X120.588 Y131.902 E15.61187
G1 X120.079 Y132.015 E15.62921
G1 X119.461 Y132.116 E15.65003
G1 X118.948 Y132.17 E15.66719
G1 X118.326 Y132.201 E15.6879
G1 X117.865 Y132.201 E15.70324
G1 X117.389 Y132.177 E15.71909
G1 X116.957 Y132.135 E15.73353
G1 X116.374 Y132.05 E15.75312
G1 X115.876 Y131.949 E15.77002
G1 X115.309 Y131.801 E15.78951
G1 X114.849 Y131.655 E15.80556
G1 X114.297 Y131.447 E15.82518
G1 X113.84 Y131.245 E15.8418
G1 X113.315 Y130.979 E15.86138
G1 X113.101 Y130.864 E15.86946
G1 X105.457 Y126.469 E16.16273
G1 X104.966 Y126.215 E16.18111
G1 X104.534 Y126.037 E16.19665
G1 X104.088 Y125.897 E16.2122
G1 X103.621 Y125.794 E16.22811
G1 X103.162 Y125.733 E16.24351
G1 X102.581 Y125.708 E16.26285
G1 X101.072 Y125.708 E16.31304
G1 X100.467 Y125.668 E16.3332
G1 X99.873 Y125.549 E16.35335
G1 X99.299 Y125.353 E16.37353
G1 X98.777 Y125.095 E16.39289
G1 X94.073 Y122.387 E16.57342
G1 X93.569 Y122.05 E16.59359
G1 X93.113 Y121.65 E16.61376
G1 X92.714 Y121.194 E16.63392
G1 X92.378 Y120.689 E16.65409
G1 X92.112 Y120.144 E16.67426
