;FLAVOR:Marlin
;TIME:2400
;Filament used: 0.983107m
;Layer height: 0.2
;MINX:101.385
;MINY:89.885
;MINZ:0.2
;MAXX:118.615
;MAXY:130.117
;MAXZ:93.4
;Generated with Cura_SteamEngine 4.6.1
M140 S60
M105
M190 S60
M104 S220
M105
M109 S220
M82 ;absolute extrusion mode
; Ender 3 Custom Start G-code
G92 E0 ; Reset Extruder
G28 ; Home all axes
G1 Z2.0 F3000 ; Move Z Axis up little to prevent scratching of Heat Bed
G1 X0.1 Y20 Z0.3 F5000.0 ; Move to start position
G1 X0.1 Y200.0 Z0.3 F1500.0 E15 ; Draw the first line
G1 X0.4 Y200.0 Z0.3 F5000.0 ; Move to side a little
G1 X0.4 Y20 Z0.3 F1500.0 E30 ; Draw the second line
G92 E0 ; Reset Extruder
G1 Z2.0 F3000 ; Move Z Axis up little to prevent scratching of Heat Bed
G1 X5 Y20 Z0.3 F5000.0 ; Move over to prevent blob squish
G92 E0
G92 E0
G1 F1500 E-6
;LAYER_COUNT:473
;LAYER:0
M107
G0 F6000 X105.675 Y91.817 Z0.2
;TYPE:SKIRT
G1 F1500 E0.04158
G1 F1200 X106.164 Y91.343 E0.06423
G1 X106.705 Y90.93 E0.08686
G1 X107.29 Y90.583 E0.10949
G1 X107.968 Y90.286 E0.13411
G1 X108.111 Y90.234 E0.13917
G1 X108.763 Y90.039 E0.1618
G1 X109.434 Y89.923 E0.18445
G1 X110.114 Y89.885 E0.2071
G1 X110.794 Y89.927 E0.22976
G1 X111.463 Y90.049 E0.25238
G1 X112.387 Y90.358 E0.28479
G1 X112.589 Y90.445 E0.2921
G1 X113.198 Y90.751 E0.31477
G1 X113.766 Y91.125 E0.33739
G1 X114.287 Y91.564 E0.36005
G1 X114.752 Y92.061 E0.38269
G1 X115.157 Y92.609 E0.40535
G1 X115.494 Y93.2 E0.42798
G1 X115.837 Y94.063 E0.45886
G1 X115.903 Y94.277 E0.46631
G1 X116.066 Y94.938 E0.48896
G1 X116.126 Y95.346 E0.50267
G1 X116.503 Y98.742 E0.61632
G1 X116.875 Y102.242 E0.73338
G1 X117.242 Y105.847 E0.85391
G1 X117.588 Y109.424 E0.97343
G1 X118.061 Y114.638 E1.14756
G1 X118.606 Y121.191 E1.36627
G1 X118.615 Y121.901 E1.38989
G1 X118.542 Y122.578 E1.41253
G1 X118.39 Y123.242 E1.43519
G1 X118.162 Y123.883 E1.45782
G1 X117.86 Y124.493 E1.48046
G1 X117.488 Y125.064 E1.50312
G1 X117.052 Y125.587 E1.52577
G1 X116.558 Y126.055 E1.5484
G1 X116.013 Y126.463 E1.57105
G1 X115.722 Y126.642 E1.58241
G1 X111.054 Y129.337 E1.76169
G1 X110.445 Y129.642 E1.78434
G1 X109.805 Y129.874 E1.80698
G1 X109.142 Y130.029 E1.82963
G1 X108.172 Y130.114 E1.86201
G1 X107.197 Y130.117 E1.89444
G1 X106.517 Y130.079 E1.9171
G1 X105.846 Y129.962 E1.93975
G1 X105.194 Y129.767 E1.96238
G1 X104.569 Y129.497 E1.98503
G1 X103.98 Y129.155 E2.00768
G1 X103.435 Y128.747 E2.03033
G1 X102.942 Y128.277 E2.05298
G1 X102.507 Y127.754 E2.07561
G1 X102.136 Y127.182 E2.09828
G1 X101.835 Y126.572 E2.12091
G1 X101.608 Y125.93 E2.14355
G1 X101.457 Y125.266 E2.1662
G1 X101.385 Y124.589 E2.18885
G1 X101.397 Y123.864 E2.21296
G1 X101.791 Y118.83 E2.38091
G1 X102.302 Y112.876 E2.57967
G1 X102.852 Y106.995 E2.77612
G1 X103.253 Y103.008 E2.9094
G1 X103.882 Y97.14 E3.10569
G1 X104.091 Y95.266 E3.1684
G1 X104.206 Y94.595 E3.19105
G1 X104.398 Y93.942 E3.21369
G1 X104.785 Y93.091 E3.24478
G1 X104.88 Y92.92 E3.25129
G1 X105.245 Y92.346 E3.27391
G1 X105.675 Y91.817 E3.29658
G0 F6000 X106.001 Y92.054
G1 F1200 X106.477 Y91.602 E3.31842
G1 X107.005 Y91.211 E3.34027
G1 X107.577 Y90.886 E3.36215
G1 X108.105 Y90.662 E3.38123
G1 X108.248 Y90.61 E3.38629
G1 X108.878 Y90.424 E3.40814
G1 X109.525 Y90.315 E3.42996
G1 X110.182 Y90.286 E3.45183
G1 X110.837 Y90.336 E3.47368
G1 X111.481 Y90.466 E3.49553
G1 X112.229 Y90.725 E3.52186
G1 X112.431 Y90.812 E3.52917
G1 X113.018 Y91.109 E3.55105
G1 X113.564 Y91.474 E3.5729
G1 X114.061 Y91.902 E3.59471
G1 X114.503 Y92.388 E3.61656
G1 X114.883 Y92.924 E3.63842
G1 X115.195 Y93.503 E3.66029
G1 X115.455 Y94.181 E3.68444
G1 X115.521 Y94.395 E3.69189
G1 X115.676 Y95.033 E3.71373
G1 X115.728 Y95.39 E3.72573
G1 X116.105 Y98.786 E3.83937
G1 X116.477 Y102.284 E3.95637
G1 X116.844 Y105.887 E4.07683
G1 X117.19 Y109.462 E4.19629
G1 X117.662 Y114.672 E4.37029
G1 X118.207 Y121.218 E4.58876
G1 X118.214 Y121.904 E4.61158
G1 X118.14 Y122.557 E4.63344
G1 X117.987 Y123.196 E4.65529
G1 X117.757 Y123.811 E4.67713
G1 X117.454 Y124.394 E4.69898
G1 X117.083 Y124.936 E4.72083
G1 X116.648 Y125.429 E4.74269
G1 X116.157 Y125.866 E4.76456
G1 X115.522 Y126.296 E4.79006
G1 X110.854 Y128.991 E4.96934
G1 X110.266 Y129.284 E4.99119
G1 X109.647 Y129.504 E5.01304
G1 X109.006 Y129.646 E5.03488
G1 X108.171 Y129.714 E5.06274
G1 X107.196 Y129.717 E5.09517
G1 X106.54 Y129.679 E5.11702
G1 X105.893 Y129.562 E5.13889
G1 X105.266 Y129.367 E5.16073
G1 X104.667 Y129.097 E5.18259
G1 X104.105 Y128.757 E5.20443
G1 X103.589 Y128.351 E5.22627
G1 X103.125 Y127.885 E5.24814
G1 X102.722 Y127.366 E5.27
G1 X102.385 Y126.802 E5.29185
G1 X102.119 Y126.202 E5.31368
G1 X101.927 Y125.573 E5.33555
G1 X101.813 Y124.926 E5.3574
G1 X101.779 Y124.27 E5.37925
G1 X101.795 Y123.896 E5.3917
G1 X102.189 Y118.862 E5.55965
G1 X102.701 Y112.911 E5.75831
G1 X103.25 Y107.032 E5.95469
G1 X103.651 Y103.048 E6.08787
G1 X104.28 Y97.182 E6.28409
G1 X104.488 Y95.31 E6.34674
G1 X104.6 Y94.663 E6.36858
G1 X104.791 Y94.034 E6.39044
G1 X105.135 Y93.286 E6.41783
G1 X105.23 Y93.115 E6.42433
G1 X105.583 Y92.561 E6.44618
G1 X106.001 Y92.054 E6.46804
G0 F6000 X106.326 Y92.292
G1 F1200 X106.79 Y91.862 E6.48908
G1 X107.304 Y91.494 E6.5101
G1 X107.86 Y91.195 E6.5311
G1 X108.241 Y91.038 E6.54481
G1 X108.384 Y90.986 E6.54987
G1 X108.991 Y90.808 E6.57091
G1 X109.615 Y90.708 E6.59193
G1 X110.247 Y90.687 E6.61296
G1 X110.876 Y90.747 E6.63397
G1 X111.493 Y90.885 E6.655
G1 X112.071 Y91.093 E6.67543
G1 X112.273 Y91.18 E6.68275
G1 X112.836 Y91.466 E6.70375
G1 X113.359 Y91.821 E6.72478
G1 X113.833 Y92.239 E6.7458
G1 X114.251 Y92.714 E6.76684
G1 X114.605 Y93.238 E6.78787
G1 X114.89 Y93.802 E6.80889
G1 X115.073 Y94.298 E6.82647
G1 X115.139 Y94.512 E6.83392
G1 X115.33 Y95.434 E6.86524
G1 X115.707 Y98.83 E6.97888
G1 X116.079 Y102.327 E7.09585
G1 X116.446 Y105.928 E7.21624
G1 X116.792 Y109.501 E7.33564
G1 X117.264 Y114.705 E7.50943
G1 X117.808 Y121.246 E7.72774
G1 X117.814 Y121.907 E7.74972
G1 X117.737 Y122.535 E7.77077
G1 X117.583 Y123.148 E7.79179
G1 X117.352 Y123.736 E7.8128
G1 X117.048 Y124.291 E7.83385
G1 X116.678 Y124.803 E7.85486
G1 X116.245 Y125.264 E7.8759
G1 X115.758 Y125.666 E7.8969
G1 X115.322 Y125.949 E7.91419
G1 X110.654 Y128.644 E8.09346
G1 X110.088 Y128.925 E8.11448
G1 X109.49 Y129.132 E8.13553
G1 X108.872 Y129.262 E8.15653
G1 X108.169 Y129.314 E8.17998
G1 X107.194 Y129.317 E8.21241
G1 X106.563 Y129.279 E8.23343
G1 X105.942 Y129.162 E8.25445
G1 X105.341 Y128.967 E8.27547
G1 X104.769 Y128.698 E8.29649
G1 X104.235 Y128.359 E8.31753
G1 X103.749 Y127.955 E8.33855
G1 X103.317 Y127.493 E8.35958
G1 X102.947 Y126.98 E8.38062
G1 X102.645 Y126.425 E8.40164
G1 X102.415 Y125.836 E8.42267
G1 X102.262 Y125.223 E8.44368
G1 X102.187 Y124.595 E8.46472
G1 X102.194 Y123.927 E8.48694
G1 X102.588 Y118.893 E8.65488
G1 X103.099 Y112.945 E8.85344
G1 X103.649 Y107.069 E9.04973
G1 X104.049 Y103.088 E9.18281
G1 X104.677 Y97.225 E9.37893
G1 X104.886 Y95.355 E9.44151
G1 X104.995 Y94.732 E9.46254
G1 X105.182 Y94.128 E9.48357
G1 X105.484 Y93.48 E9.50735
G1 X105.579 Y93.309 E9.51386
G1 X105.921 Y92.777 E9.53489
G1 X106.326 Y92.292 E9.55591
G0 F6000 X106.65 Y92.532
G1 F1200 X107.101 Y92.126 E9.57609
G1 X107.6 Y91.782 E9.59625
G1 X108.378 Y91.414 E9.62488
G1 X108.521 Y91.362 E9.62994
G1 X109.103 Y91.193 E9.65009
G1 X109.703 Y91.102 E9.67028
G1 X110.309 Y91.09 E9.69044
G1 X110.911 Y91.158 E9.71059
G1 X111.499 Y91.305 E9.73075
G1 X111.913 Y91.46 E9.74545
G1 X112.115 Y91.547 E9.75277
G1 X112.654 Y91.823 E9.77291
G1 X113.153 Y92.168 E9.79308
G1 X113.602 Y92.575 E9.81324
G1 X113.994 Y93.038 E9.83342
G1 X114.322 Y93.548 E9.85359
G1 X114.579 Y94.097 E9.87375
G1 X114.691 Y94.416 E9.88499
G1 X114.757 Y94.63 E9.89244
G1 X114.933 Y95.478 E9.92125
G1 X115.31 Y98.874 E10.03489
G1 X115.681 Y102.369 E10.15179
G1 X116.048 Y105.968 E10.27211
G1 X116.394 Y109.539 E10.39144
G1 X116.854 Y114.604 E10.5606
G1 X116.856 Y114.685 E10.56329
G1 X116.865 Y114.738 E10.56508
G1 X117.409 Y121.274 E10.78322
G1 X117.413 Y121.909 E10.80434
G1 X117.335 Y122.51 E10.8245
G1 X117.178 Y123.096 E10.84467
G1 X116.946 Y123.656 E10.86484
G1 X116.643 Y124.181 E10.885
G1 X116.273 Y124.661 E10.90515
G1 X115.843 Y125.088 E10.92531
G1 X115.122 Y125.603 E10.95478
G1 X110.454 Y128.298 E11.13405
G1 X109.91 Y128.566 E11.15423
G1 X109.336 Y128.76 E11.17438
G1 X108.741 Y128.876 E11.19454
G1 X108.168 Y128.914 E11.21364
G1 X107.193 Y128.917 E11.24607
G1 X106.588 Y128.879 E11.26623
G1 X105.993 Y128.762 E11.2864
G1 X105.419 Y128.567 E11.30656
G1 X104.875 Y128.299 E11.32673
G1 X104.372 Y127.961 E11.34689
G1 X103.917 Y127.56 E11.36706
G1 X103.519 Y127.103 E11.38722
G1 X103.184 Y126.597 E11.4074
G1 X102.919 Y126.052 E11.42756
G1 X102.728 Y125.477 E11.44771
G1 X102.614 Y124.881 E11.46789
G1 X102.579 Y124.276 E11.48805
G1 X102.593 Y123.958 E11.49863
G1 X102.987 Y118.924 E11.66658
G1 X103.498 Y112.979 E11.86504
G1 X104.047 Y107.107 E12.06119
G1 X104.447 Y103.129 E12.19417
G1 X105.075 Y97.268 E12.39022
G1 X105.283 Y95.399 E12.45277
G1 X105.39 Y94.802 E12.47294
G1 X105.574 Y94.224 E12.49312
G1 X105.834 Y93.674 E12.51335
G1 X105.929 Y93.503 E12.51986
G1 X106.258 Y92.994 E12.54002
G1 X106.65 Y92.532 E12.56017
G0 F6000 X106.974 Y92.774
G1 F1200 X107.41 Y92.392 E12.57945
G1 X107.894 Y92.075 E12.59869
G1 X108.515 Y91.79 E12.62142
G1 X108.658 Y91.738 E12.62648
G1 X109.214 Y91.578 E12.64572
G1 X109.788 Y91.496 E12.66501
G1 X110.367 Y91.494 E12.68426
G1 X110.941 Y91.572 E12.70353
G1 X111.754 Y91.828 E12.73188
G1 X111.956 Y91.915 E12.73919
G1 X112.471 Y92.18 E12.75846
G1 X112.945 Y92.514 E12.77774
G1 X113.368 Y92.909 E12.79699
G1 X113.733 Y93.359 E12.81627
G1 X114.032 Y93.855 E12.83553
G1 X114.308 Y94.534 E12.85991
G1 X114.374 Y94.748 E12.86735
G1 X114.535 Y95.523 E12.89368
G1 X114.912 Y98.919 E13.00733
G1 X115.283 Y102.411 E13.12412
G1 X115.65 Y106.009 E13.24442
G1 X115.995 Y109.578 E13.36367
G1 X116.467 Y114.771 E13.53711
G1 X117.01 Y121.301 E13.75504
G1 X117.012 Y121.909 E13.77527
G1 X116.932 Y122.483 E13.79454
G1 X116.774 Y123.04 E13.8138
G1 X116.541 Y123.571 E13.83309
G1 X116.237 Y124.064 E13.85235
G1 X115.868 Y124.511 E13.87163
G1 X115.441 Y124.902 E13.89089
G1 X114.922 Y125.256 E13.91178
G1 X110.254 Y127.951 E14.09106
G1 X109.733 Y128.206 E14.11035
G1 X109.183 Y128.386 E14.1296
G1 X108.613 Y128.489 E14.14886
G1 X108.167 Y128.514 E14.16372
G1 X107.192 Y128.517 E14.19615
G1 X106.614 Y128.479 E14.21541
G1 X106.047 Y128.361 E14.23468
G1 X105.501 Y128.167 E14.25395
G1 X104.987 Y127.9 E14.27321
G1 X104.515 Y127.564 E14.29248
G1 X104.093 Y127.166 E14.31178
G1 X103.731 Y126.715 E14.33101
G1 X103.434 Y126.217 E14.3503
G1 X103.208 Y125.684 E14.36955
G1 X103.057 Y125.125 E14.38881
G1 X102.985 Y124.55 E14.40809
G1 X102.992 Y123.989 E14.42675
G1 X103.386 Y118.955 E14.59469
G1 X103.896 Y113.013 E14.79305
G1 X104.445 Y107.144 E14.9891
G1 X104.845 Y103.169 E15.12198
G1 X105.473 Y97.31 E15.31797
G1 X105.681 Y95.443 E15.38045
G1 X105.784 Y94.873 E15.39971
G1 X105.966 Y94.323 E15.41898
G1 X106.184 Y93.868 E15.43576
G1 X106.279 Y93.697 E15.44227
G1 X106.594 Y93.212 E15.4615
G1 X106.974 Y92.774 E15.48079
G0 F6000 X107.295 Y93.018
G1 F1200 X107.716 Y92.663 E15.49911
G1 X108.184 Y92.372 E15.51744
G1 X108.651 Y92.166 E15.53441
G1 X108.794 Y92.114 E15.53947
G1 X109.324 Y91.964 E15.55779
G1 X109.871 Y91.892 E15.57614
G1 X110.422 Y91.899 E15.59447
G1 X110.966 Y91.987 E15.6128
G1 X111.596 Y92.195 E15.63487
G1 X111.798 Y92.282 E15.64218
G1 X112.287 Y92.536 E15.66051
G1 X112.734 Y92.858 E15.67883
G1 X113.13 Y93.241 E15.69716
G1 X113.466 Y93.678 E15.71549
G1 X113.736 Y94.159 E15.73384
G1 X113.926 Y94.652 E15.75141
G1 X113.992 Y94.866 E15.75886
G1 X114.138 Y95.567 E15.78267
G1 X114.515 Y98.963 E15.89632
G1 X114.886 Y102.454 E16.01308
G1 X115.252 Y106.05 E16.13331
G1 X115.597 Y109.616 E16.25247
G1 X116.057 Y114.676 E16.42146
G1 X116.058 Y114.751 E16.42395
G1 X116.068 Y114.805 E16.42578
G1 X116.611 Y121.329 E16.64352
G1 X116.611 Y121.909 E16.66281
G1 X116.529 Y122.453 E16.6811
G1 X116.37 Y122.981 E16.69945
G1 X116.135 Y123.48 E16.71779
G1 X115.831 Y123.939 E16.7361
G1 X115.464 Y124.35 E16.75443
G1 X115.042 Y124.703 E16.77273
G1 X114.722 Y124.91 E16.7854
G1 X110.054 Y127.605 E16.96468
G1 X109.558 Y127.845 E16.98301
G1 X109.033 Y128.011 E17.00132
G1 X108.489 Y128.099 E17.01965
G1 X108.166 Y128.114 E17.0304
G1 X107.191 Y128.117 E17.06283
G1 X106.641 Y128.079 E17.08117
G1 X106.103 Y127.961 E17.09949
G1 X105.587 Y127.767 E17.11782
G1 X105.105 Y127.501 E17.13613
G1 X104.666 Y127.167 E17.15448
G1 X104.28 Y126.774 E17.1728
G1 X103.955 Y126.329 E17.19113
G1 X103.698 Y125.842 E17.20944
G1 X103.514 Y125.322 E17.22779
G1 X103.408 Y124.782 E17.24609
G1 X103.391 Y124.02 E17.27144
G1 X103.785 Y118.986 E17.43939
G1 X104.295 Y113.048 E17.63761
G1 X104.844 Y107.181 E17.8336
G1 X105.243 Y103.209 E17.96638
G1 X105.871 Y97.353 E18.16226
G1 X106.078 Y95.487 E18.22471
G1 X106.179 Y94.946 E18.24301
G1 X106.357 Y94.424 E18.26136
G1 X106.533 Y94.063 E18.27472
G1 X106.628 Y93.892 E18.28122
G1 X106.93 Y93.431 E18.29955
G1 X107.295 Y93.018 E18.31788
G0 F6000 X107.615 Y93.265
G1 F1200 X108.021 Y92.937 E18.33524
G1 X108.471 Y92.675 E18.35256
G1 X108.788 Y92.542 E18.364
G1 X108.931 Y92.49 E18.36906
G1 X109.433 Y92.35 E18.38639
G1 X109.951 Y92.288 E18.40374
G1 X110.471 Y92.306 E18.42105
G1 X110.983 Y92.404 E18.43839
G1 X111.438 Y92.562 E18.45441
G1 X111.64 Y92.649 E18.46172
G1 X112.101 Y92.892 E18.47905
G1 X112.52 Y93.201 E18.49637
G1 X112.887 Y93.572 E18.51373
G1 X113.193 Y93.994 E18.53106
G1 X113.431 Y94.458 E18.54841
G1 X113.544 Y94.77 E18.55945
G1 X113.61 Y94.984 E18.56689
G1 X113.74 Y95.611 E18.58819
G1 X114.117 Y99.007 E18.70184
G1 X114.488 Y102.496 E18.81854
G1 X114.854 Y106.09 E18.93869
G1 X115.199 Y109.655 E19.05782
G1 X115.669 Y114.838 E19.23091
G1 X116.214 Y121.385 E19.44942
G1 X116.21 Y121.906 E19.46675
G1 X116.126 Y122.421 E19.4841
G1 X115.965 Y122.916 E19.50142
G1 X115.73 Y123.381 E19.51874
G1 X115.426 Y123.805 E19.5361
G1 X115.062 Y124.177 E19.55341
G1 X114.522 Y124.564 E19.5755
G1 X109.854 Y127.259 E19.75478
G1 X109.384 Y127.484 E19.77211
G1 X108.885 Y127.634 E19.78944
G1 X108.164 Y127.714 E19.81357
G1 X107.189 Y127.717 E19.846
G1 X106.67 Y127.679 E19.86331
G1 X106.162 Y127.561 E19.88065
G1 X105.678 Y127.368 E19.89798
G1 X105.229 Y127.103 E19.91532
G1 X104.827 Y126.772 E19.93264
G1 X104.479 Y126.384 E19.94998
G1 X104.195 Y125.947 E19.96731
G1 X103.981 Y125.471 E19.98467
G1 X103.842 Y124.969 E20.002
G1 X103.782 Y124.451 E20.01934
G1 X103.789 Y124.052 E20.03261
G1 X104.183 Y119.018 E20.20056
G1 X104.693 Y113.082 E20.39872
G1 X105.242 Y107.218 E20.59461
G1 X105.641 Y103.249 E20.72728
G1 X106.268 Y97.396 E20.92307
G1 X106.476 Y95.532 E20.98545
G1 X106.573 Y95.02 E21.00278
G1 X106.747 Y94.529 E21.02011
G1 X106.883 Y94.257 E21.03022
G1 X106.978 Y94.086 E21.03673
G1 X107.265 Y93.651 E21.05406
G1 X107.615 Y93.265 E21.07139
G0 F6000 X107.599 Y93.873
G1 F1200 X107.934 Y93.516 E21.08767
G1 X108.322 Y93.217 E21.10397
G1 X108.925 Y92.918 E21.12635
G1 X109.068 Y92.866 E21.13141
G1 X109.54 Y92.736 E21.1477
G1 X110.027 Y92.686 E21.16398
G1 X110.515 Y92.715 E21.18024
G1 X110.993 Y92.823 E21.19654
G1 X111.28 Y92.93 E21.20673
G1 X111.482 Y93.017 E21.21404
G1 X111.914 Y93.246 E21.2303
G1 X112.303 Y93.543 E21.24658
G1 X112.639 Y93.899 E21.26286
G1 X112.912 Y94.306 E21.27916
G1 X113.162 Y94.888 E21.30023
G1 X113.228 Y95.102 E21.30768
G1 X113.343 Y95.655 E21.32647
G1 X113.72 Y99.051 E21.44011
G1 X114.09 Y102.538 E21.55674
G1 X114.457 Y106.131 E21.67687
G1 X114.801 Y109.693 E21.79589
G1 X115.261 Y114.748 E21.96471
G1 X115.262 Y114.818 E21.96704
G1 X115.271 Y114.871 E21.96883
