;FLAVOR:Marlin
;TIME:2950
;Filament used: 1.33719m
;Layer height: 0.2
;MINX:96.259
;MINY:88.079
;MINZ:0.2
;MAXX:124.011
;MAXY:131.773
;MAXZ:105
;Generated with Cura_SteamEngine 4.6.1
M140 S60
M105
M190 S60
M104 S220
M105
M109 S220
M82 ;absolute extrusion mode
; Ender 3 Custom Start G-code
G92 E0 ; Reset Extruder
G28 ; Home all axes
G1 Z2.0 F3000 ; Move Z Axis up little to prevent scratching of Heat Bed
G1 X0.1 Y20 Z0.3 F5000.0 ; Move to start position
G1 X0.1 Y200.0 Z0.3 F1500.0 E15 ; Draw the first line
G1 X0.4 Y200.0 Z0.3 F5000.0 ; Move to side a little
G1 X0.4 Y20 Z0.3 F1500.0 E30 ; Draw the second line
G92 E0 ; Reset Extruder
G1 Z2.0 F3000 ; Move Z Axis up little to prevent scratching of Heat Bed
G1 X5 Y20 Z0.3 F5000.0 ; Move over to prevent blob squish
G92 E0
G92 E0
G1 F1500 E-6
;LAYER_COUNT:525
;LAYER:0
M107
G0 F6000 X111.021 Y90.038 Z0.2
;TYPE:SKIRT
G1 F1500 E0.04158
G1 F1200 X111.507 Y89.561 E0.06422
G1 X112.045 Y89.144 E0.08686
G1 X112.629 Y88.794 E0.10951
G1 X113.303 Y88.494 E0.13405
G1 X113.446 Y88.441 E0.13912
G1 X114.098 Y88.242 E0.16179
G1 X114.768 Y88.121 E0.18444
G1 X115.447 Y88.079 E0.20706
G1 X116.127 Y88.117 E0.22972
G1 X116.887 Y88.257 E0.25542
G1 X117.029 Y88.293 E0.26029
G1 X117.678 Y88.499 E0.28294
G1 X118.299 Y88.779 E0.3056
G1 X118.882 Y89.13 E0.32823
G1 X119.42 Y89.547 E0.35087
G1 X120.016 Y90.15 E0.37907
G1 X120.115 Y90.266 E0.38414
G1 X120.526 Y90.809 E0.40679
G1 X120.87 Y91.396 E0.42942
G1 X121.143 Y92.02 E0.45207
G1 X121.341 Y92.671 E0.47471
G1 X121.463 Y93.348 E0.49759
G1 X121.634 Y94.793 E0.54598
G1 X122.302 Y100.983 E0.75306
G1 X122.806 Y105.991 E0.92047
G1 X123.448 Y112.907 E1.15148
G1 X123.994 Y119.393 E1.36797
G1 X124.011 Y120.074 E1.39063
G1 X123.948 Y120.752 E1.41327
G1 X123.806 Y121.418 E1.43592
G1 X123.588 Y122.063 E1.45857
G1 X123.295 Y122.678 E1.48123
G1 X122.932 Y123.254 E1.50387
G1 X122.504 Y123.783 E1.5265
G1 X122.017 Y124.259 E1.54915
G1 X121.478 Y124.675 E1.5718
G1 X121.115 Y124.902 E1.58604
G1 X116.434 Y127.606 E1.76584
G1 X115.826 Y127.912 E1.78848
G1 X115.185 Y128.144 E1.81115
G1 X114.523 Y128.299 E1.83376
G1 X113.561 Y128.384 E1.86588
G1 X112.031 Y128.391 E1.91677
G1 X111.522 Y128.413 E1.93372
G1 X111.16 Y128.461 E1.94586
G1 X110.806 Y128.539 E1.95792
G1 X110.454 Y128.649 E1.97019
G1 X110.124 Y128.786 E1.98207
G1 X109.676 Y129.018 E1.99885
G1 X106.207 Y131.01 E2.1319
G1 X105.597 Y131.314 E2.15457
G1 X104.957 Y131.545 E2.1772
G1 X104.293 Y131.698 E2.19986
G1 X103.617 Y131.773 E2.22248
G1 X102.936 Y131.768 E2.24513
G1 X102.26 Y131.684 E2.26779
G1 X101.599 Y131.52 E2.29044
G1 X100.962 Y131.281 E2.31307
G1 X100.357 Y130.968 E2.33573
G1 X99.793 Y130.587 E2.35837
G1 X99.277 Y130.142 E2.38103
G1 X98.818 Y129.64 E2.40365
G1 X98.42 Y129.087 E2.42631
G1 X98.09 Y128.492 E2.44894
G1 X97.831 Y127.862 E2.4716
G1 X97.676 Y127.324 E2.49022
G1 X97.3 Y125.732 E2.54463
G1 X97.022 Y124.363 E2.59109
G1 X96.978 Y124.118 E2.59937
G1 X96.687 Y122.272 E2.66153
G1 X96.571 Y121.393 E2.69101
G1 X96.522 Y120.714 E2.71366
G1 X96.552 Y120.034 E2.7363
G1 X96.662 Y119.362 E2.75894
G1 X96.775 Y118.97 E2.77251
G1 X96.75 Y118.922 E2.77431
G1 X96.513 Y118.284 E2.79695
G1 X96.352 Y117.623 E2.81958
G1 X96.27 Y116.947 E2.84223
G1 X96.259 Y116.579 E2.85447
G1 X96.266 Y114.903 E2.91022
G1 X96.338 Y113.23 E2.96591
G1 X96.354 Y112.986 E2.97404
G1 X96.515 Y111.143 E3.03558
G1 X96.544 Y110.903 E3.04362
G1 X96.665 Y110.233 E3.06626
G1 X96.864 Y109.582 E3.0889
G1 X97.138 Y108.959 E3.11154
G1 X97.483 Y108.372 E3.13419
G1 X97.894 Y107.829 E3.15684
G1 X98.366 Y107.339 E3.17946
G1 X99.062 Y106.789 E3.20897
G1 X100.415 Y105.879 E3.2632
G1 X100.892 Y105.571 E3.28209
G1 X102.269 Y104.707 E3.33616
G1 X102.75 Y104.417 E3.35484
G1 X104.155 Y103.59 E3.40906
G1 X104.598 Y103.341 E3.42596
G1 X106.064 Y102.534 E3.48162
G1 X106.564 Y102.271 E3.50041
G1 X108.053 Y101.509 E3.55604
G1 X108.62 Y101.238 E3.57695
G1 X109.006 Y97.572 E3.69955
G1 X109.471 Y93.406 E3.83897
G1 X109.586 Y92.735 E3.86162
G1 X109.779 Y92.082 E3.88427
G1 X110.047 Y91.457 E3.90688
G1 X110.51 Y90.686 E3.9368
G1 X110.594 Y90.568 E3.94161
G1 X111.021 Y90.038 E3.96425
G0 F6000 X111.333 Y90.289
G1 F1200 X111.804 Y89.832 E3.98608
G1 X112.328 Y89.436 E4.00792
G1 X112.896 Y89.106 E4.02977
G1 X113.442 Y88.869 E4.04957
G1 X113.585 Y88.816 E4.05464
G1 X114.214 Y88.625 E4.0765
G1 X114.861 Y88.513 E4.09834
G1 X115.517 Y88.479 E4.12019
G1 X116.173 Y88.526 E4.14207
G1 X116.789 Y88.645 E4.16293
G1 X116.931 Y88.681 E4.16781
G1 X117.557 Y88.88 E4.18965
G1 X118.154 Y89.155 E4.21152
G1 X118.713 Y89.5 E4.23336
G1 X119.226 Y89.91 E4.25521
G1 X119.711 Y90.409 E4.27835
G1 X119.81 Y90.525 E4.28342
G1 X120.206 Y91.05 E4.30529
G1 X120.534 Y91.619 E4.32714
G1 X120.792 Y92.224 E4.34901
G1 X120.973 Y92.855 E4.37085
G1 X121.065 Y93.396 E4.3891
G1 X121.236 Y94.836 E4.43733
G1 X121.904 Y101.026 E4.64441
G1 X122.408 Y106.031 E4.81172
G1 X123.049 Y112.941 E5.04253
G1 X123.595 Y119.427 E5.25902
G1 X123.61 Y120.084 E5.28088
G1 X123.545 Y120.738 E5.30274
G1 X123.402 Y121.379 E5.32458
G1 X123.181 Y121.998 E5.34644
G1 X122.888 Y122.585 E5.36826
G1 X122.525 Y123.133 E5.39012
G1 X122.098 Y123.632 E5.41197
G1 X121.613 Y124.076 E5.43384
G1 X120.915 Y124.556 E5.46201
G1 X116.234 Y127.26 E5.64181
G1 X115.646 Y127.553 E5.66366
G1 X115.027 Y127.773 E5.68551
G1 X114.386 Y127.916 E5.70736
G1 X113.559 Y127.984 E5.73495
G1 X112.012 Y127.992 E5.78641
G1 X111.486 Y128.014 E5.80392
G1 X111.103 Y128.065 E5.81677
G1 X110.691 Y128.156 E5.8308
G1 X110.318 Y128.272 E5.8438
G1 X109.961 Y128.42 E5.85665
G1 X109.489 Y128.664 E5.87432
G1 X106.007 Y130.664 E6.00788
G1 X105.419 Y130.956 E6.02971
G1 X104.799 Y131.174 E6.05157
G1 X104.158 Y131.315 E6.0734
G1 X103.504 Y131.378 E6.09526
G1 X102.847 Y131.36 E6.11712
G1 X102.197 Y131.263 E6.13897
G1 X101.564 Y131.088 E6.16082
G1 X100.957 Y130.837 E6.18266
G1 X100.385 Y130.515 E6.2045
G1 X99.856 Y130.125 E6.22636
G1 X99.378 Y129.674 E6.24821
G1 X98.959 Y129.168 E6.27006
G1 X98.604 Y128.615 E6.29192
G1 X98.319 Y128.023 E6.31377
G1 X98.065 Y127.232 E6.34141
G1 X97.692 Y125.653 E6.39537
G1 X97.414 Y124.284 E6.44183
G1 X97.373 Y124.055 E6.44957
G1 X97.083 Y122.22 E6.51136
G1 X96.967 Y121.341 E6.54085
G1 X96.921 Y120.685 E6.56272
G1 X96.955 Y120.029 E6.58457
G1 X97.068 Y119.382 E6.60641
G1 X97.203 Y118.939 E6.62182
G1 X96.971 Y118.397 E6.64143
G1 X96.789 Y117.766 E6.66327
G1 X96.685 Y117.117 E6.68513
G1 X96.659 Y116.579 E6.70304
G1 X96.666 Y114.92 E6.75822
G1 X96.738 Y113.247 E6.81392
G1 X96.753 Y113.02 E6.82149
G1 X96.912 Y111.191 E6.88255
G1 X96.941 Y110.951 E6.89059
G1 X97.059 Y110.305 E6.91243
G1 X97.255 Y109.678 E6.93428
G1 X97.526 Y109.079 E6.95615
G1 X97.867 Y108.518 E6.97798
G1 X98.274 Y108.002 E6.99984
G1 X98.741 Y107.54 E7.02169
G1 X99.285 Y107.12 E7.04455
G1 X100.631 Y106.215 E7.09849
G1 X101.106 Y105.91 E7.11727
G1 X102.475 Y105.049 E7.17106
G1 X102.954 Y104.761 E7.18965
G1 X104.351 Y103.939 E7.24356
G1 X104.794 Y103.69 E7.26046
G1 X106.25 Y102.888 E7.31575
G1 X106.747 Y102.627 E7.33442
G1 X108.226 Y101.87 E7.38968
G1 X108.994 Y101.502 E7.41801
G1 X109.404 Y97.613 E7.54807
G1 X109.868 Y93.451 E7.68736
G1 X109.981 Y92.804 E7.7092
G1 X110.171 Y92.175 E7.73106
G1 X110.436 Y91.574 E7.7529
G1 X110.836 Y90.918 E7.77846
G1 X110.92 Y90.8 E7.78328
G1 X111.333 Y90.289 E7.80513
G0 F6000 X111.644 Y90.542
G1 F1200 X112.101 Y90.105 E7.82616
G1 X112.61 Y89.73 E7.84719
G1 X113.162 Y89.421 E7.86823
G1 X113.581 Y89.244 E7.88336
G1 X113.724 Y89.191 E7.88843
G1 X114.33 Y89.009 E7.90947
G1 X114.953 Y88.905 E7.93048
G1 X115.585 Y88.881 E7.95152
G1 X116.215 Y88.936 E7.97255
G1 X116.691 Y89.032 E7.9887
G1 X116.833 Y89.068 E7.99357
G1 X117.434 Y89.262 E8.01458
G1 X118.007 Y89.53 E8.03562
G1 X118.541 Y89.868 E8.05664
G1 X119.028 Y90.271 E8.07766
G1 X119.407 Y90.669 E8.09594
G1 X119.506 Y90.785 E8.10101
G1 X119.885 Y91.291 E8.12204
G1 X120.198 Y91.841 E8.14309
G1 X120.438 Y92.425 E8.16409
G1 X120.603 Y93.035 E8.18511
G1 X120.668 Y93.443 E8.19885
G1 X120.838 Y94.879 E8.24694
G1 X121.506 Y101.069 E8.45402
G1 X122.01 Y106.071 E8.62123
G1 X122.65 Y112.975 E8.85184
G1 X123.196 Y119.461 E9.06833
G1 X123.209 Y120.093 E9.08935
G1 X123.143 Y120.721 E9.11036
G1 X122.997 Y121.336 E9.13138
G1 X122.775 Y121.928 E9.15241
G1 X122.48 Y122.487 E9.17343
G1 X122.117 Y123.005 E9.19447
G1 X121.692 Y123.472 E9.21547
G1 X121.211 Y123.882 E9.23649
G1 X120.715 Y124.21 E9.25627
G1 X116.034 Y126.914 E9.43607
G1 X115.468 Y127.195 E9.45709
G1 X114.871 Y127.402 E9.4781
G1 X114.252 Y127.532 E9.49914
G1 X113.557 Y127.584 E9.52232
G1 X111.992 Y127.592 E9.57437
G1 X111.462 Y127.614 E9.59202
G1 X111.023 Y127.672 E9.60674
G1 X110.601 Y127.765 E9.62112
G1 X110.179 Y127.898 E9.63583
G1 X109.788 Y128.059 E9.6499
G1 X109.294 Y128.315 E9.6684
G1 X105.808 Y130.317 E9.80211
G1 X105.241 Y130.596 E9.82313
G1 X104.644 Y130.802 E9.84413
G1 X104.025 Y130.931 E9.86516
G1 X103.394 Y130.98 E9.88621
G1 X102.763 Y130.95 E9.90722
G1 X102.14 Y130.84 E9.92826
G1 X101.537 Y130.653 E9.94926
G1 X100.962 Y130.391 E9.97028
G1 X100.424 Y130.058 E9.99132
G1 X99.933 Y129.661 E10.01232
G1 X99.495 Y129.204 E10.03338
G1 X99.119 Y128.696 E10.0544
G1 X98.81 Y128.144 E10.07544
G1 X98.573 Y127.558 E10.09646
G1 X98.454 Y127.139 E10.11095
G1 X98.084 Y125.573 E10.16447
G1 X97.768 Y123.992 E10.21809
G1 X97.48 Y122.167 E10.27954
G1 X97.364 Y121.288 E10.30903
G1 X97.321 Y120.657 E10.33007
G1 X97.358 Y120.026 E10.35109
G1 X97.474 Y119.405 E10.3721
G1 X97.636 Y118.902 E10.38968
G1 X97.429 Y118.474 E10.40549
G1 X97.228 Y117.875 E10.42651
G1 X97.104 Y117.255 E10.44754
G1 X97.059 Y116.58 E10.47004
G1 X97.066 Y114.937 E10.52469
G1 X97.151 Y113.054 E10.58738
G1 X97.309 Y111.239 E10.64797
G1 X97.338 Y110.999 E10.65601
G1 X97.453 Y110.378 E10.67702
G1 X97.646 Y109.776 E10.69805
G1 X97.914 Y109.203 E10.71909
G1 X98.251 Y108.668 E10.74012
G1 X98.653 Y108.181 E10.76112
G1 X99.114 Y107.747 E10.78218
G1 X99.509 Y107.452 E10.79857
G1 X100.848 Y106.551 E10.85225
G1 X101.319 Y106.248 E10.87088
G1 X102.681 Y105.392 E10.92439
G1 X103.116 Y105.13 E10.94128
G1 X104.547 Y104.287 E10.99652
G1 X104.99 Y104.038 E11.01342
G1 X106.436 Y103.242 E11.06832
G1 X106.887 Y103.005 E11.08526
G1 X108.399 Y102.231 E11.14176
G1 X109.368 Y101.767 E11.17749
G1 X109.801 Y97.655 E11.31501
G1 X110.266 Y93.495 E11.45424
G1 X110.376 Y92.873 E11.47525
G1 X110.563 Y92.269 E11.49628
G1 X110.825 Y91.694 E11.51729
G1 X111.162 Y91.15 E11.53858
G1 X111.246 Y91.032 E11.54339
G1 X111.644 Y90.542 E11.56439
G0 F6000 X111.955 Y90.795
G1 F1200 X112.397 Y90.379 E11.58458
G1 X112.889 Y90.026 E11.60472
G1 X113.424 Y89.74 E11.6249
G1 X113.72 Y89.619 E11.63553
G1 X113.863 Y89.566 E11.6406
G1 X114.445 Y89.393 E11.6608
G1 X115.043 Y89.298 E11.68094
G1 X115.649 Y89.283 E11.7011
G1 X116.252 Y89.347 E11.72127
G1 X116.734 Y89.456 E11.7377
G1 X117.311 Y89.643 E11.75788
G1 X117.858 Y89.905 E11.77805
G1 X118.366 Y90.236 E11.79822
G1 X118.826 Y90.632 E11.8184
G1 X119.103 Y90.929 E11.83191
G1 X119.202 Y91.045 E11.83698
G1 X119.564 Y91.531 E11.85714
G1 X119.86 Y92.06 E11.8773
G1 X120.083 Y92.624 E11.89747
G1 X120.271 Y93.49 E11.92695
G1 X120.435 Y94.874 E11.9733
G1 X121.108 Y101.111 E12.18195
G1 X121.612 Y106.111 E12.34909
G1 X122.252 Y113.008 E12.57947
G1 X122.798 Y119.494 E12.79596
G1 X122.809 Y120.1 E12.81612
G1 X122.74 Y120.703 E12.83631
G1 X122.592 Y121.291 E12.85647
G1 X122.369 Y121.854 E12.87662
G1 X122.073 Y122.384 E12.89681
G1 X121.71 Y122.869 E12.91695
G1 X121.287 Y123.303 E12.93711
G1 X120.81 Y123.678 E12.95729
G1 X120.515 Y123.863 E12.96887
G1 X115.834 Y126.567 E13.14867
G1 X115.29 Y126.835 E13.16884
G1 X114.716 Y127.029 E13.189
G1 X114.121 Y127.146 E13.20917
G1 X113.555 Y127.184 E13.22803
G1 X112 Y127.192 E13.27975
G1 X111.414 Y127.217 E13.29926
G1 X110.964 Y127.276 E13.31436
G1 X110.493 Y127.38 E13.3304
G1 X110.039 Y127.522 E13.34622
G1 X109.616 Y127.697 E13.36145
G1 X109.116 Y127.956 E13.38017
G1 X105.609 Y129.97 E13.51468
G1 X105.064 Y130.237 E13.53487
G1 X104.49 Y130.429 E13.555
G1 X103.894 Y130.545 E13.5752
G1 X103.289 Y130.581 E13.59535
G1 X102.684 Y130.537 E13.61553
G1 X102.091 Y130.414 E13.63567
G1 X101.518 Y130.214 E13.65586
G1 X100.977 Y129.941 E13.67601
G1 X100.477 Y129.599 E13.69616
G1 X100.026 Y129.194 E13.71632
G1 X99.632 Y128.733 E13.73649
G1 X99.302 Y128.224 E13.75667
G1 X99.042 Y127.676 E13.77684
G1 X98.843 Y127.046 E13.79882
G1 X98.476 Y125.493 E13.85189
G1 X98.163 Y123.93 E13.90491
G1 X97.877 Y122.115 E13.96602
G1 X97.761 Y121.236 E13.99551
G1 X97.721 Y120.631 E14.01568
G1 X97.761 Y120.026 E14.03584
G1 X97.881 Y119.431 E14.05603
G1 X98.075 Y118.868 E14.07584
G1 X97.883 Y118.516 E14.08917
G1 X97.666 Y117.95 E14.10933
G1 X97.525 Y117.361 E14.12948
G1 X97.459 Y116.581 E14.15551
G1 X97.465 Y114.954 E14.20963
G1 X97.55 Y113.088 E14.27176
G1 X97.706 Y111.287 E14.33188
G1 X97.735 Y111.047 E14.33992
G1 X97.847 Y110.451 E14.36009
G1 X98.037 Y109.875 E14.38027
G1 X98.301 Y109.33 E14.40041
G1 X98.634 Y108.823 E14.42058
G1 X99.031 Y108.365 E14.44074
G1 X99.485 Y107.963 E14.46091
G1 X99.732 Y107.784 E14.47106
G1 X101.064 Y106.888 E14.52445
G1 X101.491 Y106.613 E14.54134
G1 X102.888 Y105.735 E14.59622
G1 X103.323 Y105.473 E14.61311
G1 X104.743 Y104.636 E14.66793
G1 X105.186 Y104.387 E14.68484
G1 X106.622 Y103.596 E14.73936
G1 X107.073 Y103.359 E14.75631
G1 X108.571 Y102.592 E14.81228
G1 X109.743 Y102.031 E14.8555
G1 X110.199 Y97.697 E15.00045
G1 X110.663 Y93.54 E15.13957
G1 X110.77 Y92.943 E15.15974
G1 X110.955 Y92.365 E15.17993
G1 X111.213 Y91.817 E15.20007
G1 X111.488 Y91.382 E15.21719
G1 X111.572 Y91.264 E15.22201
G1 X111.955 Y90.795 E15.24214
G0 F6000 X112.265 Y91.049
G1 F1200 X112.691 Y90.656 E15.26142
G1 X113.167 Y90.325 E15.28071
G1 X113.859 Y89.994 E15.30622
G1 X114.002 Y89.941 E15.31129
G1 X114.558 Y89.777 E15.33057
G1 X115.131 Y89.692 E15.34984
G1 X115.71 Y89.686 E15.3691
G1 X116.494 Y89.808 E15.39549
G1 X116.636 Y89.844 E15.40036
G1 X117.187 Y90.025 E15.41965
G1 X117.707 Y90.279 E15.4389
G1 X118.187 Y90.603 E15.45816
G1 X118.799 Y91.188 E15.48632
G1 X118.898 Y91.304 E15.49139
G1 X119.242 Y91.77 E15.51065
G1 X119.52 Y92.279 E15.52994
G1 X119.725 Y92.82 E15.54919
G1 X119.874 Y93.537 E15.57354
G1 X120.038 Y94.921 E15.6199
G1 X120.711 Y101.154 E15.82841
G1 X121.214 Y106.151 E15.99545
G1 X121.853 Y113.042 E16.22563
G1 X122.399 Y119.528 E16.44212
G1 X122.408 Y120.107 E16.46138
G1 X122.337 Y120.682 E16.48065
G1 X122.187 Y121.242 E16.49993
G1 X121.962 Y121.775 E16.51918
G1 X121.666 Y122.273 E16.53844
G1 X121.303 Y122.725 E16.55773
G1 X120.883 Y123.123 E16.57697
G1 X120.315 Y123.517 E16.59996
G1 X115.634 Y126.221 E16.77976
G1 X115.113 Y126.475 E16.79904
G1 X114.563 Y126.656 E16.8183
G1 X113.993 Y126.759 E16.83756
G1 X113.553 Y126.784 E16.85222
G1 X111.981 Y126.792 E16.90451
G1 X111.39 Y126.817 E16.92418
G1 X110.884 Y126.884 E16.94116
G1 X110.389 Y126.993 E16.95802
G1 X109.913 Y127.142 E16.97461
G1 X109.443 Y127.336 E16.99152
G1 X108.922 Y127.606 E17.01103
G1 X105.41 Y129.623 E17.14574
G1 X104.889 Y129.876 E17.165
G1 X104.338 Y130.055 E17.18427
G1 X103.767 Y130.157 E17.20356
G1 X103.189 Y130.179 E17.2228
G1 X102.612 Y130.121 E17.24209
G1 X102.049 Y129.985 E17.26135
G1 X101.51 Y129.772 E17.28063
G1 X101.006 Y129.487 E17.29989
G1 X100.545 Y129.136 E17.31916
G1 X100.138 Y128.724 E17.33842
G1 X99.79 Y128.26 E17.35771
G1 X99.51 Y127.753 E17.37697
G1 X99.232 Y126.954 E17.40511
G1 X98.868 Y125.414 E17.45774
G1 X98.558 Y123.867 E17.51022
G1 X98.273 Y122.063 E17.57097
G1 X98.157 Y121.184 E17.60046
G1 X98.121 Y120.605 E17.61975
G1 X98.165 Y120.028 E17.639
G1 X98.288 Y119.462 E17.65826
