;FLAVOR:Marlin
;TIME:1775
;Filament used: 0.460744m
;Layer height: 0.13
;MINX:93.242
;MINY:90.807
;MINZ:0.2
;MAXX:130.764
;MAXY:127.195
;MAXZ:8
;Generated with Cura_SteamEngine 4.6.1
M140 S60
M105
M190 S60
M104 S205
M105
M109 S205
M82 ;absolute extrusion mode
; Ender 3 Custom Start G-code
G92 E0 ; Reset Extruder
G28 ; Home all axes
G1 Z2.0 F3000 ; Move Z Axis up little to prevent scratching of Heat Bed
G1 X0.1 Y20 Z0.3 F5000.0 ; Move to start position
G1 X0.1 Y200.0 Z0.3 F1500.0 E15 ; Draw the first line
G1 X0.4 Y200.0 Z0.3 F5000.0 ; Move to side a little
G1 X0.4 Y20 Z0.3 F1500.0 E30 ; Draw the second line
G92 E0 ; Reset Extruder
G1 Z2.0 F3000 ; Move Z Axis up little to prevent scratching of Heat Bed
G1 X5 Y20 Z0.3 F5000.0 ; Move over to prevent blob squish
G92 E0
G92 E0
G1 F1500 E-6
;LAYER_COUNT:61
;LAYER:0
M107
G0 F6000 X100.418 Y92.009 Z0.2
;TYPE:SKIRT
G1 F1500 E0
G1 F1200 X100.833 Y91.647 E0.01832
G1 X101.295 Y91.35 E0.03658
G1 X101.438 Y91.272 E0.042
G1 X101.94 Y91.044 E0.06034
G1 X102.469 Y90.891 E0.07866
G1 X103.258 Y90.808 E0.10504
G1 X116.158 Y90.807 E0.5341
G1 X116.972 Y90.895 E0.56133
G1 X117.25 Y90.956 E0.5708
G1 X117.779 Y91.113 E0.58915
G1 X118.279 Y91.345 E0.60748
G1 X118.562 Y91.518 E0.61851
G1 X118.842 Y91.707 E0.62975
G1 X119.275 Y92.048 E0.64808
G1 X119.654 Y92.448 E0.66641
G1 X119.883 Y92.757 E0.6792
G1 X120.072 Y93.042 E0.69058
G1 X120.342 Y93.522 E0.70889
G1 X120.54 Y94.036 E0.72721
G1 X120.64 Y94.44 E0.74106
G1 X120.702 Y94.77 E0.75222
G1 X120.764 Y95.318 E0.77057
G1 X120.746 Y95.869 E0.7889
G1 X120.69 Y96.235 E0.80122
G1 X120.076 Y99.231 E0.90294
G1 X120.01 Y99.501 E0.91218
G1 X119.871 Y99.993 E0.92918
G1 X119.688 Y100.501 E0.94714
G1 X119.48 Y100.97 E0.96421
G1 X119.234 Y101.434 E0.98168
G1 X118.96 Y101.875 E0.99894
G1 X118.649 Y102.305 E1.01659
G1 X118.321 Y102.698 E1.03362
G1 X117.955 Y103.08 E1.05122
G1 X117.871 Y103.156 E1.05498
G1 X118.279 Y103.345 E1.06994
G1 X118.562 Y103.518 E1.08097
G1 X118.842 Y103.707 E1.09221
G1 X119.275 Y104.048 E1.11054
G1 X119.654 Y104.448 E1.12887
G1 X119.883 Y104.757 E1.14166
G1 X120.072 Y105.042 E1.15303
G1 X120.342 Y105.522 E1.17135
G1 X120.54 Y106.036 E1.18967
G1 X120.64 Y106.44 E1.20351
G1 X120.702 Y106.77 E1.21468
G1 X120.764 Y107.318 E1.23302
G1 X120.746 Y107.869 E1.25136
G1 X120.69 Y108.235 E1.26367
G1 X120.076 Y111.231 E1.36539
G1 X120.01 Y111.501 E1.37464
G1 X119.871 Y111.993 E1.39164
G1 X119.688 Y112.501 E1.4096
G1 X119.552 Y112.808 E1.42077
G1 X126.158 Y112.807 E1.64048
G1 X126.972 Y112.895 E1.66772
G1 X127.25 Y112.956 E1.67718
G1 X127.779 Y113.113 E1.69554
G1 X128.279 Y113.345 E1.71387
G1 X128.562 Y113.518 E1.7249
G1 X128.842 Y113.707 E1.73614
G1 X129.275 Y114.048 E1.75447
G1 X129.654 Y114.448 E1.7728
G1 X129.883 Y114.757 E1.78559
G1 X130.072 Y115.042 E1.79696
G1 X130.342 Y115.522 E1.81528
G1 X130.54 Y116.036 E1.8336
G1 X130.64 Y116.44 E1.84744
G1 X130.702 Y116.77 E1.85861
G1 X130.764 Y117.318 E1.87695
G1 X130.746 Y117.869 E1.89529
G1 X130.69 Y118.235 E1.9076
G1 X130.076 Y121.231 E2.00932
G1 X130.01 Y121.501 E2.01857
G1 X129.871 Y121.993 E2.03557
G1 X129.688 Y122.501 E2.05353
G1 X129.48 Y122.97 E2.07059
G1 X129.234 Y123.434 E2.08806
G1 X128.96 Y123.875 E2.10533
G1 X128.649 Y124.305 E2.12298
G1 X128.321 Y124.698 E2.14001
G1 X127.955 Y125.08 E2.1576
G1 X127.574 Y125.425 E2.1747
G1 X127.158 Y125.752 E2.1923
G1 X126.731 Y126.042 E2.20946
G1 X126.278 Y126.306 E2.2269
G1 X125.816 Y126.534 E2.24404
G1 X125.316 Y126.738 E2.262
G1 X124.83 Y126.897 E2.27901
G1 X124.331 Y127.023 E2.29612
G1 X123.822 Y127.116 E2.31333
G1 X123.287 Y127.175 E2.33124
G1 X122.775 Y127.195 E2.34828
G1 X122.252 Y127.179 E2.36568
G1 X121.738 Y127.128 E2.38286
G1 X121.2 Y127.036 E2.40102
G1 X120.703 Y126.913 E2.41804
G1 X120.214 Y126.756 E2.43513
G1 X119.733 Y126.565 E2.45234
G1 X119.237 Y126.325 E2.47067
G1 X118.58 Y125.846 E2.49771
G1 X118.406 Y125.688 E2.50553
G1 X118.026 Y125.289 E2.52385
G1 X117.708 Y124.839 E2.54218
G1 X117.458 Y124.348 E2.56051
G1 X117.295 Y123.873 E2.57721
G1 X117.234 Y123.649 E2.58493
G1 X117.128 Y123.109 E2.60323
G1 X117.101 Y122.558 E2.62158
G1 X117.155 Y122.006 E2.64003
G1 X117.197 Y121.762 E2.64826
G1 X117.305 Y121.327 E2.66317
G1 X114.053 Y121.327 E2.77133
G1 X114.01 Y121.501 E2.77729
G1 X113.871 Y121.993 E2.7943
G1 X113.688 Y122.501 E2.81226
G1 X113.48 Y122.97 E2.82932
G1 X113.234 Y123.434 E2.84679
G1 X112.96 Y123.875 E2.86406
G1 X112.649 Y124.305 E2.88171
G1 X112.321 Y124.698 E2.89873
G1 X111.955 Y125.08 E2.91633
G1 X111.574 Y125.425 E2.93343
G1 X111.158 Y125.752 E2.95102
G1 X110.731 Y126.042 E2.96819
G1 X110.278 Y126.306 E2.98563
G1 X109.816 Y126.534 E3.00277
G1 X109.316 Y126.738 E3.02073
G1 X108.83 Y126.897 E3.03773
G1 X108.331 Y127.023 E3.05485
G1 X107.822 Y127.116 E3.07206
G1 X107.287 Y127.175 E3.08996
G1 X106.775 Y127.195 E3.10701
G1 X106.252 Y127.179 E3.12441
G1 X105.738 Y127.128 E3.14159
G1 X105.2 Y127.036 E3.15974
G1 X104.703 Y126.913 E3.17677
G1 X104.214 Y126.756 E3.19385
G1 X103.733 Y126.565 E3.21107
G1 X103.237 Y126.325 E3.22939
G1 X102.58 Y125.846 E3.25644
G1 X102.406 Y125.688 E3.26425
G1 X102.026 Y125.289 E3.28258
G1 X101.708 Y124.839 E3.30091
G1 X101.458 Y124.348 E3.31923
G1 X101.295 Y123.873 E3.33594
G1 X101.234 Y123.649 E3.34366
G1 X101.128 Y123.109 E3.36196
G1 X101.101 Y122.558 E3.38031
G1 X101.155 Y122.006 E3.39876
G1 X101.197 Y121.762 E3.40699
G1 X101.305 Y121.327 E3.4219
G1 X97.373 Y121.327 E3.55268
G1 X96.823 Y121.287 E3.57102
G1 X96.258 Y121.16 E3.59028
G1 X96.069 Y121.102 E3.59686
G1 X95.556 Y120.902 E3.61517
G1 X95.076 Y120.631 E3.6335
G1 X94.641 Y120.293 E3.65182
G1 X94.243 Y119.875 E3.67102
G1 X94.117 Y119.721 E3.67764
G1 X93.8 Y119.271 E3.69595
G1 X93.551 Y118.779 E3.71429
G1 X93.376 Y118.256 E3.73263
G1 X93.261 Y117.463 E3.75928
G1 X93.242 Y116.976 E3.77549
G1 X93.26 Y116.425 E3.79383
G1 X93.358 Y115.883 E3.81215
G1 X93.534 Y115.361 E3.83047
G1 X93.689 Y115.035 E3.84248
G1 X93.765 Y114.893 E3.84783
G1 X94.059 Y114.427 E3.86616
G1 X94.418 Y114.009 E3.88448
G1 X94.833 Y113.647 E3.9028
G1 X95.295 Y113.35 E3.92107
G1 X95.438 Y113.272 E3.92649
G1 X95.94 Y113.044 E3.94482
G1 X96.469 Y112.891 E3.96314
G1 X97.258 Y112.808 E3.98953
G1 X107.113 Y112.807 E4.31731
G1 X107.101 Y112.558 E4.3256
G1 X107.155 Y112.006 E4.34404
G1 X107.197 Y111.762 E4.35228
G1 X107.305 Y111.327 E4.36719
G1 X103.373 Y111.327 E4.49797
G1 X102.823 Y111.287 E4.51631
G1 X102.258 Y111.16 E4.53557
G1 X102.069 Y111.102 E4.54214
G1 X101.556 Y110.902 E4.56046
G1 X101.076 Y110.631 E4.57879
G1 X100.641 Y110.293 E4.59711
G1 X100.243 Y109.875 E4.61631
G1 X100.117 Y109.721 E4.62293
G1 X99.8 Y109.271 E4.64123
G1 X99.551 Y108.779 E4.65958
G1 X99.376 Y108.256 E4.67792
G1 X99.261 Y107.463 E4.70457
G1 X99.242 Y106.976 E4.72078
G1 X99.26 Y106.425 E4.73912
G1 X99.358 Y105.883 E4.75743
G1 X99.534 Y105.361 E4.77576
G1 X99.689 Y105.035 E4.78776
G1 X99.765 Y104.893 E4.79312
G1 X100.059 Y104.427 E4.81145
G1 X100.418 Y104.009 E4.82977
G1 X100.833 Y103.647 E4.84809
G1 X101.295 Y103.35 E4.86636
G1 X101.438 Y103.272 E4.87177
G1 X101.94 Y103.044 E4.89011
G1 X102.469 Y102.891 E4.90843
G1 X103.258 Y102.808 E4.93481
G1 X107.692 Y102.808 E5.08229
G1 X107.458 Y102.348 E5.09946
G1 X107.295 Y101.873 E5.11616
G1 X107.234 Y101.649 E5.12388
G1 X107.128 Y101.109 E5.14218
G1 X107.101 Y100.558 E5.16053
G1 X107.155 Y100.006 E5.17898
G1 X107.197 Y99.762 E5.18721
G1 X107.305 Y99.327 E5.20212
G1 X103.373 Y99.327 E5.3329
G1 X102.823 Y99.287 E5.35124
G1 X102.258 Y99.16 E5.3705
G1 X102.069 Y99.102 E5.37708
G1 X101.556 Y98.902 E5.39539
G1 X101.076 Y98.631 E5.41372
G1 X100.641 Y98.293 E5.43205
G1 X100.243 Y97.875 E5.45124
G1 X100.117 Y97.721 E5.45786
G1 X99.8 Y97.271 E5.47617
G1 X99.551 Y96.779 E5.49451
G1 X99.376 Y96.256 E5.51285
G1 X99.261 Y95.463 E5.5395
G1 X99.242 Y94.976 E5.55571
G1 X99.26 Y94.425 E5.57405
G1 X99.358 Y93.883 E5.59237
G1 X99.534 Y93.361 E5.61069
G1 X99.689 Y93.035 E5.6227
G1 X99.765 Y92.893 E5.62805
G1 X100.059 Y92.427 E5.64638
G1 X100.418 Y92.009 E5.66471
G0 F6000 X100.742 Y92.251
G1 F1200 X101.142 Y91.917 E5.68204
G1 X101.487 Y91.701 E5.69558
G1 X101.63 Y91.623 E5.70099
G1 X102.105 Y91.409 E5.71832
G1 X102.608 Y91.271 E5.73567
G1 X103.258 Y91.208 E5.75739
G1 X116.158 Y91.207 E6.18645
G1 X116.887 Y91.286 E6.21084
G1 X117.165 Y91.347 E6.2203
G1 X117.664 Y91.497 E6.23763
G1 X118.338 Y91.85 E6.26294
G1 X118.618 Y92.039 E6.27417
G1 X119.027 Y92.363 E6.29153
G1 X119.381 Y92.745 E6.30885
G1 X119.55 Y92.978 E6.31842
G1 X119.739 Y93.263 E6.3298
G1 X119.992 Y93.718 E6.34711
G1 X120.174 Y94.207 E6.36447
G1 X120.247 Y94.514 E6.37496
G1 X120.309 Y94.844 E6.38613
G1 X120.365 Y95.362 E6.40346
G1 X120.342 Y95.883 E6.42081
G1 X120.298 Y96.155 E6.42997
G1 X119.684 Y99.151 E6.53169
G1 X119.625 Y99.392 E6.53994
G1 X119.486 Y99.884 E6.55695
G1 X119.322 Y100.338 E6.573
G1 X119.114 Y100.807 E6.59007
G1 X118.894 Y101.223 E6.60572
G1 X118.62 Y101.664 E6.62299
G1 X118.342 Y102.049 E6.63878
G1 X118.014 Y102.442 E6.65581
G1 X117.686 Y102.783 E6.67154
G1 X117.305 Y103.128 E6.68864
G1 X117.057 Y103.323 E6.69913
G1 X117.165 Y103.347 E6.70281
G1 X117.664 Y103.497 E6.72014
G1 X118.338 Y103.85 E6.74545
G1 X118.618 Y104.039 E6.75668
G1 X119.027 Y104.363 E6.77404
G1 X119.381 Y104.745 E6.79136
G1 X119.55 Y104.978 E6.80093
G1 X119.739 Y105.263 E6.81231
G1 X119.992 Y105.718 E6.82962
G1 X120.174 Y106.207 E6.84698
G1 X120.247 Y106.514 E6.85747
G1 X120.309 Y106.844 E6.86864
G1 X120.365 Y107.362 E6.88597
G1 X120.342 Y107.883 E6.90331
G1 X120.298 Y108.155 E6.91248
G1 X119.684 Y111.151 E7.0142
G1 X119.625 Y111.392 E7.02245
G1 X119.486 Y111.884 E7.03945
G1 X119.322 Y112.338 E7.05551
G1 X119.114 Y112.807 E7.07257
G1 X118.902 Y113.208 E7.08766
G1 X126.158 Y113.207 E7.329
G1 X126.887 Y113.286 E7.35338
G1 X127.165 Y113.347 E7.36285
G1 X127.664 Y113.497 E7.38018
G1 X128.338 Y113.85 E7.40549
G1 X128.618 Y114.039 E7.41672
G1 X129.027 Y114.363 E7.43408
G1 X129.381 Y114.745 E7.4514
G1 X129.55 Y114.978 E7.46097
G1 X129.739 Y115.263 E7.47235
G1 X129.992 Y115.718 E7.48966
G1 X130.174 Y116.207 E7.50702
G1 X130.247 Y116.514 E7.51751
G1 X130.309 Y116.844 E7.52868
G1 X130.365 Y117.362 E7.54601
G1 X130.342 Y117.883 E7.56335
G1 X130.298 Y118.155 E7.57252
G1 X129.684 Y121.151 E7.67424
G1 X129.625 Y121.392 E7.68249
G1 X129.486 Y121.884 E7.69949
G1 X129.322 Y122.338 E7.71555
G1 X129.114 Y122.807 E7.73261
G1 X128.894 Y123.223 E7.74827
G1 X128.62 Y123.664 E7.76553
G1 X128.342 Y124.049 E7.78133
G1 X128.014 Y124.442 E7.79835
G1 X127.686 Y124.783 E7.81409
G1 X127.305 Y125.128 E7.83119
G1 X126.933 Y125.421 E7.84694
G1 X126.506 Y125.711 E7.8641
G1 X126.101 Y125.947 E7.87969
G1 X125.639 Y126.175 E7.89683
G1 X125.191 Y126.357 E7.91291
G1 X124.705 Y126.516 E7.92992
G1 X124.259 Y126.63 E7.94523
G1 X123.75 Y126.723 E7.96244
G1 X123.272 Y126.775 E7.97843
G1 X122.76 Y126.795 E7.99548
G1 X122.291 Y126.781 E8.01108
G1 X121.777 Y126.73 E8.02826
G1 X121.296 Y126.647 E8.0445
G1 X120.799 Y126.524 E8.06152
G1 X120.361 Y126.384 E8.07682
G1 X119.88 Y126.193 E8.09403
G1 X119.412 Y125.964 E8.11136
G1 X118.849 Y125.55 E8.1346
G1 X118.675 Y125.392 E8.14242
G1 X118.318 Y125.013 E8.15974
G1 X118.022 Y124.584 E8.17707
G1 X117.795 Y124.115 E8.1944
G1 X117.68 Y123.768 E8.20656
G1 X117.619 Y123.544 E8.21428
G1 X117.521 Y123.033 E8.23159
G1 X117.503 Y122.512 E8.24893
G1 X117.549 Y122.074 E8.26358
G1 X117.591 Y121.83 E8.27181
G1 X117.719 Y121.325 E8.28914
G1 X117.903 Y120.927 E8.30372
G1 X113.73 Y120.927 E8.44252
G1 X113.684 Y121.151 E8.45012
G1 X113.625 Y121.392 E8.45838
G1 X113.486 Y121.884 E8.47538
G1 X113.322 Y122.338 E8.49144
G1 X113.114 Y122.807 E8.5085
G1 X112.894 Y123.223 E8.52415
G1 X112.62 Y123.664 E8.54142
G1 X112.342 Y124.049 E8.55721
G1 X112.014 Y124.442 E8.57424
G1 X111.686 Y124.783 E8.58998
G1 X111.305 Y125.128 E8.60707
G1 X110.933 Y125.421 E8.62282
G1 X110.506 Y125.711 E8.63999
G1 X110.101 Y125.947 E8.65558
G1 X109.639 Y126.175 E8.67272
G1 X109.191 Y126.357 E8.6888
G1 X108.705 Y126.516 E8.70581
G1 X108.259 Y126.63 E8.72112
G1 X107.75 Y126.723 E8.73833
G1 X107.272 Y126.775 E8.75432
G1 X106.76 Y126.795 E8.77136
G1 X106.291 Y126.781 E8.78697
G1 X105.777 Y126.73 E8.80415
G1 X105.296 Y126.647 E8.82038
G1 X104.799 Y126.524 E8.83741
G1 X104.361 Y126.384 E8.8527
G1 X103.88 Y126.193 E8.86992
G1 X103.412 Y125.964 E8.88725
G1 X102.849 Y125.55 E8.91049
G1 X102.675 Y125.392 E8.91831
G1 X102.318 Y125.013 E8.93562
G1 X102.022 Y124.584 E8.95296
G1 X101.795 Y124.115 E8.97029
G1 X101.68 Y123.768 E8.98245
G1 X101.619 Y123.544 E8.99017
G1 X101.521 Y123.033 E9.00748
G1 X101.503 Y122.512 E9.02481
G1 X101.549 Y122.074 E9.03946
G1 X101.591 Y121.83 E9.0477
G1 X101.719 Y121.325 E9.06503
G1 X101.903 Y120.927 E9.07961
G1 X97.373 Y120.927 E9.23028
G1 X96.853 Y120.887 E9.24762
G1 X96.376 Y120.777 E9.26391
G1 X96.187 Y120.719 E9.27048
G1 X95.701 Y120.529 E9.28784
G1 X95.251 Y120.266 E9.30517
G1 X94.846 Y119.938 E9.32251
G1 X94.553 Y119.622 E9.33684
G1 X94.427 Y119.468 E9.34346
G1 X94.128 Y119.041 E9.3608
G1 X93.899 Y118.573 E9.37812
G1 X93.744 Y118.075 E9.39547
G1 X93.661 Y117.448 E9.41651
G1 X93.642 Y116.961 E9.43272
G1 X93.661 Y116.44 E9.45006
G1 X93.76 Y115.928 E9.4674
G1 X94.041 Y115.224 E9.49261
G1 X94.117 Y115.082 E9.49797
G1 X94.398 Y114.642 E9.51533
G1 X94.742 Y114.251 E9.53266
G1 X95.142 Y113.917 E9.54999
G1 X95.487 Y113.701 E9.56353
G1 X95.63 Y113.623 E9.56894
G1 X96.105 Y113.409 E9.58627
G1 X96.608 Y113.271 E9.60362
G1 X97.258 Y113.208 E9.62534
G1 X107.554 Y113.207 E9.96779
G1 X107.521 Y113.033 E9.97368
G1 X107.503 Y112.512 E9.99102
G1 X107.549 Y112.074 E10.00566
G1 X107.591 Y111.83 E10.0139
G1 X107.719 Y111.325 E10.03123
G1 X107.903 Y110.927 E10.04581
G1 X103.373 Y110.927 E10.19648
G1 X102.853 Y110.887 E10.21383
G1 X102.376 Y110.777 E10.23011
G1 X102.187 Y110.719 E10.23668
G1 X101.701 Y110.529 E10.25404
G1 X101.251 Y110.266 E10.27137
G1 X100.846 Y109.938 E10.28871
G1 X100.553 Y109.622 E10.30304
G1 X100.427 Y109.468 E10.30966
G1 X100.128 Y109.041 E10.327
G1 X99.899 Y108.573 E10.34433
G1 X99.744 Y108.075 E10.36167
G1 X99.661 Y107.448 E10.38271
G1 X99.642 Y106.961 E10.39892
G1 X99.661 Y106.44 E10.41626
G1 X99.76 Y105.928 E10.4336
G1 X100.041 Y105.224 E10.45882
G1 X100.117 Y105.082 E10.46417
G1 X100.398 Y104.642 E10.48154
G1 X100.742 Y104.251 E10.49886
G1 X101.142 Y103.917 E10.51619
G1 X101.487 Y103.701 E10.52973
G1 X101.63 Y103.623 E10.53515
G1 X102.105 Y103.409 E10.55247
G1 X102.608 Y103.271 E10.56982
G1 X103.258 Y103.208 E10.59154
G1 X108.501 Y103.208 E10.76593
G1 X108.318 Y103.013 E10.77482
G1 X108.022 Y102.584 E10.79215
G1 X107.795 Y102.115 E10.80949
G1 X107.68 Y101.768 E10.82164
G1 X107.619 Y101.544 E10.82937
G1 X107.521 Y101.033 E10.84667
G1 X107.503 Y100.512 E10.86401
G1 X107.549 Y100.074 E10.87866
G1 X107.591 Y99.83 E10.88689
G1 X107.719 Y99.325 E10.90422
G1 X107.903 Y98.927 E10.9188
G1 X103.373 Y98.927 E11.06947
G1 X102.853 Y98.887 E11.08682
G1 X102.376 Y98.777 E11.1031
G1 X102.187 Y98.719 E11.10968
G1 X101.701 Y98.529 E11.12703
G1 X101.251 Y98.266 E11.14437
G1 X100.846 Y97.938 E11.1617
G1 X100.553 Y97.622 E11.17603
G1 X100.427 Y97.468 E11.18265
G1 X100.128 Y97.041 E11.19999
G1 X99.899 Y96.573 E11.21732
G1 X99.744 Y96.075 E11.23467
G1 X99.661 Y95.448 E11.2557
G1 X99.642 Y94.961 E11.27191
G1 X99.661 Y94.44 E11.28925
G1 X99.76 Y93.928 E11.3066
G1 X100.041 Y93.224 E11.33181
G1 X100.117 Y93.082 E11.33717
G1 X100.398 Y92.642 E11.35453
G1 X100.742 Y92.251 E11.37185
G0 F6000 X101.064 Y92.496
G1 F1200 X101.448 Y92.192 E11.38814
G1 X101.678 Y92.052 E11.3971
G1 X101.821 Y91.974 E11.40251
G1 X102.269 Y91.776 E11.4188
G1 X102.743 Y91.653 E11.43509
