;FLAVOR:Marlin
;TIME:4010
;Filament used: 2.48056m
;Layer height: 0.2
;MINX:86.777
;MINY:81.18
;MINZ:0.2
;MAXX:127.873
;MAXY:138.835
;MAXZ:129.8
;Generated with Cura_SteamEngine 4.6.1
M140 S60
M105
M190 S60
M104 S220
M105
M109 S220
M82 ;absolute extrusion mode
; Ender 3 Custom Start G-code
G92 E0 ; Reset Extruder
G28 ; Home all axes
G1 Z2.0 F3000 ; Move Z Axis up little to prevent scratching of Heat Bed
G1 X0.1 Y20 Z0.3 F5000.0 ; Move to start position
G1 X0.1 Y200.0 Z0.3 F1500.0 E15 ; Draw the first line
G1 X0.4 Y200.0 Z0.3 F5000.0 ; Move to side a little
G1 X0.4 Y20 Z0.3 F1500.0 E30 ; Draw the second line
G92 E0 ; Reset Extruder
G1 Z2.0 F3000 ; Move Z Axis up little to prevent scratching of Heat Bed
G1 X5 Y20 Z0.3 F5000.0 ; Move over to prevent blob squish
G92 E0
G92 E0
G1 F1500 E-6
;LAYER_COUNT:649
;LAYER:0
M107
G0 F6000 X108.336 Y83.319 Z0.2
;TYPE:SKIRT
G1 F1500 E0.04158
G1 F1200 X108.805 Y82.826 E0.06421
G1 X109.328 Y82.393 E0.08679
G1 X109.445 Y82.307 E0.09162
G1 X110.016 Y81.936 E0.11427
G1 X110.627 Y81.635 E0.13692
G1 X111.269 Y81.408 E0.15957
G1 X111.933 Y81.258 E0.18221
G1 X112.594 Y81.187 E0.20432
G1 X112.736 Y81.18 E0.20905
G1 X113.417 Y81.186 E0.2317
G1 X114.093 Y81.273 E0.25437
G1 X114.753 Y81.437 E0.27699
G1 X115.39 Y81.678 E0.29964
G1 X115.93 Y81.954 E0.31981
G1 X116.056 Y82.027 E0.32466
G1 X116.624 Y82.403 E0.34731
G1 X117.144 Y82.842 E0.36995
G1 X117.609 Y83.339 E0.39259
G1 X118.013 Y83.888 E0.41526
G1 X118.261 Y84.307 E0.43145
G1 X118.321 Y84.419 E0.43568
G1 X118.606 Y85.037 E0.45831
G1 X118.848 Y85.805 E0.48509
G1 X119.161 Y87.11 E0.52973
G1 X119.825 Y89.791 E0.62159
G1 X120.837 Y93.839 E0.76037
G1 X121.338 Y95.908 E0.83118
G1 X121.825 Y97.971 E0.90168
G1 X122.299 Y100.049 E0.97257
G1 X122.759 Y102.116 E1.043
G1 X123.359 Y104.866 E1.13662
G1 X124.525 Y110.317 E1.32202
G1 X125.386 Y114.422 E1.46152
G1 X126.229 Y118.535 E1.60117
G1 X127.048 Y122.653 E1.74081
G1 X127.775 Y126.448 E1.86933
G1 X127.864 Y127.123 E1.89198
G1 X127.873 Y127.804 E1.91463
G1 X127.802 Y128.481 E1.93727
G1 X127.652 Y129.145 E1.95991
G1 X127.426 Y129.787 E1.98255
G1 X127.126 Y130.399 E2.00522
G1 X126.756 Y130.97 E2.02785
G1 X126.322 Y131.495 E2.0505
G1 X125.829 Y131.965 E2.07316
G1 X125.285 Y132.374 E2.09579
G1 X124.696 Y132.716 E2.11845
G1 X124.071 Y132.987 E2.1411
G1 X123.419 Y133.183 E2.16375
G1 X122.749 Y133.301 E2.18638
G1 X122.079 Y133.34 E2.2087
G1 X121.57 Y133.34 E2.22563
G1 X120.89 Y133.3 E2.24828
G1 X120.22 Y133.181 E2.27092
G1 X119.568 Y132.984 E2.29357
G1 X118.944 Y132.712 E2.31621
G1 X118.415 Y132.407 E2.33652
G1 X112.238 Y128.398 E2.58145
G1 X106.641 Y134.907 E2.86697
G1 X106.415 Y135.154 E2.8781
G1 X105.966 Y135.619 E2.8996
G1 X105.452 Y136.091 E2.92281
G1 X104.95 Y136.499 E2.94433
G1 X104.409 Y136.889 E2.96651
G1 X103.866 Y137.235 E2.98792
G1 X103.282 Y137.562 E3.01019
G1 X102.699 Y137.845 E3.03174
G1 X102.043 Y138.115 E3.05533
G1 X101.435 Y138.323 E3.07671
G1 X100.802 Y138.5 E3.09857
G1 X100.169 Y138.639 E3.12012
G1 X99.483 Y138.747 E3.14322
G1 X98.841 Y138.809 E3.16467
G1 X98.166 Y138.835 E3.18714
G1 X97.522 Y138.822 E3.20857
G1 X96.85 Y138.769 E3.23099
G1 X96.209 Y138.681 E3.25251
G1 X95.53 Y138.546 E3.27553
G1 X94.907 Y138.383 E3.29695
G1 X94.261 Y138.173 E3.31954
G1 X93.658 Y137.937 E3.34108
G1 X93.039 Y137.652 E3.36374
G1 X92.47 Y137.348 E3.3852
G1 X91.899 Y136.999 E3.40746
G1 X91.371 Y136.633 E3.42883
G1 X90.832 Y136.21 E3.45162
G1 X90.346 Y135.78 E3.4732
G1 X89.857 Y135.292 E3.49618
G1 X89.428 Y134.81 E3.51764
G1 X89.014 Y134.289 E3.53977
G1 X88.643 Y133.761 E3.56123
G1 X88.277 Y133.166 E3.58447
G1 X87.972 Y132.597 E3.60594
G1 X87.69 Y131.988 E3.62826
G1 X87.453 Y131.388 E3.64972
G1 X87.241 Y130.744 E3.67227
G1 X87.076 Y130.122 E3.69367
G1 X86.94 Y129.454 E3.71635
G1 X86.849 Y128.816 E3.73778
G1 X86.793 Y128.141 E3.76031
G1 X86.777 Y127.495 E3.7818
G1 X86.8 Y126.812 E3.80453
G1 X86.86 Y126.169 E3.82601
G1 X86.964 Y125.49 E3.84886
G1 X87.1 Y124.857 E3.87039
G1 X87.202 Y124.453 E3.88425
G1 X87.988 Y121.766 E3.97737
G1 X88.848 Y119.103 E4.07044
G1 X89.777 Y116.484 E4.16287
G1 X89.939 Y116.06 E4.17796
G1 X90.792 Y113.858 E4.25651
G1 X91.868 Y111.287 E4.3492
G1 X92.054 Y110.873 E4.3643
G1 X93.028 Y108.727 E4.44268
G1 X94.253 Y106.212 E4.53573
G1 X95.547 Y103.734 E4.62871
G1 X96.914 Y101.287 E4.72193
G1 X98.346 Y98.887 E4.81489
G1 X99.845 Y96.526 E4.9079
G1 X101.413 Y94.203 E5.00112
G1 X103.044 Y91.932 E5.09412
G1 X104.736 Y89.706 E5.18711
G1 X106.492 Y87.527 E5.28019
G1 X106.915 Y87.031 E5.30187
G1 X106.919 Y86.935 E5.30507
G1 X106.99 Y86.258 E5.32771
G1 X107.141 Y85.594 E5.35036
G1 X107.315 Y85.078 E5.36847
G1 X107.585 Y84.453 E5.39112
G1 X107.927 Y83.864 E5.41377
G1 X108.336 Y83.319 E5.43643
G0 F6000 X108.686 Y83.525
G1 F1200 X109.146 Y83.056 E5.45828
G1 X109.565 Y82.715 E5.47625
G1 X109.682 Y82.629 E5.48108
G1 X110.234 Y82.273 E5.50293
G1 X110.825 Y81.986 E5.52478
G1 X111.447 Y81.774 E5.54663
G1 X112.089 Y81.638 E5.56846
G1 X112.614 Y81.587 E5.586
G1 X112.756 Y81.58 E5.59073
G1 X113.413 Y81.587 E5.61259
G1 X114.064 Y81.675 E5.63444
G1 X114.7 Y81.84 E5.65629
G1 X115.311 Y82.082 E5.67815
G1 X115.729 Y82.301 E5.69384
G1 X115.855 Y82.374 E5.69869
G1 X116.402 Y82.737 E5.72052
G1 X116.902 Y83.164 E5.74239
G1 X117.345 Y83.648 E5.76421
G1 X117.727 Y84.183 E5.78608
G1 X117.968 Y84.608 E5.80233
G1 X118.242 Y85.205 E5.82418
G1 X118.459 Y85.898 E5.84833
G1 X118.773 Y87.206 E5.89307
G1 X119.437 Y89.888 E5.98497
G1 X120.449 Y93.936 E6.12375
G1 X120.949 Y96.002 E6.19445
G1 X121.436 Y98.063 E6.26488
G1 X121.909 Y100.138 E6.33567
G1 X122.368 Y102.203 E6.40603
G1 X122.968 Y104.951 E6.49958
G1 X124.134 Y110.401 E6.68495
G1 X124.995 Y114.504 E6.82439
G1 X125.837 Y118.615 E6.96396
G1 X126.655 Y122.731 E7.10353
G1 X127.382 Y126.523 E7.23195
G1 X127.467 Y127.175 E7.25382
G1 X127.471 Y127.832 E7.27567
G1 X127.396 Y128.484 E7.2975
G1 X127.242 Y129.123 E7.31936
G1 X127.011 Y129.738 E7.34121
G1 X126.708 Y130.321 E7.36307
G1 X126.336 Y130.863 E7.38493
G1 X125.901 Y131.355 E7.40678
G1 X125.409 Y131.791 E7.42864
G1 X124.868 Y132.164 E7.4505
G1 X124.286 Y132.468 E7.47234
G1 X123.672 Y132.7 E7.49417
G1 X123.033 Y132.855 E7.51604
G1 X122.079 Y132.94 E7.54789
G1 X121.57 Y132.94 E7.56482
G1 X120.914 Y132.9 E7.58668
G1 X120.268 Y132.781 E7.60853
G1 X119.641 Y132.584 E7.63039
G1 X119.043 Y132.312 E7.65224
G1 X118.632 Y132.071 E7.66808
G1 X112.162 Y127.872 E7.92462
G1 X106.337 Y134.646 E8.22177
G1 X106.128 Y134.876 E8.23211
G1 X105.679 Y135.341 E8.25361
G1 X105.2 Y135.781 E8.27524
G1 X104.698 Y136.189 E8.29676
G1 X104.194 Y136.552 E8.31741
G1 X103.651 Y136.898 E8.33883
G1 X103.107 Y137.202 E8.35956
G1 X102.524 Y137.485 E8.38111
G1 X101.914 Y137.736 E8.40305
G1 X101.306 Y137.944 E8.42442
G1 X100.716 Y138.109 E8.4448
G1 X100.083 Y138.248 E8.46636
G1 X99.444 Y138.349 E8.48787
G1 X98.802 Y138.411 E8.50932
G1 X98.174 Y138.435 E8.53023
G1 X97.53 Y138.422 E8.55165
G1 X96.905 Y138.373 E8.5725
G1 X96.264 Y138.285 E8.59402
G1 X95.631 Y138.159 E8.61549
G1 X95.008 Y137.996 E8.63691
G1 X94.407 Y137.801 E8.65792
G1 X93.804 Y137.565 E8.67946
G1 X93.227 Y137.299 E8.70059
G1 X92.658 Y136.995 E8.72205
G1 X92.127 Y136.67 E8.74276
G1 X91.599 Y136.304 E8.76412
G1 X91.097 Y135.91 E8.78535
G1 X90.611 Y135.48 E8.80693
G1 X90.155 Y135.026 E8.82833
G1 X89.726 Y134.544 E8.84979
G1 X89.342 Y134.059 E8.87037
G1 X88.971 Y133.531 E8.89183
G1 X88.63 Y132.977 E8.91347
G1 X88.325 Y132.408 E8.93494
G1 X88.062 Y131.841 E8.95573
G1 X87.825 Y131.241 E8.97719
G1 X87.628 Y130.642 E8.99816
G1 X87.463 Y130.02 E9.01956
G1 X87.336 Y129.398 E9.04068
G1 X87.245 Y128.76 E9.06211
G1 X87.193 Y128.131 E9.0831
G1 X87.177 Y127.485 E9.1046
G1 X87.198 Y126.849 E9.12576
G1 X87.258 Y126.206 E9.14724
G1 X87.355 Y125.574 E9.16851
G1 X87.491 Y124.941 E9.19004
G1 X87.586 Y124.565 E9.20294
G1 X88.368 Y121.889 E9.29567
G1 X89.225 Y119.237 E9.38836
G1 X90.151 Y116.627 E9.48048
G1 X90.313 Y116.203 E9.49557
G1 X91.161 Y114.013 E9.57368
G1 X92.233 Y111.451 E9.66605
G1 X92.419 Y111.037 E9.68115
G1 X93.387 Y108.902 E9.75912
G1 X94.607 Y106.397 E9.85179
G1 X95.897 Y103.928 E9.94444
G1 X97.258 Y101.492 E10.03725
G1 X98.684 Y99.101 E10.12985
G1 X100.177 Y96.749 E10.2225
G1 X101.738 Y94.436 E10.31531
G1 X103.362 Y92.173 E10.40796
G1 X105.048 Y89.957 E10.50057
G1 X106.797 Y87.786 E10.59329
G1 X107.308 Y87.186 E10.61951
G1 X107.319 Y86.954 E10.62723
G1 X107.389 Y86.3 E10.64911
G1 X107.64 Y85.352 E10.68173
G1 X107.69 Y85.215 E10.68658
G1 X107.953 Y84.612 E10.70846
G1 X108.286 Y84.046 E10.7303
G1 X108.686 Y83.525 E10.75214
G0 F6000 X109.035 Y83.734
G1 F1200 X109.486 Y83.29 E10.77319
G1 X109.802 Y83.037 E10.78666
G1 X109.919 Y82.951 E10.79149
G1 X110.451 Y82.61 E10.81251
G1 X111.022 Y82.338 E10.83354
G1 X111.622 Y82.141 E10.85455
G1 X112.243 Y82.021 E10.87558
G1 X112.634 Y81.986 E10.88864
G1 X112.776 Y81.979 E10.89337
G1 X113.408 Y81.988 E10.91439
G1 X114.034 Y82.076 E10.93542
G1 X114.644 Y82.243 E10.95645
G1 X115.227 Y82.486 E10.97746
G1 X115.529 Y82.647 E10.98884
G1 X115.655 Y82.72 E10.99368
G1 X116.18 Y83.07 E11.01467
G1 X116.658 Y83.485 E11.03573
G1 X117.079 Y83.956 E11.05674
G1 X117.555 Y84.685 E11.08569
G1 X117.615 Y84.797 E11.08992
G1 X117.878 Y85.372 E11.11095
G1 X118.07 Y85.991 E11.13251
G1 X118.393 Y87.337 E11.17855
G1 X119.048 Y89.985 E11.26927
G1 X120.061 Y94.033 E11.40806
G1 X120.56 Y96.096 E11.47866
G1 X121.046 Y98.155 E11.54902
G1 X121.519 Y100.226 E11.61968
G1 X121.978 Y102.29 E11.69
G1 X122.577 Y105.036 E11.78348
G1 X123.742 Y110.484 E11.96878
G1 X124.603 Y114.586 E12.10819
G1 X125.445 Y118.696 E12.24772
G1 X126.263 Y122.809 E12.3872
G1 X126.99 Y126.599 E12.51556
G1 X127.069 Y127.226 E12.53657
G1 X127.069 Y127.858 E12.5576
G1 X126.989 Y128.485 E12.57862
G1 X126.83 Y129.097 E12.59965
G1 X126.596 Y129.684 E12.62067
G1 X126.289 Y130.237 E12.6417
G1 X125.915 Y130.746 E12.66271
G1 X125.48 Y131.205 E12.68375
G1 X124.991 Y131.605 E12.70476
G1 X124.454 Y131.94 E12.72581
G1 X123.88 Y132.204 E12.74682
G1 X123.277 Y132.394 E12.76785
G1 X122.655 Y132.507 E12.78888
G1 X122.079 Y132.54 E12.80807
G1 X121.57 Y132.54 E12.825
G1 X120.939 Y132.5 E12.84603
G1 X120.318 Y132.381 E12.86706
G1 X119.718 Y132.184 E12.88806
G1 X119.146 Y131.913 E12.90911
G1 X118.85 Y131.735 E12.9206
G1 X112.087 Y127.346 E13.18875
G1 X106.034 Y134.385 E13.49753
G1 X105.84 Y134.598 E13.50711
G1 X105.391 Y135.063 E13.52861
G1 X104.948 Y135.47 E13.54862
G1 X104.446 Y135.878 E13.57014
G1 X103.979 Y136.215 E13.58929
G1 X103.436 Y136.561 E13.61071
G1 X102.932 Y136.842 E13.6299
G1 X102.349 Y137.125 E13.65145
G1 X101.784 Y137.358 E13.67178
G1 X101.176 Y137.566 E13.69315
G1 X100.63 Y137.719 E13.71201
G1 X99.997 Y137.858 E13.73357
G1 X99.406 Y137.951 E13.75347
G1 X98.764 Y138.013 E13.77492
G1 X98.182 Y138.035 E13.79429
G1 X97.538 Y138.022 E13.81571
G1 X96.959 Y137.977 E13.83503
G1 X96.318 Y137.889 E13.85655
G1 X95.732 Y137.772 E13.87642
G1 X95.109 Y137.609 E13.89784
G1 X94.553 Y137.428 E13.91729
G1 X93.95 Y137.192 E13.93883
G1 X93.416 Y136.946 E13.95838
G1 X92.847 Y136.642 E13.97984
G1 X92.355 Y136.341 E13.99902
G1 X91.827 Y135.975 E14.02039
G1 X91.362 Y135.611 E14.04003
G1 X90.876 Y135.181 E14.06161
G1 X90.454 Y134.76 E14.08144
G1 X90.025 Y134.278 E14.1029
G1 X89.669 Y133.829 E14.12196
G1 X89.298 Y133.301 E14.14342
G1 X88.982 Y132.788 E14.16346
G1 X88.677 Y132.219 E14.18494
G1 X88.434 Y131.694 E14.20418
G1 X88.197 Y131.094 E14.22563
G1 X88.014 Y130.539 E14.24507
G1 X87.849 Y129.917 E14.26647
G1 X87.732 Y129.341 E14.28602
G1 X87.641 Y128.703 E14.30746
G1 X87.593 Y128.121 E14.32688
G1 X87.577 Y127.475 E14.34837
G1 X87.597 Y126.886 E14.36798
G1 X87.657 Y126.243 E14.38945
G1 X87.747 Y125.658 E14.40914
G1 X87.883 Y125.025 E14.43067
G1 X87.971 Y124.677 E14.44261
G1 X88.749 Y122.011 E14.53498
G1 X89.602 Y119.37 E14.62729
G1 X90.524 Y116.769 E14.71908
G1 X90.686 Y116.345 E14.73417
G1 X91.53 Y114.167 E14.81186
G1 X92.598 Y111.615 E14.90387
G1 X92.784 Y111.201 E14.91897
G1 X93.747 Y109.077 E14.99654
G1 X94.962 Y106.582 E15.08884
G1 X96.246 Y104.123 E15.1811
G1 X97.601 Y101.696 E15.27355
G1 X99.022 Y99.315 E15.36578
G1 X100.509 Y96.973 E15.45805
G1 X102.063 Y94.669 E15.55048
G1 X103.681 Y92.415 E15.64276
G1 X105.36 Y90.207 E15.73502
G1 X107.101 Y88.045 E15.82735
G1 X107.701 Y87.34 E15.85814
G1 X107.718 Y86.972 E15.87039
G1 X107.787 Y86.344 E15.8914
G1 X108.016 Y85.489 E15.92084
G1 X108.066 Y85.352 E15.92569
G1 X108.32 Y84.773 E15.94672
G1 X108.645 Y84.231 E15.96774
G1 X109.035 Y83.734 E15.98876
G0 F6000 X109.384 Y83.945
G1 F1200 X110.039 Y83.36 E16.01796
G1 X110.156 Y83.274 E16.02279
G1 X110.667 Y82.947 E16.04297
G1 X111.216 Y82.691 E16.06312
G1 X111.795 Y82.51 E16.0833
G1 X112.654 Y82.386 E16.11216
G1 X112.796 Y82.379 E16.11689
G1 X113.402 Y82.389 E16.13705
G1 X114.001 Y82.478 E16.15719
G1 X114.584 Y82.646 E16.17737
G1 X115.328 Y82.993 E16.20468
G1 X115.454 Y83.066 E16.20952
G1 X115.957 Y83.404 E16.22968
G1 X116.412 Y83.805 E16.24985
G1 X116.81 Y84.262 E16.27
G1 X117.203 Y84.874 E16.29419
G1 X117.263 Y84.986 E16.29842
G1 X117.513 Y85.538 E16.31857
G1 X117.681 Y86.085 E16.33761
G1 X117.996 Y87.398 E16.38252
G1 X118.661 Y90.082 E16.47449
G1 X119.673 Y94.13 E16.61327
G1 X120.172 Y96.19 E16.68376
G1 X120.657 Y98.247 E16.75406
G1 X121.129 Y100.315 E16.82461
G1 X121.587 Y102.376 E16.89483
G1 X122.186 Y105.121 E16.98828
G1 X123.351 Y110.568 E17.17354
G1 X124.212 Y114.668 E17.31288
G1 X125.053 Y118.776 E17.45235
G1 X125.871 Y122.887 E17.59176
G1 X126.597 Y126.674 E17.72001
G1 X126.671 Y127.276 E17.74018
G1 X126.666 Y127.882 E17.76034
G1 X126.581 Y128.482 E17.7805
G1 X126.418 Y129.066 E17.80066
G1 X126.18 Y129.624 E17.82084
G1 X125.87 Y130.145 E17.841
G1 X125.495 Y130.621 E17.86116
G1 X125.06 Y131.043 E17.88132
G1 X124.573 Y131.405 E17.9015
G1 X124.043 Y131.7 E17.92167
G1 X123.479 Y131.922 E17.94183
G1 X122.891 Y132.068 E17.96198
G1 X122.079 Y132.14 E17.9891
G1 X121.57 Y132.14 E18.00603
G1 X120.965 Y132.1 E18.02619
G1 X120.371 Y131.981 E18.04634
G1 X119.797 Y131.785 E18.06651
G1 X119.067 Y131.4 E18.09396
G1 X112.012 Y126.82 E18.37372
G1 X105.731 Y134.124 E18.69413
G1 X105.552 Y134.32 E18.70296
G1 X105.103 Y134.785 E18.72445
G1 X104.695 Y135.16 E18.74289
G1 X104.193 Y135.568 E18.7644
G1 X103.764 Y135.877 E18.78199
G1 X103.221 Y136.223 E18.8034
G1 X102.758 Y136.482 E18.82105
G1 X102.175 Y136.765 E18.8426
G1 X101.655 Y136.979 E18.8613
G1 X101.047 Y137.187 E18.88268
G1 X100.545 Y137.328 E18.90002
G1 X99.912 Y137.467 E18.92157
G1 X99.367 Y137.553 E18.93993
G1 X98.725 Y137.615 E18.96138
G1 X98.19 Y137.635 E18.97918
G1 X97.546 Y137.622 E19.00061
G1 X97.013 Y137.58 E19.01839
G1 X96.372 Y137.492 E19.03991
G1 X95.834 Y137.385 E19.05815
G1 X95.211 Y137.222 E19.07957
G1 X94.698 Y137.056 E19.09751
G1 X94.095 Y136.82 E19.11904
G1 X93.604 Y136.593 E19.13704
G1 X93.035 Y136.289 E19.15849
G1 X92.582 Y136.013 E19.17614
G1 X92.054 Y135.647 E19.1975
G1 X91.627 Y135.311 E19.21558
G1 X91.141 Y134.881 E19.23716
G1 X90.753 Y134.494 E19.25539
G1 X90.324 Y134.012 E19.27685
G1 X89.996 Y133.599 E19.29439
G1 X89.625 Y133.071 E19.31585
G1 X89.335 Y132.599 E19.33428
G1 X89.03 Y132.03 E19.35575
G1 X88.806 Y131.547 E19.37346
G1 X88.569 Y130.947 E19.39491
G1 X88.401 Y130.436 E19.4128
G1 X88.236 Y129.814 E19.43421
G1 X88.128 Y129.285 E19.45217
G1 X88.037 Y128.647 E19.4736
G1 X87.992 Y128.111 E19.49149
G1 X87.976 Y127.465 E19.51298
G1 X87.995 Y126.924 E19.53099
G1 X88.055 Y126.281 E19.55247
G1 X88.138 Y125.742 E19.57061
G1 X88.274 Y125.109 E19.59214
G1 X88.355 Y124.788 E19.60315
G1 X89.13 Y122.134 E19.69511
G1 X89.98 Y119.503 E19.78707
