;FLAVOR:Marlin
;TIME:4009
;Filament used: 2.48053m
;Layer height: 0.2
;MINX:92.129
;MINY:81.166
;MINZ:0.2
;MAXX:133.223
;MAXY:138.835
;MAXZ:129.8
;Generated with Cura_SteamEngine 4.6.1
M140 S60
M105
M190 S60
M104 S220
M105
M109 S220
M82 ;absolute extrusion mode
; Ender 3 Custom Start G-code
G92 E0 ; Reset Extruder
G28 ; Home all axes
G1 Z2.0 F3000 ; Move Z Axis up little to prevent scratching of Heat Bed
G1 X0.1 Y20 Z0.3 F5000.0 ; Move to start position
G1 X0.1 Y200.0 Z0.3 F1500.0 E15 ; Draw the first line
G1 X0.4 Y200.0 Z0.3 F5000.0 ; Move to side a little
G1 X0.4 Y20 Z0.3 F1500.0 E30 ; Draw the second line
G92 E0 ; Reset Extruder
G1 Z2.0 F3000 ; Move Z Axis up little to prevent scratching of Heat Bed
G1 X5 Y20 Z0.3 F5000.0 ; Move over to prevent blob squish
G92 E0
G92 E0
G1 F1500 E-6
;LAYER_COUNT:649
;LAYER:0
M107
G0 F6000 X102.607 Y83.11 Z0.2
;TYPE:SKIRT
G1 F1500 E0.04158
G1 F1200 X103.093 Y82.633 E0.06422
G1 X103.631 Y82.216 E0.08686
G1 X104.214 Y81.864 E0.10952
G1 X104.835 Y81.584 E0.13217
G1 X105.501 Y81.374 E0.1554
G1 X105.641 Y81.339 E0.1602
G1 X106.31 Y81.213 E0.18284
G1 X106.99 Y81.166 E0.20551
G1 X107.67 Y81.199 E0.22815
G1 X108.341 Y81.312 E0.25079
G1 X108.976 Y81.496 E0.27278
G1 X109.115 Y81.545 E0.27768
G1 X109.743 Y81.809 E0.30034
G1 X110.336 Y82.144 E0.32299
G1 X110.885 Y82.547 E0.34564
G1 X111.383 Y83.011 E0.36828
G1 X111.871 Y83.594 E0.39357
G1 X111.955 Y83.709 E0.3983
G1 X112.323 Y84.281 E0.42092
G1 X112.622 Y84.893 E0.44358
G1 X112.848 Y85.536 E0.46625
G1 X112.996 Y86.2 E0.48887
G1 X113.054 Y86.681 E0.50499
G1 X113.081 Y87.026 E0.5165
G1 X113.602 Y87.641 E0.54331
G1 X113.889 Y87.996 E0.55849
G1 X115.365 Y89.834 E0.63689
G1 X117.052 Y92.061 E0.72982
G1 X118.681 Y94.339 E0.82296
G1 X120.234 Y96.646 E0.91546
G1 X120.479 Y97.03 E0.93061
G1 X121.739 Y99.024 E1.00906
G1 X123.17 Y101.432 E1.10223
G1 X124.527 Y103.874 E1.19515
G1 X125.82 Y106.356 E1.28823
G1 X127.042 Y108.874 E1.38132
G1 X128.192 Y111.427 E1.47445
G1 X129.269 Y114.008 E1.56747
G1 X130.268 Y116.606 E1.66005
G1 X130.421 Y117.035 E1.67519
G1 X131.205 Y119.258 E1.75359
G1 X132.061 Y121.923 E1.84669
G1 X132.798 Y124.453 E1.93434
G1 X132.899 Y124.853 E1.94806
G1 X133.035 Y125.484 E1.96953
G1 X133.14 Y126.167 E1.99251
G1 X133.2 Y126.81 E2.01399
G1 X133.223 Y127.493 E2.03672
G1 X133.207 Y128.138 E2.05818
G1 X133.151 Y128.809 E2.08058
G1 X133.06 Y129.45 E2.10211
G1 X132.924 Y130.122 E2.12491
G1 X132.759 Y130.744 E2.14632
G1 X132.547 Y131.388 E2.16887
G1 X132.31 Y131.988 E2.19032
G1 X132.028 Y132.597 E2.21265
G1 X131.723 Y133.166 E2.23412
G1 X131.357 Y133.761 E2.25735
G1 X130.986 Y134.289 E2.27882
G1 X130.572 Y134.81 E2.30095
G1 X130.143 Y135.292 E2.32241
G1 X129.654 Y135.78 E2.34539
G1 X129.168 Y136.21 E2.36697
G1 X128.629 Y136.633 E2.38976
G1 X128.101 Y136.999 E2.41113
G1 X127.53 Y137.348 E2.43339
G1 X126.961 Y137.652 E2.45484
G1 X126.342 Y137.937 E2.47751
G1 X125.739 Y138.173 E2.49904
G1 X125.093 Y138.383 E2.52164
G1 X124.47 Y138.546 E2.54306
G1 X123.791 Y138.681 E2.56608
G1 X123.15 Y138.769 E2.5876
G1 X122.478 Y138.822 E2.61002
G1 X121.834 Y138.835 E2.63145
G1 X121.159 Y138.809 E2.65391
G1 X120.517 Y138.747 E2.67536
G1 X119.831 Y138.639 E2.69846
G1 X119.198 Y138.5 E2.72002
G1 X118.565 Y138.323 E2.74188
G1 X117.957 Y138.115 E2.76325
G1 X117.301 Y137.845 E2.78685
G1 X116.718 Y137.562 E2.8084
G1 X116.134 Y137.235 E2.83066
G1 X115.591 Y136.889 E2.85208
G1 X115.044 Y136.495 E2.8745
G1 X114.542 Y136.086 E2.89604
G1 X114.038 Y135.622 E2.91882
G1 X113.589 Y135.158 E2.9403
G1 X113.359 Y134.907 E2.95162
G1 X107.762 Y128.398 E3.23714
G1 X101.592 Y132.404 E3.48182
G1 X101 Y132.741 E3.50447
G1 X100.373 Y133.006 E3.52711
G1 X99.719 Y133.196 E3.54976
G1 X99.047 Y133.307 E3.57242
G1 X98.433 Y133.34 E3.59287
G1 X97.923 Y133.34 E3.60983
G1 X97.243 Y133.3 E3.63249
G1 X96.573 Y133.181 E3.65512
G1 X95.921 Y132.984 E3.67778
G1 X95.297 Y132.712 E3.70042
G1 X94.709 Y132.368 E3.72307
G1 X94.165 Y131.958 E3.74573
G1 X93.674 Y131.487 E3.76836
G1 X93.24 Y130.962 E3.79102
G1 X92.871 Y130.39 E3.81366
G1 X92.572 Y129.778 E3.83631
G1 X92.347 Y129.136 E3.85894
G1 X92.198 Y128.471 E3.8816
G1 X92.129 Y127.794 E3.90424
G1 X92.139 Y127.113 E3.92689
G1 X92.226 Y126.451 E3.9491
G1 X92.942 Y122.707 E4.07588
G1 X93.758 Y118.597 E4.21525
G1 X94.601 Y114.481 E4.35499
G1 X95.464 Y110.371 E4.49467
G1 X96.629 Y104.921 E4.68003
G1 X97.229 Y102.171 E4.77365
G1 X97.692 Y100.094 E4.84442
G1 X98.162 Y98.03 E4.91483
G1 X98.649 Y95.962 E4.98549
G1 X99.149 Y93.899 E5.0561
G1 X100.167 Y89.825 E5.19576
G1 X100.835 Y87.129 E5.28814
G1 X101.15 Y85.816 E5.33305
G1 X101.347 Y85.164 E5.35571
G1 X101.619 Y84.54 E5.37835
G1 X102.063 Y83.807 E5.40685
G1 X102.181 Y83.641 E5.41363
G1 X102.607 Y83.11 E5.43627
G0 F6000 X102.919 Y83.361
G1 F1200 X103.391 Y82.904 E5.45812
G1 X103.914 Y82.507 E5.47996
G1 X104.482 Y82.177 E5.50181
G1 X105.086 Y81.918 E5.52367
G1 X105.598 Y81.762 E5.54147
G1 X105.738 Y81.727 E5.54627
G1 X106.384 Y81.607 E5.56812
G1 X107.04 Y81.566 E5.58998
G1 X107.696 Y81.605 E5.61184
G1 X108.342 Y81.723 E5.63368
G1 X108.843 Y81.873 E5.65108
G1 X108.982 Y81.922 E5.65598
G1 X109.587 Y82.178 E5.67783
G1 X110.157 Y82.505 E5.69968
G1 X110.683 Y82.899 E5.72154
G1 X111.157 Y83.354 E5.7434
G1 X111.548 Y83.83 E5.76388
G1 X111.632 Y83.945 E5.76862
G1 X111.986 Y84.498 E5.79046
G1 X112.271 Y85.09 E5.81231
G1 X112.482 Y85.712 E5.83416
G1 X112.615 Y86.356 E5.85603
G1 X112.655 Y86.712 E5.86794
G1 X112.688 Y87.137 E5.88212
G1 X112.691 Y87.185 E5.88372
G1 X113.291 Y87.892 E5.91456
G1 X115.046 Y90.075 E6.00772
G1 X116.727 Y92.294 E6.10032
G1 X118.349 Y94.562 E6.19306
G1 X119.896 Y96.862 E6.28525
G1 X120.141 Y97.246 E6.3004
G1 X121.395 Y99.228 E6.37841
G1 X122.82 Y101.627 E6.47121
G1 X124.173 Y104.059 E6.56378
G1 X125.46 Y106.531 E6.65647
G1 X126.678 Y109.039 E6.7492
G1 X127.823 Y111.581 E6.84193
G1 X128.896 Y114.152 E6.93459
G1 X129.891 Y116.74 E7.02681
G1 X130.044 Y117.169 E7.04196
G1 X130.824 Y119.381 E7.11997
G1 X131.677 Y122.035 E7.21269
G1 X132.414 Y124.565 E7.30034
G1 X132.508 Y124.937 E7.3131
G1 X132.644 Y125.568 E7.33457
G1 X132.742 Y126.204 E7.35597
G1 X132.802 Y126.847 E7.37745
G1 X132.823 Y127.483 E7.39862
G1 X132.807 Y128.128 E7.42007
G1 X132.755 Y128.753 E7.44093
G1 X132.664 Y129.394 E7.46247
G1 X132.537 Y130.02 E7.48371
G1 X132.372 Y130.642 E7.50512
G1 X132.175 Y131.241 E7.52609
G1 X131.938 Y131.841 E7.54754
G1 X131.675 Y132.408 E7.56833
G1 X131.37 Y132.977 E7.58981
G1 X131.029 Y133.531 E7.61144
G1 X130.658 Y134.059 E7.63291
G1 X130.274 Y134.544 E7.65348
G1 X129.845 Y135.026 E7.67494
G1 X129.389 Y135.48 E7.69634
G1 X128.903 Y135.91 E7.71793
G1 X128.401 Y136.304 E7.73915
G1 X127.873 Y136.67 E7.76052
G1 X127.342 Y136.995 E7.78123
G1 X126.773 Y137.299 E7.80268
G1 X126.196 Y137.565 E7.82382
G1 X125.593 Y137.801 E7.84535
G1 X124.992 Y137.996 E7.86637
G1 X124.369 Y138.159 E7.88779
G1 X123.736 Y138.285 E7.90925
G1 X123.095 Y138.373 E7.93077
G1 X122.47 Y138.422 E7.95162
G1 X121.826 Y138.435 E7.97305
G1 X121.198 Y138.411 E7.99395
G1 X120.556 Y138.349 E8.0154
G1 X119.917 Y138.248 E8.03692
G1 X119.284 Y138.109 E8.05848
G1 X118.694 Y137.944 E8.07885
G1 X118.086 Y137.736 E8.10023
G1 X117.476 Y137.485 E8.12216
G1 X116.893 Y137.202 E8.14372
G1 X116.349 Y136.898 E8.16445
G1 X115.806 Y136.552 E8.18586
G1 X115.297 Y136.184 E8.20675
G1 X114.795 Y135.775 E8.22829
G1 X114.325 Y135.344 E8.2495
G1 X113.876 Y134.88 E8.27097
G1 X113.663 Y134.646 E8.2815
G1 X107.838 Y127.872 E8.57865
G1 X101.374 Y132.069 E8.83498
G1 X100.802 Y132.393 E8.85685
G1 X100.195 Y132.644 E8.87869
G1 X99.562 Y132.821 E8.90056
G1 X98.913 Y132.919 E8.92239
G1 X98.433 Y132.94 E8.93837
G1 X97.923 Y132.94 E8.95533
G1 X97.267 Y132.9 E8.97719
G1 X96.621 Y132.781 E8.99904
G1 X95.994 Y132.584 E9.02089
G1 X95.396 Y132.312 E9.04275
G1 X94.835 Y131.97 E9.0646
G1 X94.32 Y131.562 E9.08645
G1 X93.858 Y131.095 E9.1083
G1 X93.457 Y130.575 E9.13014
G1 X93.121 Y130.011 E9.15198
G1 X92.857 Y129.409 E9.17384
G1 X92.667 Y128.78 E9.19569
G1 X92.556 Y128.133 E9.21753
G1 X92.523 Y127.477 E9.23937
G1 X92.619 Y126.526 E9.27116
G1 X93.335 Y122.782 E9.39795
G1 X94.15 Y118.675 E9.53721
G1 X94.993 Y114.562 E9.67685
G1 X95.855 Y110.453 E9.81649
G1 X97.02 Y105.005 E10.00179
G1 X97.62 Y102.256 E10.09538
G1 X98.082 Y100.181 E10.16608
G1 X98.552 Y98.119 E10.23642
G1 X99.039 Y96.053 E10.30702
G1 X99.538 Y93.993 E10.37752
G1 X101.224 Y87.225 E10.6095
G1 X101.539 Y85.909 E10.65451
G1 X101.73 Y85.281 E10.67634
G1 X101.997 Y84.68 E10.69821
G1 X102.389 Y84.038 E10.72323
G1 X102.507 Y83.872 E10.73001
G1 X102.919 Y83.361 E10.75184
G0 F6000 X103.231 Y83.613
G1 F1200 X103.688 Y83.176 E10.77287
G1 X104.196 Y82.8 E10.79389
G1 X104.748 Y82.492 E10.81491
G1 X105.334 Y82.255 E10.83594
G1 X105.695 Y82.15 E10.84844
G1 X105.835 Y82.115 E10.85324
G1 X106.457 Y82.001 E10.87428
G1 X107.088 Y81.966 E10.8953
G1 X107.719 Y82.011 E10.91634
G1 X108.339 Y82.135 E10.93737
G1 X108.71 Y82.25 E10.95028
G1 X108.849 Y82.299 E10.95519
G1 X109.431 Y82.547 E10.97623
G1 X109.977 Y82.866 E10.99726
G1 X110.478 Y83.251 E11.01827
G1 X110.927 Y83.696 E11.0393
G1 X111.225 Y84.066 E11.0551
G1 X111.309 Y84.181 E11.05984
G1 X111.648 Y84.714 E11.08085
G1 X111.918 Y85.285 E11.10186
G1 X112.114 Y85.887 E11.12291
G1 X112.256 Y86.743 E11.15177
G1 X112.299 Y87.327 E11.17125
G1 X112.98 Y88.144 E11.20662
G1 X114.728 Y90.317 E11.29938
G1 X116.401 Y92.527 E11.39157
G1 X118.017 Y94.786 E11.48395
G1 X119.559 Y97.077 E11.5758
G1 X119.804 Y97.461 E11.59095
G1 X121.051 Y99.433 E11.66856
G1 X122.471 Y101.821 E11.76096
G1 X123.818 Y104.244 E11.85317
G1 X125.1 Y106.706 E11.94549
G1 X126.313 Y109.203 E12.03782
G1 X127.454 Y111.735 E12.13019
G1 X128.523 Y114.296 E12.22249
G1 X129.514 Y116.874 E12.31436
G1 X129.667 Y117.303 E12.3295
G1 X130.443 Y119.503 E12.4071
G1 X131.292 Y122.147 E12.49946
G1 X132.029 Y124.677 E12.5871
G1 X132.117 Y125.022 E12.59895
G1 X132.253 Y125.653 E12.62042
G1 X132.343 Y126.241 E12.6402
G1 X132.403 Y126.884 E12.66168
G1 X132.423 Y127.473 E12.68128
G1 X132.407 Y128.118 E12.70274
G1 X132.359 Y128.697 E12.72206
G1 X132.268 Y129.338 E12.7436
G1 X132.151 Y129.917 E12.76324
G1 X131.986 Y130.539 E12.78465
G1 X131.803 Y131.094 E12.80408
G1 X131.566 Y131.694 E12.82554
G1 X131.323 Y132.219 E12.84478
G1 X131.018 Y132.788 E12.86625
G1 X130.702 Y133.301 E12.88629
G1 X130.331 Y133.829 E12.90776
G1 X129.975 Y134.278 E12.92682
G1 X129.546 Y134.76 E12.94828
G1 X129.124 Y135.181 E12.9681
G1 X128.638 Y135.611 E12.98969
G1 X128.173 Y135.975 E13.00933
G1 X127.645 Y136.341 E13.0307
G1 X127.153 Y136.642 E13.04988
G1 X126.584 Y136.946 E13.07134
G1 X126.05 Y137.192 E13.09089
G1 X125.447 Y137.428 E13.11243
G1 X124.891 Y137.609 E13.13188
G1 X124.268 Y137.772 E13.15329
G1 X123.682 Y137.889 E13.17317
G1 X123.041 Y137.977 E13.19469
G1 X122.462 Y138.022 E13.214
G1 X121.818 Y138.035 E13.23543
G1 X121.236 Y138.013 E13.2548
G1 X120.594 Y137.951 E13.27625
G1 X120.003 Y137.858 E13.29615
G1 X119.37 Y137.719 E13.31771
G1 X118.824 Y137.566 E13.33657
G1 X118.216 Y137.358 E13.35794
G1 X117.651 Y137.125 E13.37827
G1 X117.068 Y136.842 E13.39982
G1 X116.564 Y136.561 E13.41901
G1 X116.021 Y136.215 E13.44043
G1 X115.55 Y135.874 E13.45977
G1 X115.048 Y135.465 E13.4813
G1 X114.613 Y135.066 E13.50094
G1 X114.164 Y134.602 E13.52241
G1 X113.966 Y134.385 E13.53218
G1 X107.913 Y127.345 E13.84098
G1 X101.156 Y131.733 E14.10895
G1 X100.605 Y132.044 E14.13
G1 X100.02 Y132.282 E14.151
G1 X99.409 Y132.444 E14.17203
G1 X98.782 Y132.528 E14.19307
G1 X98.433 Y132.54 E14.20468
G1 X97.923 Y132.54 E14.22164
G1 X97.292 Y132.5 E14.24267
G1 X96.671 Y132.381 E14.2637
G1 X96.071 Y132.184 E14.28471
G1 X95.499 Y131.913 E14.30576
G1 X94.967 Y131.573 E14.32676
G1 X94.482 Y131.167 E14.3478
G1 X94.052 Y130.704 E14.36881
G1 X93.683 Y130.19 E14.38986
G1 X93.383 Y129.634 E14.41087
G1 X93.155 Y129.045 E14.43188
G1 X93.003 Y128.431 E14.45292
G1 X92.93 Y127.803 E14.47394
G1 X92.937 Y127.171 E14.49497
G1 X93.012 Y126.601 E14.51409
G1 X93.728 Y122.857 E14.64087
G1 X94.543 Y118.753 E14.78004
G1 X95.385 Y114.642 E14.91961
G1 X96.247 Y110.535 E15.05918
G1 X97.412 Y105.088 E15.24445
G1 X98.011 Y102.341 E15.33796
G1 X98.472 Y100.268 E15.40859
G1 X98.942 Y98.208 E15.47887
G1 X99.428 Y96.145 E15.54936
G1 X99.927 Y94.087 E15.6198
G1 X101.612 Y87.321 E15.85171
G1 X101.928 Y86.002 E15.89682
G1 X102.113 Y85.398 E15.91783
G1 X102.374 Y84.822 E15.93886
G1 X102.715 Y84.27 E15.96044
G1 X102.833 Y84.104 E15.96722
G1 X103.231 Y83.613 E15.98824
G0 F6000 X103.542 Y83.866
G1 F1200 X103.983 Y83.45 E16.0084
G1 X104.476 Y83.097 E16.02857
G1 X105.01 Y82.811 E16.04872
G1 X105.792 Y82.538 E16.07627
G1 X105.932 Y82.503 E16.08107
G1 X106.529 Y82.395 E16.10124
G1 X107.135 Y82.367 E16.12142
G1 X107.739 Y82.418 E16.14158
G1 X108.577 Y82.628 E16.17032
G1 X108.716 Y82.677 E16.17522
G1 X109.274 Y82.915 E16.19539
G1 X109.795 Y83.226 E16.21558
G1 X110.27 Y83.601 E16.2357
G1 X110.693 Y84.037 E16.25591
G1 X110.902 Y84.302 E16.26713
G1 X110.986 Y84.417 E16.27187
G1 X111.31 Y84.929 E16.29202
G1 X111.565 Y85.479 E16.31219
G1 X111.744 Y86.058 E16.33234
G1 X111.857 Y86.774 E16.35645
G1 X111.906 Y87.498 E16.38059
G1 X112.669 Y88.395 E16.41976
G1 X112.956 Y88.75 E16.43494
G1 X114.409 Y90.559 E16.51211
G1 X116.076 Y92.76 E16.60394
G1 X117.686 Y95.009 E16.69594
G1 X119.222 Y97.292 E16.78746
G1 X119.467 Y97.676 E16.80261
G1 X120.707 Y99.638 E16.8798
G1 X122.121 Y102.016 E16.97182
G1 X123.464 Y104.429 E17.06367
G1 X124.74 Y106.881 E17.15561
G1 X125.948 Y109.368 E17.24757
G1 X127.085 Y111.89 E17.33958
G1 X128.149 Y114.44 E17.43148
G1 X129.138 Y117.009 E17.52304
G1 X129.291 Y117.438 E17.53819
G1 X130.063 Y119.626 E17.61536
G1 X130.908 Y122.258 E17.7073
G1 X131.645 Y124.788 E17.79494
G1 X131.726 Y125.106 E17.80586
G1 X131.862 Y125.737 E17.82733
G1 X131.945 Y126.279 E17.84557
G1 X132.005 Y126.922 E17.86704
G1 X132.024 Y127.463 E17.88505
G1 X132.008 Y128.108 E17.90651
G1 X131.963 Y128.641 E17.9243
G1 X131.872 Y129.282 E17.94583
G1 X131.764 Y129.814 E17.96389
G1 X131.599 Y130.436 E17.98529
G1 X131.431 Y130.947 E18.00318
G1 X131.194 Y131.547 E18.02464
G1 X130.97 Y132.03 E18.04235
G1 X130.665 Y132.599 E18.06382
G1 X130.375 Y133.071 E18.08224
G1 X130.004 Y133.599 E18.10371
G1 X129.676 Y134.012 E18.12125
G1 X129.247 Y134.494 E18.14271
G1 X128.859 Y134.881 E18.16094
G1 X128.373 Y135.311 E18.18252
G1 X127.946 Y135.647 E18.20059
G1 X127.418 Y136.013 E18.22196
G1 X126.965 Y136.289 E18.2396
G1 X126.396 Y136.593 E18.26106
G1 X125.905 Y136.82 E18.27905
G1 X125.302 Y137.056 E18.30059
G1 X124.789 Y137.222 E18.31852
G1 X124.166 Y137.385 E18.33994
G1 X123.628 Y137.492 E18.35819
G1 X122.987 Y137.58 E18.37971
G1 X122.454 Y137.622 E18.39749
G1 X121.81 Y137.635 E18.41891
G1 X121.275 Y137.615 E18.43672
G1 X120.633 Y137.553 E18.45817
G1 X120.088 Y137.467 E18.47652
G1 X119.455 Y137.328 E18.49808
G1 X118.953 Y137.187 E18.51542
G1 X118.345 Y136.979 E18.53679
G1 X117.825 Y136.765 E18.5555
G1 X117.242 Y136.482 E18.57705
G1 X116.779 Y136.223 E18.59469
G1 X116.236 Y135.877 E18.61611
G1 X115.802 Y135.564 E18.63391
G1 X115.3 Y135.155 E18.65544
G1 X114.9 Y134.788 E18.6735
G1 X114.451 Y134.324 E18.69497
G1 X114.269 Y134.124 E18.70397
G1 X107.988 Y126.82 E19.02437
G1 X100.938 Y131.398 E19.30396
G1 X100.409 Y131.694 E19.32412
G1 X99.846 Y131.918 E19.34427
G1 X99.258 Y132.066 E19.36444
G1 X98.433 Y132.14 E19.39199
G1 X97.923 Y132.14 E19.40895
G1 X97.318 Y132.1 E19.42912
G1 X96.724 Y131.981 E19.44927
G1 X96.15 Y131.785 E19.46944
G1 X95.607 Y131.514 E19.48962
G1 X95.104 Y131.175 E19.5098
G1 X94.651 Y130.773 E19.52994
G1 X94.254 Y130.315 E19.5501
