;FLAVOR:Marlin
;TIME:3578
;Filament used: 2.26676m
;Layer height: 0.2
;MINX:96.138
;MINY:83.793
;MINZ:0.2
;MAXX:118.245
;MAXY:136.21
;MAXZ:128.8
;Generated with Cura_SteamEngine 4.6.1
M140 S60
M105
M190 S60
M104 S220
M105
M109 S220
M82 ;absolute extrusion mode
; Ender 3 Custom Start G-code
G92 E0 ; Reset Extruder
G28 ; Home all axes
G1 Z2.0 F3000 ; Move Z Axis up little to prevent scratching of Heat Bed
G1 X0.1 Y20 Z0.3 F5000.0 ; Move to start position
G1 X0.1 Y200.0 Z0.3 F1500.0 E15 ; Draw the first line
G1 X0.4 Y200.0 Z0.3 F5000.0 ; Move to side a little
G1 X0.4 Y20 Z0.3 F1500.0 E30 ; Draw the second line
G92 E0 ; Reset Extruder
G1 Z2.0 F3000 ; Move Z Axis up little to prevent scratching of Heat Bed
G1 X5 Y20 Z0.3 F5000.0 ; Move over to prevent blob squish
G92 E0
G92 E0
G1 F1500 E-6
;LAYER_COUNT:644
;LAYER:0
M107
G0 F6000 X97.959 Y86.086 Z0.2
;TYPE:SKIRT
G1 F1500 E0.04158
G1 F1200 X98.413 Y85.578 E0.06424
G1 X98.967 Y85.094 E0.0887
G1 X99.083 Y85.005 E0.09357
G1 X99.647 Y84.623 E0.11622
G1 X100.252 Y84.31 E0.13888
G1 X100.889 Y84.07 E0.16152
G1 X101.844 Y83.858 E0.19406
G1 X101.956 Y83.843 E0.19781
G1 X102.635 Y83.793 E0.22046
G1 X103.315 Y83.822 E0.2431
G1 X103.987 Y83.931 E0.26574
G1 X104.642 Y84.118 E0.2884
G1 X105.271 Y84.38 E0.31106
G1 X105.886 Y84.728 E0.33456
G1 X106.083 Y84.856 E0.34237
G1 X106.631 Y85.26 E0.36502
G1 X107.128 Y85.726 E0.38768
G1 X107.567 Y86.246 E0.41031
G1 X107.943 Y86.814 E0.43297
G1 X108.249 Y87.422 E0.45561
G1 X108.537 Y88.261 E0.48511
G1 X109.275 Y91.101 E0.58271
G1 X110.666 Y96.366 E0.76383
G1 X111.164 Y98.292 E0.83
G1 X111.913 Y101.313 E0.93352
G1 X112.898 Y105.452 E1.07503
G1 X113.719 Y108.999 E1.19612
G1 X114.94 Y114.386 E1.37984
G1 X115.445 Y116.642 E1.45673
G1 X116.45 Y121.216 E1.61249
G1 X117.27 Y125.075 E1.7437
G1 X118.129 Y129.239 E1.88512
G1 X118.227 Y129.913 E1.90777
G1 X118.245 Y130.594 E1.93043
G1 X118.184 Y131.272 E1.95307
G1 X118.043 Y131.938 E1.97571
G1 X117.826 Y132.583 E1.99835
G1 X117.534 Y133.198 E2.02099
G1 X117.172 Y133.775 E2.04364
G1 X116.745 Y134.306 E2.06631
G1 X116.259 Y134.782 E2.08893
G1 X115.72 Y135.199 E2.1116
G1 X115.137 Y135.549 E2.13422
G1 X114.516 Y135.829 E2.15687
G1 X113.866 Y136.034 E2.17954
G1 X113.198 Y136.161 E2.20216
G1 X112.448 Y136.21 E2.22716
G1 X111.977 Y136.21 E2.24282
G1 X111.297 Y136.17 E2.26548
G1 X110.627 Y136.051 E2.28811
G1 X109.975 Y135.854 E2.31076
G1 X109.351 Y135.582 E2.3334
G1 X108.818 Y135.274 E2.35388
G1 X98.779 Y128.755 E2.752
G1 X98.231 Y128.352 E2.77462
G1 X97.734 Y127.887 E2.79726
G1 X97.294 Y127.366 E2.81994
G1 X96.919 Y126.798 E2.84258
G1 X96.613 Y126.19 E2.86522
G1 X96.38 Y125.55 E2.88787
G1 X96.224 Y124.887 E2.91053
G1 X96.147 Y124.211 E2.93316
G1 X96.138 Y123.817 E2.94626
G1 X96.265 Y114.139 E3.26818
G1 X96.42 Y99.441 E3.75707
G1 X96.512 Y94.507 E3.9212
G1 X96.589 Y91.688 E4.015
G1 X96.656 Y89.642 E4.08308
G1 X96.718 Y88.964 E4.10573
G1 X96.947 Y88.01 E4.13836
G1 X96.992 Y87.874 E4.14312
G1 X97.243 Y87.241 E4.16577
G1 X97.567 Y86.642 E4.18842
G1 X97.959 Y86.086 E4.21105
G0 F6000 X98.315 Y86.281
G1 F1200 X98.761 Y85.798 E4.23292
G1 X99.211 Y85.412 E4.25264
G1 X99.327 Y85.323 E4.2575
G1 X99.872 Y84.955 E4.27937
G1 X100.457 Y84.657 E4.30121
G1 X101.074 Y84.431 E4.32306
G1 X101.897 Y84.255 E4.35105
G1 X102.009 Y84.24 E4.35481
G1 X102.664 Y84.192 E4.37666
G1 X103.321 Y84.225 E4.39853
G1 X103.968 Y84.337 E4.42037
G1 X104.597 Y84.526 E4.44222
G1 X105.198 Y84.791 E4.46407
G1 X105.668 Y85.064 E4.48214
G1 X105.865 Y85.192 E4.48996
G1 X106.393 Y85.583 E4.51181
G1 X106.87 Y86.035 E4.53367
G1 X107.288 Y86.541 E4.5555
G1 X107.642 Y87.095 E4.57736
G1 X107.926 Y87.687 E4.5992
G1 X108.149 Y88.362 E4.62284
G1 X108.888 Y91.204 E4.72051
G1 X110.279 Y96.469 E4.90164
G1 X110.776 Y98.388 E4.96757
G1 X111.524 Y101.406 E5.07098
G1 X112.509 Y105.545 E5.21249
G1 X113.329 Y109.09 E5.33351
G1 X114.55 Y114.475 E5.51717
G1 X115.055 Y116.729 E5.59399
G1 X116.059 Y121.301 E5.74968
G1 X116.879 Y125.159 E5.88086
G1 X117.737 Y129.32 E6.02217
G1 X117.83 Y129.97 E6.04401
G1 X117.844 Y130.627 E6.06587
G1 X117.777 Y131.281 E6.08773
G1 X117.632 Y131.921 E6.10956
G1 X117.41 Y132.54 E6.13143
G1 X117.115 Y133.127 E6.15328
G1 X116.75 Y133.673 E6.17513
G1 X116.322 Y134.172 E6.19699
G1 X115.837 Y134.614 E6.21882
G1 X115.301 Y134.995 E6.24069
G1 X114.723 Y135.307 E6.26254
G1 X114.112 Y135.547 E6.28437
G1 X113.476 Y135.711 E6.30621
G1 X112.824 Y135.797 E6.32809
G1 X112.448 Y135.81 E6.3406
G1 X111.977 Y135.81 E6.35627
G1 X111.321 Y135.77 E6.37813
G1 X110.675 Y135.651 E6.39997
G1 X110.048 Y135.454 E6.42183
G1 X109.45 Y135.182 E6.44368
G1 X109.036 Y134.939 E6.45965
G1 X98.997 Y128.42 E6.85777
G1 X98.469 Y128.029 E6.87962
G1 X97.992 Y127.577 E6.90148
G1 X97.574 Y127.071 E6.92331
G1 X97.22 Y126.517 E6.94518
G1 X96.936 Y125.925 E6.96701
G1 X96.726 Y125.302 E6.98888
G1 X96.593 Y124.659 E7.01072
G1 X96.538 Y123.822 E7.03862
G1 X96.662 Y114.107 E7.36177
G1 X96.82 Y99.445 E7.84946
G1 X96.911 Y94.565 E8.01179
G1 X96.989 Y91.699 E8.10715
G1 X97.056 Y89.655 E8.17517
G1 X97.117 Y89.001 E8.19702
G1 X97.326 Y88.136 E8.22662
G1 X97.371 Y88 E8.23138
G1 X97.615 Y87.39 E8.25323
G1 X97.931 Y86.814 E8.27508
G1 X98.315 Y86.281 E8.29693
G0 F6000 X98.671 Y86.478
G1 F1200 X99.107 Y86.021 E8.31794
G1 X99.454 Y85.729 E8.33303
G1 X99.57 Y85.64 E8.33789
G1 X100.095 Y85.288 E8.35891
G1 X100.66 Y85.004 E8.37994
G1 X101.257 Y84.795 E8.40098
G1 X101.95 Y84.651 E8.42452
G1 X102.062 Y84.636 E8.42828
G1 X102.693 Y84.592 E8.44932
G1 X103.324 Y84.628 E8.47034
G1 X103.946 Y84.743 E8.49138
G1 X104.548 Y84.936 E8.51241
G1 X105.121 Y85.203 E8.53343
G1 X105.45 Y85.399 E8.54617
G1 X105.647 Y85.527 E8.55398
G1 X106.154 Y85.905 E8.57502
G1 X106.61 Y86.343 E8.59605
G1 X107.007 Y86.835 E8.61707
G1 X107.338 Y87.373 E8.63808
G1 X107.599 Y87.949 E8.65912
G1 X107.762 Y88.462 E8.67702
G1 X108.501 Y91.306 E8.77475
G1 X109.892 Y96.571 E8.95587
G1 X110.388 Y98.485 E9.02164
G1 X111.124 Y101.453 E9.12334
G1 X112.12 Y105.637 E9.26639
G1 X112.432 Y106.996 E9.31277
G1 X112.939 Y109.18 E9.38734
G1 X114.16 Y114.563 E9.57093
G1 X114.664 Y116.816 E9.64771
G1 X115.669 Y121.387 E9.80338
G1 X116.488 Y125.242 E9.93446
G1 X117.345 Y129.401 E10.07569
G1 X117.433 Y130.027 E10.09672
G1 X117.442 Y130.659 E10.11774
G1 X117.371 Y131.287 E10.13876
G1 X117.221 Y131.901 E10.15978
G1 X116.994 Y132.491 E10.18081
G1 X116.695 Y133.048 E10.20184
G1 X116.329 Y133.563 E10.22285
G1 X115.9 Y134.027 E10.24387
G1 X115.416 Y134.434 E10.2649
G1 X114.884 Y134.776 E10.28594
G1 X114.314 Y135.049 E10.30696
G1 X113.714 Y135.247 E10.32797
G1 X113.093 Y135.368 E10.34901
G1 X112.448 Y135.41 E10.37051
G1 X111.977 Y135.41 E10.38618
G1 X111.346 Y135.37 E10.40721
G1 X110.725 Y135.251 E10.42824
G1 X110.125 Y135.054 E10.44924
G1 X109.553 Y134.783 E10.47029
G1 X109.254 Y134.603 E10.4819
G1 X99.215 Y128.084 E10.88002
G1 X98.708 Y127.707 E10.90104
G1 X98.252 Y127.269 E10.92207
G1 X97.855 Y126.777 E10.94309
G1 X97.524 Y126.239 E10.9641
G1 X97.263 Y125.663 E10.98514
G1 X97.076 Y125.059 E11.00617
G1 X96.968 Y124.436 E11.0272
G1 X96.938 Y123.827 E11.04748
G1 X97.062 Y114.111 E11.37066
G1 X97.22 Y99.449 E11.85835
G1 X97.311 Y94.572 E12.02058
G1 X97.389 Y91.709 E12.11584
G1 X97.456 Y89.668 E12.18376
G1 X97.516 Y89.039 E12.20478
G1 X97.706 Y88.261 E12.23142
G1 X97.751 Y88.125 E12.23618
G1 X97.987 Y87.539 E12.25719
G1 X98.295 Y86.987 E12.27822
G1 X98.671 Y86.478 E12.29926
G0 F6000 X99.025 Y86.679
G1 F1200 X99.452 Y86.249 E12.31942
G1 X99.698 Y86.046 E12.33003
G1 X99.814 Y85.957 E12.33489
G1 X100.318 Y85.621 E12.35504
G1 X100.862 Y85.354 E12.37519
G1 X101.437 Y85.16 E12.39538
G1 X102.003 Y85.048 E12.41457
G1 X102.115 Y85.033 E12.41832
G1 X102.72 Y84.992 E12.43849
G1 X103.325 Y85.031 E12.45866
G1 X103.92 Y85.15 E12.47884
G1 X104.494 Y85.345 E12.499
G1 X105.232 Y85.735 E12.52676
G1 X105.429 Y85.863 E12.53458
G1 X105.915 Y86.226 E12.55475
G1 X106.348 Y86.65 E12.57491
G1 X106.722 Y87.127 E12.59507
G1 X107.03 Y87.649 E12.61523
G1 X107.267 Y88.207 E12.63539
G1 X107.375 Y88.563 E12.64777
G1 X108.114 Y91.408 E12.74553
G1 X109.505 Y96.673 E12.92666
G1 X109.988 Y98.534 E12.9906
G1 X110.736 Y101.549 E13.09392
G1 X111.731 Y105.73 E13.23687
G1 X112.55 Y109.271 E13.35775
G1 X113.77 Y114.652 E13.54126
G1 X114.274 Y116.904 E13.61802
G1 X115.278 Y121.473 E13.77361
G1 X116.097 Y125.325 E13.90459
G1 X116.953 Y129.481 E14.04572
G1 X117.036 Y130.082 E14.0659
G1 X117.04 Y130.688 E14.08606
G1 X116.963 Y131.29 E14.10624
G1 X116.808 Y131.876 E14.1264
G1 X116.577 Y132.437 E14.14658
G1 X116.275 Y132.962 E14.16673
G1 X115.906 Y133.443 E14.18689
G1 X115.477 Y133.872 E14.20707
G1 X114.996 Y134.24 E14.22721
G1 X114.47 Y134.542 E14.24739
G1 X113.909 Y134.772 E14.26755
G1 X113.322 Y134.926 E14.28774
G1 X112.448 Y135.01 E14.31694
G1 X111.977 Y135.01 E14.33261
G1 X111.372 Y134.97 E14.35277
G1 X110.778 Y134.851 E14.37292
G1 X110.204 Y134.655 E14.3931
G1 X109.472 Y134.268 E14.42064
G1 X99.433 Y127.749 E14.81876
G1 X98.947 Y127.386 E14.83893
G1 X98.513 Y126.962 E14.85911
G1 X98.139 Y126.485 E14.87927
G1 X97.831 Y125.963 E14.89943
G1 X97.594 Y125.405 E14.91959
G1 X97.433 Y124.82 E14.93978
G1 X97.35 Y124.22 E14.95992
G1 X97.338 Y123.832 E14.97283
G1 X97.462 Y114.115 E15.29605
G1 X97.62 Y99.453 E15.78374
G1 X97.711 Y94.579 E15.94587
G1 X97.789 Y91.72 E16.041
G1 X97.855 Y89.681 E16.10885
G1 X97.915 Y89.078 E16.12901
G1 X98.086 Y88.387 E16.15268
G1 X98.131 Y88.251 E16.15745
G1 X98.359 Y87.689 E16.17762
G1 X98.659 Y87.162 E16.19779
G1 X99.025 Y86.679 E16.21795
G0 F6000 X99.379 Y86.884
G1 F1200 X99.941 Y86.364 E16.24341
G1 X100.057 Y86.275 E16.24827
G1 X100.54 Y85.955 E16.26755
G1 X101.063 Y85.704 E16.28684
G1 X101.614 Y85.528 E16.30608
G1 X102.056 Y85.444 E16.32104
G1 X102.168 Y85.429 E16.3248
G1 X102.747 Y85.392 E16.3441
G1 X103.324 Y85.435 E16.36334
G1 X103.891 Y85.557 E16.38263
G1 X104.435 Y85.755 E16.40189
G1 X105.014 Y86.07 E16.42381
G1 X105.211 Y86.198 E16.43162
G1 X105.674 Y86.547 E16.45091
G1 X106.085 Y86.955 E16.47017
G1 X106.435 Y87.417 E16.48945
G1 X106.719 Y87.922 E16.50872
G1 X106.988 Y88.664 E16.53497
G1 X107.728 Y91.51 E16.63277
G1 X109.119 Y96.775 E16.8139
G1 X109.601 Y98.634 E16.87777
G1 X110.348 Y101.645 E16.98095
G1 X111.342 Y105.823 E17.12379
G1 X111.653 Y107.177 E17.17
G1 X112.16 Y109.361 E17.24457
G1 X113.38 Y114.74 E17.42802
G1 X113.884 Y116.991 E17.50475
G1 X114.887 Y121.559 E17.6603
G1 X115.705 Y125.408 E17.79117
G1 X116.562 Y129.562 E17.93225
G1 X116.639 Y130.136 E17.95151
G1 X116.637 Y130.716 E17.9708
G1 X116.555 Y131.289 E17.99005
G1 X116.395 Y131.846 E18.00933
G1 X116.16 Y132.375 E18.02858
G1 X115.854 Y132.867 E18.04785
G1 X115.484 Y133.313 E18.06712
G1 X115.055 Y133.703 E18.08641
G1 X114.577 Y134.03 E18.10567
G1 X114.059 Y134.289 E18.12493
G1 X113.51 Y134.474 E18.1442
G1 X112.941 Y134.581 E18.16346
G1 X112.448 Y134.61 E18.17988
G1 X111.977 Y134.61 E18.19555
G1 X111.399 Y134.57 E18.21482
G1 X110.832 Y134.451 E18.23409
G1 X110.287 Y134.255 E18.25335
G1 X109.69 Y133.932 E18.27593
G1 X99.651 Y127.413 E18.67405
G1 X99.188 Y127.065 E18.69331
G1 X98.777 Y126.657 E18.71258
G1 X98.427 Y126.195 E18.73185
G1 X98.143 Y125.69 E18.75112
G1 X97.931 Y125.151 E18.77039
G1 X97.796 Y124.588 E18.78964
G1 X97.738 Y123.837 E18.8147
G1 X97.865 Y114.158 E19.13665
G1 X98.02 Y99.458 E19.6256
G1 X98.111 Y94.587 E19.78764
G1 X98.189 Y91.731 E19.88267
G1 X98.255 Y89.694 E19.95045
G1 X98.314 Y89.118 E19.96971
G1 X98.466 Y88.513 E19.99046
G1 X98.511 Y88.377 E19.99522
G1 X98.73 Y87.841 E20.01448
G1 X99.021 Y87.34 E20.03375
G1 X99.379 Y86.884 E20.05303
G0 F6000 X99.383 Y87.52
G1 F1200 X99.73 Y87.092 E20.07136
G1 X100.185 Y86.681 E20.09175
G1 X100.301 Y86.592 E20.09662
G1 X100.761 Y86.289 E20.11494
G1 X101.26 Y86.056 E20.13325
G1 X101.788 Y85.898 E20.15158
G1 X102.222 Y85.826 E20.16622
G1 X102.772 Y85.792 E20.18454
G1 X103.321 Y85.839 E20.20287
G1 X103.857 Y85.964 E20.22118
G1 X104.37 Y86.166 E20.23951
G1 X104.796 Y86.406 E20.25578
G1 X104.993 Y86.534 E20.26359
G1 X105.432 Y86.866 E20.2819
G1 X105.819 Y87.259 E20.30024
G1 X106.144 Y87.704 E20.31857
G1 X106.402 Y88.191 E20.3369
G1 X106.601 Y88.764 E20.35707
G1 X107.341 Y91.612 E20.45494
G1 X108.732 Y96.877 E20.63607
G1 X109.213 Y98.734 E20.69987
G1 X109.959 Y101.741 E20.80292
G1 X110.953 Y105.915 E20.94563
G1 X111.771 Y109.452 E21.06637
G1 X112.99 Y114.829 E21.24975
G1 X113.493 Y117.078 E21.3264
G1 X114.496 Y121.645 E21.48192
G1 X115.314 Y125.491 E21.6127
G1 X116.17 Y129.643 E21.7537
G1 X116.242 Y130.189 E21.77202
G1 X116.234 Y130.74 E21.79034
G1 X116.146 Y131.284 E21.80867
G1 X115.981 Y131.81 E21.82701
G1 X115.741 Y132.306 E21.84534
G1 X115.432 Y132.762 E21.86366
G1 X115.061 Y133.169 E21.88197
G1 X114.634 Y133.518 E21.90032
G1 X114.162 Y133.802 E21.91864
G1 X113.653 Y134.014 E21.93698
G1 X113.12 Y134.15 E21.95527
G1 X112.448 Y134.21 E21.97771
G1 X111.977 Y134.21 E21.99338
G1 X111.427 Y134.17 E22.01172
G1 X110.889 Y134.051 E22.03004
G1 X110.374 Y133.855 E22.04837
G1 X109.907 Y133.597 E22.06612
G1 X99.868 Y127.078 E22.46424
G1 X99.429 Y126.745 E22.48256
G1 X99.043 Y126.352 E22.50089
G1 X98.717 Y125.908 E22.51921
G1 X98.46 Y125.421 E22.53752
G1 X98.275 Y124.902 E22.55585
G1 X98.167 Y124.361 E22.5742
G1 X98.138 Y123.842 E22.59149
G1 X98.262 Y114.124 E22.91473
G1 X98.42 Y99.462 E23.40242
G1 X98.511 Y94.594 E23.56436
G1 X98.588 Y91.742 E23.65925
G1 X98.655 Y89.708 E23.72694
G1 X98.713 Y89.16 E23.74527
G1 X98.845 Y88.638 E23.76318
G1 X98.89 Y88.502 E23.76794
G1 X99.101 Y87.993 E23.78627
G1 X99.383 Y87.52 E23.80458
G0 F6000 X99.744 Y87.703
G1 F1200 X100.08 Y87.305 E23.82191
G1 X100.428 Y86.998 E23.83734
G1 X100.544 Y86.909 E23.84221
G1 X100.981 Y86.625 E23.85954
G1 X101.456 Y86.41 E23.87688
G1 X102.163 Y86.237 E23.90109
G1 X102.275 Y86.222 E23.90485
G1 X102.795 Y86.193 E23.92217
G1 X103.314 Y86.243 E23.93951
G1 X103.819 Y86.372 E23.95685
G1 X104.298 Y86.577 E23.97418
G1 X104.578 Y86.741 E23.98497
G1 X104.775 Y86.869 E23.99279
G1 X105.189 Y87.186 E24.01013
G1 X105.55 Y87.562 E24.02746
G1 X105.849 Y87.989 E24.0448
G1 X106.079 Y88.456 E24.06212
G1 X106.214 Y88.865 E24.07644
G1 X106.958 Y91.728 E24.17483
G1 X108.345 Y96.98 E24.3555
G1 X108.826 Y98.835 E24.41924
G1 X109.571 Y101.838 E24.52214
G1 X110.564 Y106.008 E24.66472
G1 X110.874 Y107.358 E24.71079
G1 X111.381 Y109.542 E24.78536
G1 X112.6 Y114.917 E24.96867
G1 X113.103 Y117.166 E25.04532
G1 X114.106 Y121.73 E25.20074
G1 X114.923 Y125.574 E25.33145
G1 X115.778 Y129.724 E25.47238
G1 X115.844 Y130.241 E25.48972
G1 X115.83 Y130.762 E25.50705
G1 X115.736 Y131.274 E25.52436
G1 X115.566 Y131.767 E25.54171
G1 X115.322 Y132.227 E25.55903
G1 X115.01 Y132.645 E25.57638
G1 X114.638 Y133.01 E25.59371
G1 X114.215 Y133.315 E25.61106
G1 X113.751 Y133.551 E25.62837
G1 X113.255 Y133.713 E25.64572
G1 X112.741 Y133.797 E25.66305
G1 X112.448 Y133.81 E25.6728
G1 X111.977 Y133.81 E25.68847
G1 X111.457 Y133.77 E25.70581
G1 X110.95 Y133.651 E25.72313
G1 X110.467 Y133.456 E25.74046
G1 X110.125 Y133.262 E25.75354
G1 X100.086 Y126.743 E26.15166
G1 X99.672 Y126.426 E26.169
G1 X99.311 Y126.05 E26.18634
G1 X99.012 Y125.623 E26.20367
G1 X98.782 Y125.156 E26.22099
G1 X98.626 Y124.659 E26.23831
G1 X98.547 Y124.143 E26.25568
G1 X98.538 Y123.848 E26.26549
G1 X98.666 Y114.17 E26.58741
G1 X98.82 Y99.466 E27.0765
G1 X98.911 Y94.602 E27.2383
G1 X98.988 Y91.753 E27.33309
G1 X99.055 Y89.721 E27.40072
G1 X99.112 Y89.203 E27.41805
G1 X99.225 Y88.764 E27.43313
G1 X99.27 Y88.628 E27.43789
G1 X99.471 Y88.147 E27.45523
G1 X99.744 Y87.703 E27.47256
G0 F6000 X100.103 Y87.889
G1 F1200 X100.429 Y87.524 E27.48884
