;FLAVOR:Marlin
;TIME:3004
;Filament used: 1.67252m
;Layer height: 0.2
;MINX:97.571
;MINY:84.918
;MINZ:0.2
;MAXX:118.907
;MAXY:135.094
;MAXZ:109
;Generated with Cura_SteamEngine 4.6.1
M140 S60
M105
M190 S60
M104 S220
M105
M109 S220
M82 ;absolute extrusion mode
; Ender 3 Custom Start G-code
G92 E0 ; Reset Extruder
G28 ; Home all axes
G1 Z2.0 F3000 ; Move Z Axis up little to prevent scratching of Heat Bed
G1 X0.1 Y20 Z0.3 F5000.0 ; Move to start position
G1 X0.1 Y200.0 Z0.3 F1500.0 E15 ; Draw the first line
G1 X0.4 Y200.0 Z0.3 F5000.0 ; Move to side a little
G1 X0.4 Y20 Z0.3 F1500.0 E30 ; Draw the second line
G92 E0 ; Reset Extruder
G1 Z2.0 F3000 ; Move Z Axis up little to prevent scratching of Heat Bed
G1 X5 Y20 Z0.3 F5000.0 ; Move over to prevent blob squish
G92 E0
G92 E0
G1 F1500 E-6
;LAYER_COUNT:545
;LAYER:0
M107
G0 F6000 X100.41 Y87.014 Z0.2
;TYPE:SKIRT
G1 F1500 E0.04158
G1 F1200 X100.885 Y86.526 E0.06423
G1 X101.431 Y86.085 E0.08757
G1 X101.546 Y86.003 E0.09227
G1 X102.122 Y85.64 E0.11491
G1 X102.737 Y85.348 E0.13756
G1 X103.382 Y85.131 E0.16019
G1 X103.909 Y85.012 E0.17816
G1 X104.584 Y84.925 E0.2008
G1 X105.265 Y84.918 E0.22345
G1 X105.942 Y84.99 E0.24609
G1 X106.606 Y85.141 E0.26874
G1 X107.235 Y85.364 E0.29094
G1 X107.43 Y85.446 E0.29797
G1 X108.041 Y85.747 E0.32063
G1 X108.613 Y86.117 E0.34328
G1 X109.137 Y86.551 E0.36591
G1 X109.607 Y87.044 E0.38857
G1 X110.016 Y87.588 E0.41121
G1 X110.351 Y88.162 E0.43331
G1 X110.408 Y88.274 E0.43749
G1 X110.681 Y88.898 E0.46014
G1 X110.896 Y89.626 E0.48539
G1 X111.184 Y90.902 E0.5289
G1 X111.793 Y93.515 E0.61814
G1 X112.755 Y97.604 E0.75785
G1 X113.674 Y101.745 E0.89893
G1 X114.514 Y105.749 E1.035
G1 X115.341 Y109.843 E1.17392
G1 X116.149 Y113.914 E1.31196
G1 X116.942 Y117.993 E1.45017
G1 X117.713 Y122.085 E1.58867
G1 X118.459 Y126.19 E1.72744
G1 X118.828 Y128.288 E1.79829
G1 X118.907 Y128.964 E1.82092
G1 X118.905 Y129.645 E1.84358
G1 X118.824 Y130.321 E1.86622
G1 X118.665 Y130.983 E1.88886
G1 X118.428 Y131.622 E1.91153
G1 X118.119 Y132.228 E1.93416
G1 X117.741 Y132.794 E1.95679
G1 X117.299 Y133.312 E1.97944
G1 X116.799 Y133.775 E2.00211
G1 X116.248 Y134.175 E2.02475
G1 X115.655 Y134.509 E2.04739
G1 X115.026 Y134.77 E2.07004
G1 X114.371 Y134.957 E2.0927
G1 X113.699 Y135.065 E2.11533
G1 X113.116 Y135.094 E2.13475
G1 X112.609 Y135.094 E2.15161
G1 X111.929 Y135.054 E2.17427
G1 X111.259 Y134.935 E2.1969
G1 X110.607 Y134.738 E2.21955
G1 X109.983 Y134.466 E2.24219
G1 X109.451 Y134.159 E2.26262
G1 X100.208 Y128.16 E2.62912
G1 X99.66 Y127.757 E2.65175
G1 X99.163 Y127.292 E2.67438
G1 X98.723 Y126.771 E2.69706
G1 X98.348 Y126.203 E2.7197
G1 X98.042 Y125.595 E2.74234
G1 X97.809 Y124.955 E2.76499
G1 X97.652 Y124.293 E2.78762
G1 X97.575 Y123.616 E2.81029
G1 X97.571 Y123.062 E2.82871
G1 X98.083 Y110.223 E3.25608
G1 X98.344 Y103.286 E3.48697
G1 X98.481 Y99.841 E3.60164
G1 X98.702 Y95.037 E3.76159
G1 X98.955 Y90.614 E3.90894
G1 X99.034 Y89.937 E3.93161
G1 X99.192 Y89.275 E3.95425
G1 X99.371 Y88.762 E3.97232
G1 X99.648 Y88.14 E3.99496
G1 X99.996 Y87.555 E4.0176
G1 X100.41 Y87.014 E4.04026
G0 F6000 X100.758 Y87.224
G1 F1200 X101.223 Y86.76 E4.06211
G1 X101.663 Y86.41 E4.08081
G1 X101.778 Y86.328 E4.08551
G1 X102.335 Y85.98 E4.10735
G1 X102.93 Y85.702 E4.1292
G1 X103.555 Y85.499 E4.15105
G1 X103.983 Y85.405 E4.16563
G1 X104.635 Y85.322 E4.18749
G1 X105.292 Y85.32 E4.20934
G1 X105.944 Y85.397 E4.23118
G1 X106.583 Y85.552 E4.25305
G1 X107.08 Y85.733 E4.27064
G1 X107.275 Y85.815 E4.27767
G1 X107.864 Y86.106 E4.29952
G1 X108.413 Y86.467 E4.32138
G1 X108.915 Y86.891 E4.34323
G1 X109.361 Y87.373 E4.36507
G1 X109.746 Y87.906 E4.38694
G1 X109.995 Y88.344 E4.4037
G1 X110.052 Y88.456 E4.40788
G1 X110.313 Y89.058 E4.4297
G1 X110.506 Y89.714 E4.45245
G1 X110.795 Y90.992 E4.49603
G1 X111.405 Y93.607 E4.58534
G1 X112.365 Y97.69 E4.72484
G1 X113.283 Y101.827 E4.86579
G1 X114.123 Y105.831 E5.00186
G1 X114.949 Y109.922 E5.14067
G1 X115.757 Y113.992 E5.27868
G1 X116.549 Y118.069 E5.41682
G1 X117.32 Y122.159 E5.55525
G1 X118.065 Y126.262 E5.69395
G1 X118.434 Y128.357 E5.7647
G1 X118.509 Y129.01 E5.78656
G1 X118.503 Y129.667 E5.80841
G1 X118.418 Y130.319 E5.83028
G1 X118.254 Y130.955 E5.85213
G1 X118.015 Y131.566 E5.87395
G1 X117.702 Y132.145 E5.89584
G1 X117.322 Y132.68 E5.91767
G1 X116.88 Y133.166 E5.93952
G1 X116.382 Y133.595 E5.96138
G1 X115.835 Y133.959 E5.98323
G1 X115.249 Y134.255 E6.00507
G1 X114.631 Y134.477 E6.02691
G1 X113.99 Y134.623 E6.04877
G1 X113.116 Y134.694 E6.07794
G1 X112.609 Y134.694 E6.0948
G1 X111.953 Y134.654 E6.11666
G1 X111.307 Y134.535 E6.13851
G1 X110.68 Y134.338 E6.16037
G1 X110.082 Y134.066 E6.18222
G1 X109.669 Y133.824 E6.19814
G1 X100.426 Y127.825 E6.56464
G1 X99.898 Y127.434 E6.58649
G1 X99.421 Y126.982 E6.60835
G1 X99.002 Y126.476 E6.6302
G1 X98.648 Y125.922 E6.65206
G1 X98.364 Y125.33 E6.6739
G1 X98.154 Y124.708 E6.69574
G1 X98.021 Y124.064 E6.71761
G1 X97.967 Y123.41 E6.73943
G1 X97.97 Y123.078 E6.75048
G1 X98.483 Y110.238 E7.17788
G1 X98.744 Y103.301 E7.40877
G1 X98.88 Y99.857 E7.5234
G1 X99.102 Y95.06 E7.68312
G1 X99.355 Y90.637 E7.83047
G1 X99.432 Y89.984 E7.85234
G1 X99.693 Y89.041 E7.88489
G1 X99.745 Y88.903 E7.88979
G1 X100.013 Y88.303 E7.91165
G1 X100.353 Y87.741 E7.93349
G1 X100.758 Y87.224 E7.95534
G0 F6000 X101.105 Y87.436
G1 F1200 X101.56 Y86.997 E7.97637
G1 X101.895 Y86.736 E7.99049
G1 X102.01 Y86.654 E7.99519
G1 X102.547 Y86.32 E8.01622
G1 X103.122 Y86.057 E8.03725
G1 X103.984 Y85.812 E8.06706
G1 X104.058 Y85.798 E8.06956
G1 X104.685 Y85.72 E8.09058
G1 X105.317 Y85.722 E8.1116
G1 X105.944 Y85.803 E8.13263
G1 X106.555 Y85.963 E8.15363
G1 X106.925 Y86.102 E8.16678
G1 X107.12 Y86.184 E8.17381
G1 X107.686 Y86.465 E8.19483
G1 X108.212 Y86.816 E8.21586
G1 X108.69 Y87.23 E8.2369
G1 X109.111 Y87.701 E8.25791
G1 X109.47 Y88.222 E8.27895
G1 X109.695 Y88.637 E8.29465
G1 X109.946 Y89.218 E8.3157
G1 X110.116 Y89.803 E8.33597
G1 X110.405 Y91.083 E8.37961
G1 X111.015 Y93.698 E8.46892
G1 X111.974 Y97.777 E8.60829
G1 X112.891 Y101.909 E8.74906
G1 X113.731 Y105.913 E8.88514
G1 X114.557 Y110.001 E9.02385
G1 X115.364 Y114.07 E9.16182
G1 X116.156 Y118.145 E9.29989
G1 X116.927 Y122.233 E9.43826
G1 X117.671 Y126.333 E9.57685
G1 X118.04 Y128.427 E9.64757
G1 X118.11 Y129.055 E9.66859
G1 X118.101 Y129.687 E9.68961
G1 X118.011 Y130.313 E9.71065
G1 X117.843 Y130.922 E9.73166
G1 X117.6 Y131.506 E9.7527
G1 X117.285 Y132.054 E9.77372
G1 X116.904 Y132.558 E9.79473
G1 X116.462 Y133.01 E9.81576
G1 X115.966 Y133.402 E9.83679
G1 X115.425 Y133.729 E9.85781
G1 X114.847 Y133.985 E9.87884
G1 X114.241 Y134.166 E9.89987
G1 X113.617 Y134.269 E9.92091
G1 X113.116 Y134.294 E9.93759
G1 X112.609 Y134.294 E9.95445
G1 X111.978 Y134.254 E9.97548
G1 X111.357 Y134.135 E9.99651
G1 X110.757 Y133.938 E10.01752
G1 X110.185 Y133.667 E10.03857
G1 X109.887 Y133.488 E10.05013
G1 X100.644 Y127.489 E10.41663
G1 X100.136 Y127.112 E10.43767
G1 X99.681 Y126.674 E10.45868
G1 X99.284 Y126.182 E10.4797
G1 X98.952 Y125.644 E10.50073
G1 X98.691 Y125.068 E10.52176
G1 X98.505 Y124.464 E10.54278
G1 X98.396 Y123.841 E10.56382
G1 X98.37 Y123.094 E10.58868
G1 X98.883 Y110.254 E11.01608
G1 X99.144 Y103.316 E11.247
G1 X99.28 Y99.873 E11.36161
G1 X99.501 Y95.082 E11.52113
G1 X99.754 Y90.659 E11.66848
G1 X99.83 Y90.032 E11.68948
G1 X100.067 Y89.182 E11.71883
G1 X100.119 Y89.044 E11.72374
G1 X100.379 Y88.468 E11.74476
G1 X100.709 Y87.929 E11.76578
G1 X101.105 Y87.436 E11.78681
G0 F6000 X101.451 Y87.651
G1 F1200 X102.127 Y87.062 E11.81663
G1 X102.242 Y86.98 E11.82133
G1 X102.758 Y86.661 E11.8415
G1 X103.311 Y86.413 E11.86166
G1 X104.058 Y86.205 E11.88745
G1 X104.132 Y86.191 E11.88996
G1 X104.734 Y86.118 E11.91013
G1 X105.34 Y86.125 E11.93028
G1 X105.94 Y86.211 E11.95044
G1 X106.77 Y86.471 E11.97937
G1 X106.965 Y86.553 E11.98641
G1 X107.507 Y86.824 E12.00656
G1 X108.009 Y87.164 E12.02673
G1 X108.462 Y87.568 E12.04692
G1 X108.857 Y88.027 E12.06706
G1 X109.282 Y88.707 E12.09373
G1 X109.339 Y88.819 E12.09791
G1 X109.577 Y89.376 E12.11805
G1 X109.726 Y89.891 E12.13589
G1 X110.016 Y91.174 E12.17964
G1 X110.626 Y93.79 E12.26898
G1 X111.584 Y97.864 E12.40818
G1 X112.5 Y101.992 E12.54881
G1 X113.34 Y105.996 E12.68489
G1 X114.165 Y110.081 E12.8235
G1 X114.972 Y114.148 E12.9614
G1 X115.764 Y118.222 E13.09944
G1 X116.533 Y122.307 E13.2377
G1 X117.278 Y126.405 E13.37623
G1 X117.646 Y128.496 E13.44685
G1 X117.712 Y129.099 E13.46702
G1 X117.698 Y129.705 E13.48718
G1 X117.604 Y130.304 E13.50735
G1 X117.432 Y130.886 E13.52753
G1 X117.185 Y131.439 E13.54768
G1 X116.868 Y131.956 E13.56785
G1 X116.485 Y132.426 E13.58801
G1 X116.044 Y132.842 E13.60818
G1 X115.552 Y133.196 E13.62834
G1 X115.017 Y133.483 E13.64853
G1 X114.45 Y133.696 E13.66868
G1 X113.859 Y133.834 E13.68886
G1 X113.116 Y133.894 E13.71365
G1 X112.609 Y133.894 E13.73052
G1 X112.004 Y133.854 E13.75068
G1 X111.41 Y133.735 E13.77083
G1 X110.836 Y133.539 E13.79101
G1 X110.105 Y133.153 E13.8185
G1 X100.862 Y127.154 E14.185
G1 X100.376 Y126.791 E14.20517
G1 X99.942 Y126.367 E14.22535
G1 X99.568 Y125.89 E14.24551
G1 X99.26 Y125.368 E14.26567
G1 X99.023 Y124.81 E14.28584
G1 X98.861 Y124.226 E14.30599
G1 X98.778 Y123.625 E14.32617
G1 X98.77 Y123.11 E14.3433
G1 X99.282 Y110.27 E14.7707
G1 X99.543 Y103.331 E15.00166
G1 X99.68 Y99.889 E15.11623
G1 X99.901 Y95.105 E15.27552
G1 X100.154 Y90.682 E15.42287
G1 X100.228 Y90.081 E15.44301
G1 X100.441 Y89.323 E15.46919
G1 X100.493 Y89.185 E15.4741
G1 X100.744 Y88.633 E15.49427
G1 X101.065 Y88.119 E15.51442
G1 X101.451 Y87.651 E15.5346
G0 F6000 X101.796 Y87.87
G1 F1200 X102.36 Y87.387 E15.5593
G1 X102.475 Y87.305 E15.564
G1 X102.968 Y87.002 E15.58324
G1 X103.499 Y86.77 E15.60252
G1 X104.132 Y86.598 E15.62433
G1 X104.206 Y86.584 E15.62684
G1 X104.782 Y86.516 E15.64613
G1 X105.361 Y86.528 E15.66539
G1 X105.933 Y86.619 E15.68465
G1 X106.615 Y86.839 E15.70849
G1 X106.81 Y86.921 E15.71552
G1 X107.327 Y87.182 E15.73479
G1 X107.804 Y87.512 E15.75408
G1 X108.23 Y87.904 E15.77333
G1 X108.599 Y88.351 E15.79261
G1 X108.925 Y88.888 E15.81351
G1 X108.982 Y89 E15.81769
G1 X109.209 Y89.533 E15.83695
G1 X109.336 Y89.979 E15.85238
G1 X109.633 Y91.293 E15.89718
G1 X110.236 Y93.881 E15.98557
G1 X111.193 Y97.95 E16.1246
G1 X112.109 Y102.074 E16.2651
G1 X112.949 Y106.078 E16.40118
G1 X113.773 Y110.16 E16.53968
G1 X114.58 Y114.226 E16.67756
G1 X115.371 Y118.298 E16.81552
G1 X116.14 Y122.381 E16.95371
G1 X116.884 Y126.476 E17.09214
G1 X117.252 Y128.566 E17.16272
G1 X117.313 Y129.142 E17.18199
G1 X117.294 Y129.721 E17.20126
G1 X117.196 Y130.292 E17.22053
G1 X117.02 Y130.843 E17.23977
G1 X116.769 Y131.366 E17.25906
G1 X116.45 Y131.849 E17.27831
G1 X116.066 Y132.283 E17.29759
G1 X115.627 Y132.661 E17.31685
G1 X115.14 Y132.974 E17.33611
G1 X114.614 Y133.218 E17.35539
G1 X114.06 Y133.387 E17.37466
G1 X113.488 Y133.478 E17.39392
G1 X113.116 Y133.494 E17.40631
G1 X112.609 Y133.494 E17.42317
G1 X112.031 Y133.454 E17.44244
G1 X111.464 Y133.335 E17.46171
G1 X110.919 Y133.139 E17.48097
G1 X110.322 Y132.817 E17.50353
G1 X101.079 Y126.818 E17.87003
G1 X100.616 Y126.47 E17.8893
G1 X100.206 Y126.061 E17.90856
G1 X99.855 Y125.6 E17.92783
G1 X99.571 Y125.095 E17.9471
G1 X99.36 Y124.556 E17.96635
G1 X99.224 Y123.993 E17.98561
G1 X99.169 Y123.126 E18.01451
G1 X99.682 Y110.285 E18.44194
G1 X99.943 Y103.346 E18.6729
G1 X100.079 Y99.905 E18.78744
G1 X100.297 Y95.174 E18.94496
G1 X100.553 Y90.705 E19.09384
G1 X100.626 Y90.13 E19.11312
G1 X100.816 Y89.464 E19.13615
G1 X100.868 Y89.326 E19.14106
G1 X101.109 Y88.799 E19.16033
G1 X101.42 Y88.311 E19.17958
G1 X101.796 Y87.87 E19.19885
G0 F6000 X101.774 Y88.505
G1 F1200 X102.139 Y88.092 E19.21719
G1 X102.592 Y87.713 E19.23683
G1 X102.707 Y87.631 E19.24153
G1 X103.177 Y87.344 E19.25984
G1 X103.685 Y87.129 E19.27819
G1 X104.207 Y86.991 E19.29615
G1 X104.281 Y86.977 E19.29865
G1 X104.828 Y86.914 E19.31697
G1 X105.379 Y86.931 E19.3353
G1 X105.921 Y87.028 E19.35362
G1 X106.46 Y87.208 E19.37252
G1 X106.655 Y87.29 E19.37955
G1 X107.146 Y87.54 E19.39788
G1 X107.596 Y87.858 E19.41621
G1 X107.995 Y88.238 E19.43453
G1 X108.335 Y88.672 E19.45287
G1 X108.569 Y89.069 E19.4682
G1 X108.626 Y89.181 E19.47238
G1 X108.839 Y89.689 E19.4907
G1 X108.945 Y90.067 E19.50375
G1 X109.236 Y91.356 E19.54771
G1 X109.847 Y93.973 E19.63709
G1 X110.792 Y97.991 E19.77437
G1 X111.708 Y102.112 E19.91478
G1 X112.557 Y106.16 E20.05235
G1 X113.381 Y110.239 E20.19076
G1 X114.187 Y114.303 E20.32856
G1 X114.978 Y118.374 E20.4665
G1 X115.747 Y122.455 E20.60462
G1 X116.491 Y126.548 E20.74298
G1 X116.858 Y128.635 E20.81346
G1 X116.914 Y129.183 E20.83178
G1 X116.89 Y129.734 E20.85013
G1 X116.787 Y130.275 E20.86844
G1 X116.607 Y130.795 E20.88675
G1 X116.353 Y131.284 E20.90507
G1 X116.031 Y131.732 E20.92342
G1 X115.648 Y132.128 E20.94175
G1 X115.211 Y132.464 E20.96008
G1 X114.731 Y132.734 E20.9784
G1 X114.217 Y132.931 E20.99671
G1 X113.679 Y133.052 E21.01505
G1 X113.116 Y133.094 E21.03383
G1 X112.609 Y133.094 E21.05069
G1 X112.059 Y133.054 E21.06903
G1 X111.521 Y132.935 E21.08736
G1 X111.006 Y132.739 E21.10568
G1 X110.54 Y132.481 E21.1234
G1 X101.297 Y126.482 E21.4899
G1 X100.858 Y126.15 E21.5082
G1 X100.472 Y125.757 E21.52653
G1 X100.146 Y125.313 E21.54485
G1 X99.888 Y124.826 E21.56318
G1 X99.703 Y124.307 E21.5815
G1 X99.595 Y123.766 E21.59985
G1 X99.569 Y123.142 E21.62062
G1 X100.082 Y110.301 E22.04806
G1 X100.343 Y103.361 E22.27905
G1 X100.479 Y99.921 E22.39355
G1 X100.697 Y95.193 E22.55097
G1 X100.952 Y90.728 E22.69972
G1 X101.023 Y90.182 E22.71803
G1 X101.19 Y89.605 E22.73801
G1 X101.242 Y89.467 E22.74292
G1 X101.473 Y88.967 E22.76124
G1 X101.774 Y88.505 E22.77958
G0 F6000 X102.127 Y88.703
G1 F1200 X102.48 Y88.32 E22.7969
G1 X102.824 Y88.039 E22.81167
G1 X102.939 Y87.957 E22.81637
G1 X103.385 Y87.688 E22.83369
G1 X103.867 Y87.49 E22.85103
G1 X104.355 Y87.37 E22.86774
G1 X104.873 Y87.313 E22.88507
G1 X105.394 Y87.335 E22.90242
G1 X105.905 Y87.437 E22.91975
G1 X106.305 Y87.577 E22.93384
G1 X106.5 Y87.659 E22.94088
G1 X106.963 Y87.897 E22.95819
G1 X107.385 Y88.203 E22.97553
G1 X107.755 Y88.57 E22.99286
G1 X108.064 Y88.99 E23.01021
G1 X108.212 Y89.251 E23.02019
G1 X108.269 Y89.363 E23.02437
G1 X108.469 Y89.844 E23.04169
G1 X108.555 Y90.155 E23.05242
G1 X108.847 Y91.447 E23.09648
G1 X109.458 Y94.065 E23.1859
G1 X110.403 Y98.083 E23.32318
G1 X111.317 Y102.199 E23.46341
G1 X112.166 Y106.242 E23.60082
G1 X112.989 Y110.318 E23.73912
G1 X113.795 Y114.381 E23.87689
G1 X114.586 Y118.451 E24.01479
G1 X115.354 Y122.529 E24.15281
G1 X116.097 Y126.619 E24.29107
G1 X116.464 Y128.704 E24.36149
G1 X116.515 Y129.223 E24.37883
G1 X116.486 Y129.743 E24.39615
G1 X116.378 Y130.253 E24.41349
G1 X116.193 Y130.74 E24.43082
G1 X115.936 Y131.194 E24.44817
G1 X115.612 Y131.602 E24.4655
G1 X115.23 Y131.957 E24.48284
G1 X114.798 Y132.249 E24.50019
G1 X114.327 Y132.471 E24.51751
G1 X113.827 Y132.619 E24.53485
G1 X113.116 Y132.694 E24.55863
G1 X112.609 Y132.694 E24.57549
G1 X112.089 Y132.654 E24.59284
G1 X111.582 Y132.535 E24.61016
G1 X111.099 Y132.34 E24.62748
G1 X110.758 Y132.146 E24.64053
G1 X101.515 Y126.147 E25.00703
G1 X101.101 Y125.831 E25.02435
G1 X100.74 Y125.455 E25.04169
G1 X100.441 Y125.028 E25.05903
G1 X100.21 Y124.56 E25.07638
G1 X100.054 Y124.063 E25.09371
G1 X99.975 Y123.548 E25.11104
G1 X99.969 Y123.158 E25.12401
G1 X100.376 Y113.035 E25.46098
G1 X100.384 Y112.963 E25.46339
G1 X100.742 Y103.376 E25.78247
G1 X100.879 Y99.936 E25.89698
G1 X101.097 Y95.211 E26.0543
G1 X101.352 Y90.751 E26.20288
G1 X101.421 Y90.234 E26.22023
G1 X101.564 Y89.746 E26.23714
G1 X101.616 Y89.608 E26.24205
