;FLAVOR:Marlin
;TIME:3578
;Filament used: 2.26672m
;Layer height: 0.2
;MINX:101.76
;MINY:83.793
;MINZ:0.2
;MAXX:123.863
;MAXY:136.21
;MAXZ:128.8
;Generated with Cura_SteamEngine 4.6.1
M140 S60
M105
M190 S60
M104 S220
M105
M109 S220
M82 ;absolute extrusion mode
; Ender 3 Custom Start G-code
G92 E0 ; Reset Extruder
G28 ; Home all axes
G1 Z2.0 F3000 ; Move Z Axis up little to prevent scratching of Heat Bed
G1 X0.1 Y20 Z0.3 F5000.0 ; Move to start position
G1 X0.1 Y200.0 Z0.3 F1500.0 E15 ; Draw the first line
G1 X0.4 Y200.0 Z0.3 F5000.0 ; Move to side a little
G1 X0.4 Y20 Z0.3 F1500.0 E30 ; Draw the second line
G92 E0 ; Reset Extruder
G1 Z2.0 F3000 ; Move Z Axis up little to prevent scratching of Heat Bed
G1 X5 Y20 Z0.3 F5000.0 ; Move over to prevent blob squish
G92 E0
G92 E0
G1 F1500 E-6
;LAYER_COUNT:644
;LAYER:0
M107
G0 F6000 X112.313 Y86.414 Z0.2
;TYPE:SKIRT
G1 F1500 E0.04158
G1 F1200 X112.733 Y85.879 E0.0642
G1 X113.213 Y85.396 E0.08685
G1 X113.895 Y84.872 E0.11545
G1 X114.09 Y84.744 E0.12321
G1 X114.68 Y84.405 E0.14584
G1 X115.306 Y84.137 E0.16849
G1 X115.959 Y83.944 E0.19114
G1 X116.63 Y83.829 E0.21378
G1 X117.31 Y83.793 E0.23643
G1 X117.99 Y83.837 E0.25909
G1 X118.771 Y83.99 E0.28556
G1 X118.943 Y84.036 E0.29149
G1 X119.59 Y84.25 E0.31415
G1 X120.207 Y84.539 E0.33681
G1 X120.785 Y84.897 E0.35943
G1 X121.318 Y85.322 E0.3821
G1 X121.797 Y85.805 E0.40472
G1 X122.108 Y86.189 E0.42116
G1 X122.199 Y86.312 E0.42625
G1 X122.571 Y86.883 E0.44891
G1 X122.874 Y87.492 E0.47154
G1 X123.103 Y88.134 E0.49421
G1 X123.255 Y88.797 E0.51683
G1 X123.332 Y89.559 E0.54231
G1 X123.435 Y92.503 E0.64028
G1 X123.505 Y95.314 E0.73381
G1 X123.587 Y99.967 E0.88859
G1 X123.737 Y114.165 E1.36084
G1 X123.863 Y123.815 E1.68183
G1 X123.831 Y124.495 E1.70447
G1 X123.721 Y125.167 E1.72712
G1 X123.532 Y125.821 E1.74976
G1 X123.268 Y126.449 E1.77242
G1 X122.932 Y127.041 E1.79506
G1 X122.529 Y127.59 E1.81771
G1 X122.065 Y128.088 E1.84035
G1 X121.545 Y128.528 E1.86301
G1 X121.222 Y128.754 E1.87612
G1 X111.182 Y135.274 E2.27429
G1 X110.59 Y135.611 E2.29694
G1 X109.963 Y135.876 E2.31958
G1 X109.309 Y136.066 E2.34224
G1 X108.637 Y136.177 E2.36489
G1 X108.023 Y136.21 E2.38534
G1 X107.554 Y136.21 E2.40094
G1 X106.874 Y136.17 E2.4236
G1 X106.204 Y136.051 E2.44623
G1 X105.552 Y135.854 E2.46888
G1 X104.928 Y135.582 E2.49152
G1 X104.34 Y135.238 E2.51418
G1 X103.796 Y134.828 E2.53684
G1 X103.305 Y134.357 E2.55947
G1 X102.871 Y133.832 E2.58212
G1 X102.502 Y133.26 E2.60476
G1 X102.203 Y132.648 E2.62742
G1 X101.978 Y132.006 E2.65004
G1 X101.829 Y131.341 E2.67271
G1 X101.76 Y130.664 E2.69534
G1 X101.77 Y129.983 E2.718
G1 X101.873 Y129.241 E2.74291
G1 X102.723 Y125.111 E2.88316
G1 X103.543 Y121.253 E3.01434
G1 X104.549 Y116.666 E3.17053
G1 X105.527 Y112.312 E3.31895
G1 X106.276 Y109.024 E3.43111
G1 X107.37 Y104.31 E3.59207
G1 X108.246 Y100.658 E3.71698
G1 X108.84 Y98.28 E3.7985
G1 X109.468 Y95.851 E3.88195
G1 X110.877 Y90.523 E4.06525
G1 X111.437 Y88.339 E4.14024
G1 X111.674 Y87.614 E4.16561
G1 X111.958 Y86.996 E4.18823
G1 X112.313 Y86.414 E4.21091
G0 F6000 X112.668 Y86.605
G1 F1200 X113.079 Y86.092 E4.23277
G1 X113.549 Y85.633 E4.25462
G1 X114.115 Y85.207 E4.27818
G1 X114.31 Y85.079 E4.28594
G1 X114.88 Y84.752 E4.3078
G1 X115.485 Y84.497 E4.32963
G1 X116.117 Y84.318 E4.35148
G1 X116.767 Y84.217 E4.37336
G1 X117.423 Y84.195 E4.39519
G1 X118.078 Y84.253 E4.41706
G1 X118.668 Y84.376 E4.4371
G1 X118.84 Y84.422 E4.44303
G1 X119.463 Y84.63 E4.46487
G1 X120.057 Y84.913 E4.48676
G1 X120.611 Y85.265 E4.50859
G1 X121.119 Y85.682 E4.53045
G1 X121.572 Y86.157 E4.55228
G1 X121.786 Y86.427 E4.56374
G1 X121.877 Y86.55 E4.56883
G1 X122.235 Y87.101 E4.59068
G1 X122.523 Y87.692 E4.61255
G1 X122.738 Y88.312 E4.63437
G1 X122.875 Y88.955 E4.65624
G1 X122.933 Y89.573 E4.67688
G1 X123.035 Y92.513 E4.77473
G1 X123.105 Y95.324 E4.86825
G1 X123.187 Y99.974 E5.02293
G1 X123.337 Y114.165 E5.49496
G1 X123.463 Y123.82 E5.81611
G1 X123.431 Y124.477 E5.83799
G1 X123.32 Y125.124 E5.85982
G1 X123.131 Y125.753 E5.88167
G1 X122.868 Y126.355 E5.90352
G1 X122.533 Y126.92 E5.92536
G1 X122.132 Y127.441 E5.94723
G1 X121.67 Y127.908 E5.96908
G1 X121.004 Y128.419 E5.997
G1 X110.964 Y134.939 E6.39517
G1 X110.392 Y135.262 E6.41701
G1 X109.786 Y135.514 E6.43884
G1 X109.153 Y135.691 E6.4607
G1 X108.503 Y135.789 E6.48257
G1 X108.023 Y135.81 E6.49855
G1 X107.554 Y135.81 E6.51415
G1 X106.898 Y135.77 E6.53601
G1 X106.252 Y135.651 E6.55785
G1 X105.625 Y135.454 E6.57971
G1 X105.027 Y135.182 E6.60156
G1 X104.466 Y134.84 E6.62342
G1 X103.951 Y134.432 E6.64527
G1 X103.489 Y133.965 E6.66712
G1 X103.088 Y133.445 E6.68896
G1 X102.752 Y132.881 E6.71079
G1 X102.488 Y132.279 E6.73266
G1 X102.298 Y131.65 E6.75451
G1 X102.187 Y131.003 E6.77635
G1 X102.154 Y130.347 E6.79819
G1 X102.202 Y129.691 E6.82007
G1 X102.265 Y129.321 E6.83255
G1 X103.115 Y125.191 E6.9728
G1 X103.934 Y121.337 E7.10384
G1 X104.939 Y116.752 E7.25996
G1 X105.917 Y112.4 E7.40832
G1 X106.666 Y109.113 E7.52045
G1 X107.76 Y104.4 E7.68137
G1 X108.634 Y100.755 E7.80604
G1 X109.228 Y98.377 E7.88756
G1 X109.855 Y95.952 E7.97087
G1 X111.254 Y90.664 E8.1528
G1 X111.824 Y88.438 E8.22923
G1 X112.047 Y87.76 E8.25297
G1 X112.322 Y87.163 E8.27483
G1 X112.668 Y86.605 E8.29666
G0 F6000 X113.022 Y86.797
G1 F1200 X113.424 Y86.308 E8.31772
G1 X113.884 Y85.874 E8.33875
G1 X114.334 Y85.541 E8.35737
G1 X114.529 Y85.413 E8.36513
G1 X115.079 Y85.1 E8.38618
G1 X115.663 Y84.859 E8.40719
G1 X116.273 Y84.694 E8.42821
G1 X116.899 Y84.607 E8.44923
G1 X117.531 Y84.6 E8.47025
G1 X118.159 Y84.672 E8.49128
G1 X118.565 Y84.763 E8.50512
G1 X118.737 Y84.809 E8.51104
G1 X119.336 Y85.01 E8.53205
G1 X119.905 Y85.286 E8.55309
G1 X120.434 Y85.631 E8.57409
G1 X120.916 Y86.04 E8.59512
G1 X121.465 Y86.665 E8.62278
G1 X121.556 Y86.788 E8.62787
G1 X121.899 Y87.319 E8.6489
G1 X122.172 Y87.889 E8.66992
G1 X122.371 Y88.489 E8.69094
G1 X122.493 Y89.109 E8.71196
G1 X122.533 Y89.587 E8.72792
G1 X122.635 Y92.523 E8.82563
G1 X122.705 Y95.334 E8.91915
G1 X122.787 Y99.981 E9.07373
G1 X122.937 Y114.176 E9.54589
G1 X123.063 Y123.826 E9.86687
G1 X123.031 Y124.457 E9.88789
G1 X122.92 Y125.079 E9.9089
G1 X122.731 Y125.682 E9.92992
G1 X122.467 Y126.257 E9.95097
G1 X122.133 Y126.794 E9.972
G1 X121.734 Y127.284 E9.99302
G1 X121.277 Y127.72 E10.01402
G1 X120.786 Y128.083 E10.03433
G1 X110.746 Y134.603 E10.4325
G1 X110.195 Y134.913 E10.45353
G1 X109.61 Y135.152 E10.47455
G1 X108.999 Y135.314 E10.49557
G1 X108.372 Y135.398 E10.51661
G1 X108.023 Y135.41 E10.52823
G1 X107.554 Y135.41 E10.54382
G1 X106.923 Y135.37 E10.56485
G1 X106.302 Y135.251 E10.58588
G1 X105.702 Y135.054 E10.60689
G1 X105.13 Y134.783 E10.62794
G1 X104.598 Y134.443 E10.64894
G1 X104.113 Y134.037 E10.66998
G1 X103.683 Y133.574 E10.69099
G1 X103.314 Y133.06 E10.71204
G1 X103.014 Y132.504 E10.73305
G1 X102.786 Y131.915 E10.75406
G1 X102.634 Y131.301 E10.7751
G1 X102.561 Y130.673 E10.79612
G1 X102.568 Y130.041 E10.81715
G1 X102.657 Y129.402 E10.8386
G1 X103.507 Y125.272 E10.97885
G1 X104.325 Y121.42 E11.10982
G1 X105.33 Y116.838 E11.26584
G1 X106.308 Y112.488 E11.41414
G1 X107.056 Y109.201 E11.52626
G1 X108.15 Y104.491 E11.68708
G1 X109.011 Y100.898 E11.80997
G1 X109.616 Y98.474 E11.89307
G1 X110.242 Y96.052 E11.97627
G1 X111.65 Y90.728 E12.15943
G1 X112.212 Y88.538 E12.23463
G1 X112.419 Y87.905 E12.25678
G1 X112.686 Y87.332 E12.27781
G1 X113.022 Y86.797 E12.29882
G0 F6000 X113.376 Y86.99
G1 F1200 X113.767 Y86.527 E12.31898
G1 X114.216 Y86.12 E12.33913
G1 X114.554 Y85.875 E12.35302
G1 X114.749 Y85.747 E12.36078
G1 X115.276 Y85.449 E12.38091
G1 X115.839 Y85.222 E12.4011
G1 X116.426 Y85.072 E12.42125
G1 X117.028 Y85 E12.44142
G1 X117.634 Y85.007 E12.46158
G1 X118.461 Y85.149 E12.48949
G1 X118.633 Y85.195 E12.49541
G1 X119.208 Y85.39 E12.5156
G1 X119.751 Y85.659 E12.53576
G1 X120.255 Y85.997 E12.55594
G1 X120.709 Y86.398 E12.57609
G1 X121.143 Y86.903 E12.59823
G1 X121.234 Y87.026 E12.60332
G1 X121.562 Y87.536 E12.62349
G1 X121.819 Y88.085 E12.64365
G1 X122.003 Y88.663 E12.66383
G1 X122.109 Y89.26 E12.68399
G1 X122.133 Y89.601 E12.69536
G1 X122.234 Y92.486 E12.79138
G1 X122.306 Y95.343 E12.88643
G1 X122.387 Y99.988 E13.04095
G1 X122.537 Y114.173 E13.51277
G1 X122.663 Y123.831 E13.83402
G1 X122.63 Y124.436 E13.85418
G1 X122.519 Y125.032 E13.87434
G1 X122.33 Y125.608 E13.8945
G1 X122.067 Y126.155 E13.91469
G1 X121.734 Y126.661 E13.93484
G1 X121.338 Y127.12 E13.955
G1 X120.885 Y127.523 E13.97517
G1 X120.568 Y127.748 E13.9881
G1 X110.528 Y134.268 E14.38626
G1 X109.999 Y134.564 E14.40642
G1 X109.436 Y134.788 E14.42658
G1 X108.848 Y134.935 E14.44674
G1 X108.023 Y135.01 E14.47429
G1 X107.554 Y135.01 E14.48989
G1 X106.949 Y134.97 E14.51005
G1 X106.355 Y134.851 E14.5302
G1 X105.781 Y134.655 E14.55038
G1 X105.238 Y134.384 E14.57056
G1 X104.735 Y134.045 E14.59074
G1 X104.282 Y133.643 E14.61088
G1 X103.885 Y133.185 E14.63104
G1 X103.552 Y132.678 E14.65121
G1 X103.288 Y132.132 E14.67139
G1 X103.099 Y131.556 E14.69155
G1 X102.987 Y130.96 E14.71172
G1 X102.954 Y130.355 E14.73187
G1 X103.048 Y129.483 E14.76104
G1 X103.898 Y125.353 E14.90129
G1 X104.716 Y121.503 E15.0322
G1 X105.721 Y116.923 E15.18815
G1 X106.698 Y112.575 E15.33637
G1 X107.446 Y109.29 E15.44843
G1 X108.539 Y104.581 E15.60921
G1 X109.4 Y100.992 E15.73197
G1 X110.004 Y98.571 E15.81496
G1 X110.629 Y96.152 E15.89806
G1 X112.028 Y90.863 E16.08002
G1 X112.599 Y88.637 E16.15646
G1 X112.792 Y88.05 E16.17701
G1 X113.049 Y87.501 E16.19717
G1 X113.376 Y86.99 E16.21735
G0 F6000 X113.729 Y87.187
G1 F1200 X114.109 Y86.75 E16.23661
G1 X114.773 Y86.21 E16.26508
G1 X114.968 Y86.082 E16.27283
G1 X115.473 Y85.798 E16.2921
G1 X116.013 Y85.587 E16.31139
G1 X116.576 Y85.451 E16.33065
G1 X117.152 Y85.395 E16.3499
G1 X117.731 Y85.418 E16.36917
G1 X118.358 Y85.536 E16.39039
G1 X118.53 Y85.582 E16.39631
G1 X119.078 Y85.77 E16.41558
G1 X119.595 Y86.031 E16.43485
G1 X120.071 Y86.361 E16.45411
G1 X120.497 Y86.754 E16.47339
G1 X120.821 Y87.141 E16.49018
G1 X120.912 Y87.264 E16.49526
G1 X121.224 Y87.752 E16.51453
G1 X121.465 Y88.279 E16.5338
G1 X121.632 Y88.834 E16.55308
G1 X121.733 Y89.615 E16.57927
G1 X121.834 Y92.5 E16.67529
G1 X121.906 Y95.353 E16.77021
G1 X121.987 Y99.995 E16.92462
G1 X122.136 Y114.184 E17.39658
G1 X122.263 Y123.836 E17.71763
G1 X122.23 Y124.414 E17.73689
G1 X122.118 Y124.983 E17.75618
G1 X121.929 Y125.53 E17.77543
G1 X121.667 Y126.047 E17.7947
G1 X121.336 Y126.522 E17.81396
G1 X120.943 Y126.947 E17.83321
G1 X120.35 Y127.412 E17.85828
G1 X110.31 Y133.932 E18.25644
G1 X109.804 Y134.214 E18.27571
G1 X109.264 Y134.423 E18.29497
G1 X108.7 Y134.555 E18.31423
G1 X108.023 Y134.61 E18.33683
G1 X107.554 Y134.61 E18.35242
G1 X106.976 Y134.57 E18.3717
G1 X106.409 Y134.451 E18.39096
G1 X105.864 Y134.255 E18.41023
G1 X105.351 Y133.986 E18.42949
G1 X104.88 Y133.649 E18.44876
G1 X104.46 Y133.25 E18.46802
G1 X104.098 Y132.797 E18.48731
G1 X103.803 Y132.299 E18.50656
G1 X103.578 Y131.765 E18.52584
G1 X103.43 Y131.205 E18.5451
G1 X103.36 Y130.63 E18.56437
G1 X103.369 Y130.051 E18.58363
G1 X103.44 Y129.563 E18.60003
G1 X104.29 Y125.433 E18.74027
G1 X105.108 Y121.586 E18.87108
G1 X106.112 Y117.009 E19.02694
G1 X107.088 Y112.663 E19.17508
G1 X107.836 Y109.379 E19.28711
G1 X108.929 Y104.672 E19.44783
G1 X109.789 Y101.085 E19.57051
G1 X110.392 Y98.668 E19.65337
G1 X111.017 Y96.252 E19.73637
G1 X112.424 Y90.932 E19.9194
G1 X112.987 Y88.736 E19.9948
G1 X113.165 Y88.196 E20.01371
G1 X113.412 Y87.672 E20.03298
G1 X113.729 Y87.187 E20.05225
G0 F6000 X114.081 Y87.385
G1 F1200 X114.45 Y86.976 E20.07057
G1 X114.993 Y86.544 E20.09365
G1 X115.188 Y86.416 E20.10141
G1 X115.669 Y86.148 E20.11972
G1 X116.184 Y85.952 E20.13805
G1 X116.722 Y85.833 E20.15637
G1 X117.272 Y85.793 E20.17472
G1 X117.821 Y85.833 E20.19302
G1 X118.255 Y85.922 E20.20776
G1 X118.427 Y85.968 E20.21368
G1 X118.947 Y86.149 E20.23199
G1 X119.436 Y86.403 E20.25032
G1 X119.883 Y86.725 E20.26864
G1 X120.279 Y87.108 E20.28697
G1 X120.5 Y87.379 E20.2986
G1 X120.591 Y87.502 E20.30369
G1 X120.886 Y87.967 E20.322
G1 X121.11 Y88.471 E20.34035
G1 X121.259 Y89.001 E20.35866
G1 X121.334 Y89.629 E20.37969
G1 X121.435 Y92.514 E20.47571
G1 X121.506 Y95.363 E20.5705
G1 X121.587 Y100.002 E20.72481
G1 X121.737 Y114.18 E21.1964
G1 X121.863 Y123.841 E21.51776
G1 X121.83 Y124.391 E21.53608
G1 X121.718 Y124.931 E21.55442
G1 X121.529 Y125.448 E21.57273
G1 X121.267 Y125.933 E21.59107
G1 X120.938 Y126.375 E21.60939
G1 X120.548 Y126.765 E21.62774
G1 X120.133 Y127.077 E21.64501
G1 X110.093 Y133.597 E22.04317
G1 X109.61 Y133.863 E22.06151
G1 X109.094 Y134.056 E22.07984
G1 X108.555 Y134.173 E22.09818
G1 X108.023 Y134.21 E22.11592
G1 X107.554 Y134.21 E22.13152
G1 X107.004 Y134.17 E22.14986
G1 X106.466 Y134.051 E22.16819
G1 X105.951 Y133.855 E22.18651
G1 X105.47 Y133.587 E22.20483
G1 X105.032 Y133.253 E22.22315
G1 X104.648 Y132.858 E22.24147
G1 X104.324 Y132.412 E22.2598
G1 X104.069 Y131.924 E22.27812
G1 X103.886 Y131.404 E22.29645
G1 X103.781 Y130.863 E22.31478
G1 X103.755 Y130.313 E22.3331
G1 X103.832 Y129.644 E22.35549
G1 X104.682 Y125.514 E22.49574
G1 X105.499 Y121.669 E22.62648
G1 X106.502 Y117.095 E22.78222
G1 X107.478 Y112.751 E22.93031
G1 X108.226 Y109.468 E23.0423
G1 X109.319 Y104.762 E23.20299
G1 X110.178 Y101.178 E23.32557
G1 X110.78 Y98.765 E23.40829
G1 X111.404 Y96.352 E23.49118
G1 X112.81 Y91.034 E23.67414
G1 X113.374 Y88.836 E23.74961
G1 X113.538 Y88.341 E23.76695
G1 X113.774 Y87.843 E23.78528
G1 X114.081 Y87.385 E23.80362
G0 F6000 X114.431 Y87.587
G1 F1200 X114.788 Y87.207 E23.82096
G1 X115.212 Y86.879 E23.83879
G1 X115.407 Y86.751 E23.84655
G1 X115.864 Y86.499 E23.86391
G1 X116.353 Y86.32 E23.88123
G1 X116.864 Y86.218 E23.89856
G1 X117.385 Y86.195 E23.91591
G1 X118.151 Y86.308 E23.94166
G1 X118.323 Y86.354 E23.94758
G1 X118.815 Y86.527 E23.96493
G1 X119.275 Y86.773 E23.98228
G1 X119.691 Y87.086 E23.99959
G1 X120.178 Y87.617 E24.02356
G1 X120.269 Y87.74 E24.02865
G1 X120.546 Y88.181 E24.04597
G1 X120.752 Y88.66 E24.06331
G1 X120.883 Y89.164 E24.08063
G1 X120.934 Y89.643 E24.09665
G1 X121.035 Y92.528 E24.19266
G1 X121.106 Y95.373 E24.28732
G1 X121.187 Y100.009 E24.44154
G1 X121.336 Y114.19 E24.91322
G1 X121.463 Y123.846 E25.23441
G1 X121.429 Y124.366 E25.25174
G1 X121.317 Y124.875 E25.26908
G1 X121.128 Y125.361 E25.28642
G1 X120.868 Y125.812 E25.30374
G1 X120.541 Y126.218 E25.32108
G1 X120.156 Y126.57 E25.33843
G1 X119.915 Y126.741 E25.34826
G1 X109.875 Y133.261 E25.74642
G1 X109.417 Y133.511 E25.76378
G1 X108.927 Y133.688 E25.78111
G1 X108.415 Y133.787 E25.79845
G1 X108.023 Y133.81 E25.81151
G1 X107.554 Y133.81 E25.82711
G1 X107.034 Y133.77 E25.84446
G1 X106.527 Y133.651 E25.86178
G1 X106.044 Y133.456 E25.8791
G1 X105.596 Y133.19 E25.89643
G1 X105.194 Y132.858 E25.91377
G1 X104.848 Y132.468 E25.93111
G1 X104.565 Y132.03 E25.94846
G1 X104.352 Y131.555 E25.96577
G1 X104.215 Y131.052 E25.98311
G1 X104.156 Y130.534 E26.00045
G1 X104.177 Y130.013 E26.01779
G1 X104.224 Y129.725 E26.0275
G1 X105.074 Y125.595 E26.16774
G1 X105.89 Y121.752 E26.29841
G1 X106.893 Y117.181 E26.45406
G1 X107.869 Y112.838 E26.60211
G1 X108.616 Y109.556 E26.71406
G1 X109.708 Y104.853 E26.87465
G1 X110.567 Y101.271 E26.99716
G1 X111.168 Y98.862 E27.07974
G1 X111.791 Y96.452 E27.16253
G1 X113.197 Y91.137 E27.34539
G1 X113.762 Y88.935 E27.421
G1 X113.91 Y88.486 E27.43673
G1 X114.136 Y88.016 E27.45407
G1 X114.431 Y87.587 E27.47139
G0 F6000 X114.497 Y88.191
G1 F1200 X114.78 Y87.792 E27.48766
G1 X115.125 Y87.444 E27.50396
G1 X115.432 Y87.213 E27.51674
G1 X115.627 Y87.085 E27.52449
