;FLAVOR:Marlin
;TIME:3008
;Filament used: 1.67252m
;Layer height: 0.2
;MINX:101.091
;MINY:84.91
;MINZ:0.2
;MAXX:122.428
;MAXY:135.094
;MAXZ:109
;Generated with Cura_SteamEngine 4.6.1
M140 S60
M105
M190 S60
M104 S220
M105
M109 S220
M82 ;absolute extrusion mode
; Ender 3 Custom Start G-code
G92 E0 ; Reset Extruder
G28 ; Home all axes
G1 Z2.0 F3000 ; Move Z Axis up little to prevent scratching of Heat Bed
G1 X0.1 Y20 Z0.3 F5000.0 ; Move to start position
G1 X0.1 Y200.0 Z0.3 F1500.0 E15 ; Draw the first line
G1 X0.4 Y200.0 Z0.3 F5000.0 ; Move to side a little
G1 X0.4 Y20 Z0.3 F1500.0 E30 ; Draw the second line
G92 E0 ; Reset Extruder
G1 Z2.0 F3000 ; Move Z Axis up little to prevent scratching of Heat Bed
G1 X5 Y20 Z0.3 F5000.0 ; Move over to prevent blob squish
G92 E0
G92 E0
G1 F1500 E-6
;LAYER_COUNT:545
;LAYER:0
M107
G0 F6000 X110.341 Y87.107 Z0.2
;TYPE:SKIRT
G1 F1500 E0.04158
G1 F1200 X110.804 Y86.608 E0.06422
G1 X111.322 Y86.166 E0.08686
G1 X111.751 Y85.871 E0.10418
G1 X111.873 Y85.795 E0.10896
G1 X112.471 Y85.47 E0.1316
G1 X113.103 Y85.216 E0.15425
G1 X113.761 Y85.039 E0.17692
G1 X114.381 Y84.945 E0.19777
G1 X115.061 Y84.91 E0.22042
G1 X115.741 Y84.956 E0.24309
G1 X116.41 Y85.081 E0.26572
G1 X117.06 Y85.283 E0.28836
G1 X117.661 Y85.55 E0.31024
G1 X117.85 Y85.647 E0.3173
G1 X118.437 Y85.993 E0.33997
G1 X118.979 Y86.405 E0.36261
G1 X119.468 Y86.878 E0.38524
G1 X119.9 Y87.405 E0.4079
G1 X120.266 Y87.979 E0.43054
G1 X120.629 Y88.762 E0.45925
G1 X120.681 Y88.9 E0.46415
G1 X120.884 Y89.55 E0.4868
G1 X121.008 Y90.219 E0.50943
G1 X121.044 Y90.613 E0.52259
G1 X121.307 Y95.196 E0.67527
G1 X121.518 Y99.806 E0.82876
G1 X121.658 Y103.353 E0.94683
G1 X122.021 Y112.917 E1.26516
G1 X122.428 Y123.064 E1.60292
G1 X122.416 Y123.744 E1.62554
G1 X122.323 Y124.419 E1.6482
G1 X122.152 Y125.078 E1.67085
G1 X121.906 Y125.713 E1.6935
G1 X121.586 Y126.314 E1.71614
G1 X121.198 Y126.873 E1.73878
G1 X120.748 Y127.384 E1.76142
G1 X120.24 Y127.838 E1.78408
G1 X119.791 Y128.161 E1.80248
G1 X110.553 Y134.159 E2.16882
G1 X109.962 Y134.495 E2.19143
G1 X109.334 Y134.76 E2.2141
G1 X108.68 Y134.95 E2.23675
G1 X108.009 Y135.061 E2.25937
G1 X107.395 Y135.094 E2.27983
G1 X106.885 Y135.094 E2.29679
G1 X106.205 Y135.054 E2.31944
G1 X105.535 Y134.935 E2.34208
G1 X104.883 Y134.738 E2.36473
G1 X104.259 Y134.466 E2.38737
G1 X103.671 Y134.122 E2.41003
G1 X103.127 Y133.712 E2.43269
G1 X102.636 Y133.241 E2.45532
G1 X102.202 Y132.716 E2.47797
G1 X101.833 Y132.144 E2.50061
G1 X101.534 Y131.532 E2.52327
G1 X101.309 Y130.89 E2.54589
G1 X101.16 Y130.225 E2.56856
G1 X101.091 Y129.548 E2.59119
G1 X101.101 Y128.867 E2.61384
G1 X101.173 Y128.29 E2.63318
G1 X101.532 Y126.247 E2.70218
G1 X102.272 Y122.168 E2.84006
G1 X103.045 Y118.066 E2.97889
G1 X103.839 Y113.979 E3.11737
G1 X104.647 Y109.905 E3.25551
G1 X105.469 Y105.833 E3.39368
G1 X106.352 Y101.619 E3.53688
G1 X107.255 Y97.558 E3.67525
G1 X108.812 Y90.919 E3.90205
G1 X109.099 Y89.645 E3.94549
G1 X109.287 Y88.991 E3.96812
G1 X109.545 Y88.375 E3.99033
G1 X109.606 Y88.25 E3.99496
G1 X109.94 Y87.657 E4.0176
G1 X110.341 Y87.107 E4.04024
G0 F6000 X110.679 Y87.326
G1 F1200 X111.131 Y86.849 E4.06209
G1 X111.637 Y86.43 E4.08394
G1 X112.085 Y86.135 E4.10178
G1 X112.662 Y85.822 E4.12362
G1 X113.274 Y85.581 E4.14549
G1 X113.91 Y85.417 E4.16734
G1 X114.425 Y85.342 E4.18465
G1 X115.081 Y85.31 E4.20649
G1 X115.736 Y85.359 E4.22834
G1 X116.381 Y85.486 E4.2502
G1 X117.005 Y85.691 E4.27205
G1 X117.479 Y85.906 E4.28936
G1 X117.668 Y86.003 E4.29643
G1 X118.233 Y86.338 E4.31827
G1 X118.753 Y86.739 E4.34011
G1 X119.221 Y87.2 E4.36196
G1 X119.629 Y87.715 E4.38382
G1 X119.972 Y88.275 E4.40566
G1 X120.255 Y88.903 E4.42857
G1 X120.307 Y89.041 E4.43347
G1 X120.501 Y89.669 E4.45533
G1 X120.645 Y90.636 E4.48785
G1 X120.907 Y95.214 E4.64037
G1 X121.118 Y99.824 E4.79386
G1 X121.259 Y103.368 E4.91182
G1 X121.622 Y112.933 E5.23018
G1 X122.029 Y123.08 E5.56795
G1 X122.015 Y123.736 E5.58977
G1 X121.922 Y124.387 E5.61164
G1 X121.75 Y125.021 E5.63349
G1 X121.503 Y125.629 E5.65532
G1 X121.183 Y126.204 E5.67721
G1 X120.797 Y126.735 E5.69904
G1 X120.348 Y127.215 E5.7209
G1 X119.845 Y127.637 E5.74274
G1 X119.574 Y127.825 E5.75371
G1 X110.336 Y133.823 E6.12005
G1 X109.764 Y134.147 E6.14191
G1 X109.157 Y134.398 E6.16376
G1 X108.524 Y134.575 E6.18562
G1 X107.875 Y134.673 E6.20745
G1 X107.395 Y134.694 E6.22343
G1 X106.885 Y134.694 E6.24039
G1 X106.229 Y134.654 E6.26225
G1 X105.583 Y134.535 E6.2841
G1 X104.956 Y134.338 E6.30596
G1 X104.358 Y134.066 E6.32781
G1 X103.797 Y133.724 E6.34966
G1 X103.282 Y133.316 E6.37152
G1 X102.82 Y132.849 E6.39337
G1 X102.419 Y132.329 E6.41521
G1 X102.083 Y131.765 E6.43704
G1 X101.819 Y131.163 E6.45891
G1 X101.629 Y130.534 E6.48076
G1 X101.518 Y129.887 E6.50259
G1 X101.485 Y129.231 E6.52444
G1 X101.566 Y128.359 E6.55357
G1 X101.925 Y126.316 E6.62256
G1 X102.666 Y122.239 E6.76038
G1 X103.438 Y118.141 E6.89908
G1 X104.232 Y114.055 E7.03752
G1 X105.039 Y109.983 E7.17559
G1 X105.861 Y105.912 E7.31373
G1 X106.743 Y101.705 E7.45669
G1 X107.645 Y97.649 E7.59489
G1 X109.202 Y91.01 E7.8217
G1 X109.489 Y89.733 E7.86523
G1 X109.672 Y89.102 E7.88708
G1 X109.904 Y88.551 E7.90697
G1 X109.965 Y88.426 E7.91159
G1 X110.289 Y87.854 E7.93346
G1 X110.679 Y87.326 E7.95529
G0 F6000 X111.017 Y87.546
G1 F1200 X111.457 Y87.092 E7.97632
G1 X112.174 Y86.55 E8.00621
G1 X112.296 Y86.474 E8.01099
G1 X112.853 Y86.174 E8.03204
G1 X113.443 Y85.947 E8.05306
G1 X114.057 Y85.797 E8.07408
G1 X114.468 Y85.74 E8.08788
G1 X115.1 Y85.711 E8.10893
G1 X115.73 Y85.762 E8.12995
G1 X116.349 Y85.892 E8.15099
G1 X116.946 Y86.099 E8.172
G1 X117.296 Y86.262 E8.18484
G1 X117.485 Y86.359 E8.19191
G1 X118.028 Y86.682 E8.21292
G1 X118.526 Y87.072 E8.23396
G1 X118.971 Y87.521 E8.25499
G1 X119.355 Y88.023 E8.27601
G1 X119.673 Y88.569 E8.29702
G1 X119.881 Y89.044 E8.31427
G1 X119.933 Y89.182 E8.31918
G1 X120.118 Y89.786 E8.34019
G1 X120.246 Y90.659 E8.36953
G1 X120.508 Y95.232 E8.52188
G1 X120.719 Y99.842 E8.67537
G1 X120.859 Y103.384 E8.79327
G1 X121.222 Y112.949 E9.11163
G1 X121.629 Y123.096 E9.44939
G1 X121.614 Y123.728 E9.47042
G1 X121.52 Y124.353 E9.49144
G1 X121.348 Y124.961 E9.51246
G1 X121.1 Y125.542 E9.53347
G1 X120.781 Y126.088 E9.5545
G1 X120.395 Y126.589 E9.57554
G1 X119.95 Y127.038 E9.59656
G1 X119.356 Y127.49 E9.62139
G1 X110.118 Y133.488 E9.98773
G1 X109.567 Y133.798 E10.00876
G1 X108.981 Y134.036 E10.02979
G1 X108.37 Y134.198 E10.05082
G1 X107.744 Y134.282 E10.07182
G1 X107.395 Y134.294 E10.08344
G1 X106.885 Y134.294 E10.1004
G1 X106.254 Y134.254 E10.12143
G1 X105.633 Y134.135 E10.14246
G1 X105.033 Y133.938 E10.16347
G1 X104.461 Y133.667 E10.18452
G1 X103.929 Y133.327 E10.20552
G1 X103.444 Y132.921 E10.22655
G1 X103.014 Y132.458 E10.24757
G1 X102.645 Y131.944 E10.26862
G1 X102.345 Y131.388 E10.28963
G1 X102.117 Y130.799 E10.31063
G1 X101.965 Y130.185 E10.33167
G1 X101.892 Y129.557 E10.3527
G1 X101.899 Y128.925 E10.37372
G1 X101.96 Y128.429 E10.39034
G1 X102.319 Y126.386 E10.45934
G1 X103.059 Y122.311 E10.59709
G1 X103.832 Y118.215 E10.73573
G1 X104.625 Y114.131 E10.8741
G1 X105.431 Y110.06 E11.01213
G1 X106.253 Y105.991 E11.1502
G1 X107.133 Y101.792 E11.29289
G1 X108.034 Y97.74 E11.43095
G1 X109.591 Y91.101 E11.65776
G1 X109.879 Y89.821 E11.70139
G1 X110.057 Y89.214 E11.72243
G1 X110.264 Y88.726 E11.74006
G1 X110.325 Y88.601 E11.74469
G1 X110.637 Y88.052 E11.76569
G1 X111.017 Y87.546 E11.78674
G0 F6000 X111.353 Y87.768
G1 F1200 X111.781 Y87.339 E11.80689
G1 X112.386 Y86.89 E11.83195
G1 X112.508 Y86.814 E11.83673
G1 X113.042 Y86.528 E11.85688
G1 X113.61 Y86.314 E11.87707
G1 X114.439 Y86.145 E11.90521
G1 X114.512 Y86.137 E11.90765
G1 X115.118 Y86.111 E11.92783
G1 X115.722 Y86.165 E11.948
G1 X116.313 Y86.298 E11.96814
G1 X117.113 Y86.618 E11.9968
G1 X117.302 Y86.715 E12.00387
G1 X117.822 Y87.026 E12.02402
G1 X118.297 Y87.404 E12.04421
G1 X118.718 Y87.84 E12.06437
G1 X119.077 Y88.328 E12.08452
G1 X119.369 Y88.86 E12.1047
G1 X119.507 Y89.185 E12.11645
G1 X119.559 Y89.323 E12.12135
G1 X119.734 Y89.903 E12.1415
G1 X119.846 Y90.682 E12.16768
G1 X120.108 Y95.251 E12.31989
G1 X120.319 Y99.861 E12.47338
G1 X120.459 Y103.4 E12.59118
G1 X120.822 Y112.965 E12.90954
G1 X121.229 Y123.112 E13.24731
G1 X121.214 Y123.718 E13.26747
G1 X121.118 Y124.317 E13.28765
G1 X120.945 Y124.898 E13.30781
G1 X120.697 Y125.451 E13.32797
G1 X120.378 Y125.967 E13.34814
G1 X119.995 Y126.436 E13.36828
G1 X119.552 Y126.851 E13.38847
G1 X119.138 Y127.154 E13.40554
G1 X109.9 Y133.152 E13.77188
G1 X109.371 Y133.448 E13.79204
G1 X108.807 Y133.672 E13.81222
G1 X108.219 Y133.82 E13.83239
G1 X107.395 Y133.894 E13.85991
G1 X106.885 Y133.894 E13.87687
G1 X106.28 Y133.854 E13.89703
G1 X105.686 Y133.735 E13.91718
G1 X105.112 Y133.539 E13.93736
G1 X104.569 Y133.268 E13.95754
G1 X104.066 Y132.929 E13.97772
G1 X103.613 Y132.527 E13.99786
G1 X103.216 Y132.069 E14.01802
G1 X102.883 Y131.562 E14.03819
G1 X102.619 Y131.016 E14.05837
G1 X102.43 Y130.44 E14.07853
G1 X102.318 Y129.844 E14.0987
G1 X102.285 Y129.239 E14.11885
G1 X102.354 Y128.498 E14.1436
G1 X102.713 Y126.455 E14.21259
G1 X103.453 Y122.382 E14.35028
G1 X104.225 Y118.289 E14.48882
G1 X105.017 Y114.208 E14.62708
G1 X105.824 Y110.138 E14.76509
G1 X106.645 Y106.071 E14.90308
G1 X107.524 Y101.879 E15.04554
G1 X108.424 Y97.832 E15.18343
G1 X109.972 Y91.233 E15.40888
G1 X110.269 Y89.909 E15.45401
G1 X110.441 Y89.327 E15.47419
G1 X110.623 Y88.902 E15.48957
G1 X110.684 Y88.777 E15.4942
G1 X110.985 Y88.25 E15.51438
G1 X111.353 Y87.768 E15.53455
G0 F6000 X111.688 Y87.993
G1 F1200 X112.104 Y87.589 E15.55384
G1 X112.597 Y87.229 E15.57414
G1 X112.719 Y87.153 E15.57892
G1 X113.231 Y86.881 E15.59821
G1 X113.775 Y86.683 E15.61746
G1 X114.482 Y86.543 E15.64143
G1 X114.555 Y86.535 E15.64387
G1 X115.134 Y86.512 E15.66315
G1 X115.711 Y86.568 E15.68243
G1 X116.274 Y86.704 E15.70169
G1 X116.931 Y86.973 E15.7253
G1 X117.12 Y87.07 E15.73237
G1 X117.616 Y87.37 E15.75165
G1 X118.066 Y87.735 E15.77092
G1 X118.461 Y88.158 E15.79017
G1 X118.795 Y88.632 E15.80946
G1 X119.132 Y89.326 E15.83512
G1 X119.184 Y89.464 E15.84002
G1 X119.351 Y90.019 E15.8593
G1 X119.447 Y90.705 E15.88234
G1 X119.706 Y95.221 E16.03279
G1 X119.92 Y99.879 E16.18788
G1 X120.06 Y103.416 E16.30561
G1 X120.423 Y112.981 E16.62397
G1 X120.83 Y123.128 E16.96173
G1 X120.813 Y123.707 E16.981
G1 X120.717 Y124.278 E17.00026
G1 X120.543 Y124.831 E17.01954
G1 X120.294 Y125.354 E17.03881
G1 X119.976 Y125.838 E17.05807
G1 X119.595 Y126.274 E17.07733
G1 X118.92 Y126.819 E17.10618
G1 X109.682 Y132.817 E17.47252
G1 X109.176 Y133.098 E17.49177
G1 X108.635 Y133.307 E17.51106
G1 X108.071 Y133.439 E17.53033
G1 X107.395 Y133.494 E17.55288
G1 X106.885 Y133.494 E17.56985
G1 X106.307 Y133.454 E17.58912
G1 X105.74 Y133.335 E17.60839
G1 X105.195 Y133.139 E17.62765
G1 X104.682 Y132.87 E17.64692
G1 X104.211 Y132.533 E17.66618
G1 X103.791 Y132.134 E17.68545
G1 X103.429 Y131.681 E17.70473
G1 X103.134 Y131.183 E17.72398
G1 X102.909 Y130.649 E17.74326
G1 X102.761 Y130.089 E17.76252
G1 X102.691 Y129.514 E17.78179
G1 X102.7 Y128.935 E17.80105
G1 X102.748 Y128.567 E17.81339
G1 X103.107 Y126.524 E17.88238
G1 X103.847 Y122.453 E18.02
G1 X104.618 Y118.363 E18.15843
G1 X105.41 Y114.284 E18.29664
G1 X106.216 Y110.216 E18.43457
G1 X107.037 Y106.15 E18.57253
G1 X107.914 Y101.966 E18.71472
G1 X108.802 Y97.971 E18.85084
G1 X110.37 Y91.284 E19.07928
G1 X110.66 Y89.997 E19.12316
G1 X110.825 Y89.442 E19.14242
G1 X110.982 Y89.077 E19.15563
G1 X111.043 Y88.952 E19.16026
G1 X111.333 Y88.45 E19.17954
G1 X111.688 Y87.993 E19.19879
G0 F6000 X112.023 Y88.22
G1 F1200 X112.424 Y87.843 E19.21709
G1 X112.809 Y87.569 E19.23281
G1 X112.931 Y87.493 E19.23759
G1 X113.418 Y87.236 E19.25591
G1 X113.938 Y87.053 E19.27424
G1 X114.526 Y86.941 E19.29415
G1 X114.599 Y86.933 E19.29659
G1 X115.15 Y86.912 E19.31493
G1 X115.697 Y86.972 E19.33323
G1 X116.231 Y87.11 E19.35158
G1 X116.748 Y87.329 E19.37025
G1 X116.937 Y87.426 E19.37732
G1 X117.408 Y87.713 E19.39566
G1 X117.832 Y88.064 E19.41397
G1 X118.201 Y88.473 E19.43229
G1 X118.507 Y88.932 E19.45064
G1 X118.758 Y89.467 E19.47029
G1 X118.81 Y89.605 E19.4752
G1 X118.966 Y90.133 E19.49351
G1 X119.048 Y90.727 E19.51346
G1 X119.307 Y95.243 E19.66391
G1 X119.52 Y99.897 E19.81886
G1 X119.66 Y103.432 E19.93653
G1 X120.023 Y112.997 E20.25489
G1 X120.43 Y123.144 E20.59265
G1 X120.412 Y123.694 E20.61095
G1 X120.315 Y124.237 E20.6293
G1 X120.14 Y124.759 E20.64761
G1 X119.891 Y125.251 E20.66595
G1 X119.574 Y125.702 E20.68429
G1 X119.196 Y126.102 E20.70259
G1 X118.702 Y126.483 E20.72334
G1 X109.464 Y132.481 E21.08968
G1 X108.982 Y132.747 E21.10799
G1 X108.466 Y132.94 E21.12631
G1 X107.927 Y133.057 E21.14466
G1 X107.395 Y133.094 E21.1624
G1 X106.885 Y133.094 E21.17936
G1 X106.335 Y133.054 E21.1977
G1 X105.797 Y132.935 E21.21603
G1 X105.282 Y132.739 E21.23435
G1 X104.801 Y132.471 E21.25267
G1 X104.363 Y132.137 E21.27099
G1 X103.979 Y131.742 E21.28931
G1 X103.655 Y131.296 E21.30765
G1 X103.4 Y130.808 E21.32596
G1 X103.217 Y130.288 E21.34429
G1 X103.112 Y129.747 E21.36262
G1 X103.086 Y129.197 E21.38094
G1 X103.142 Y128.636 E21.39969
G1 X103.501 Y126.593 E21.46868
G1 X104.24 Y122.525 E21.6062
G1 X105.011 Y118.437 E21.74456
G1 X105.803 Y114.36 E21.8827
G1 X106.608 Y110.293 E22.02059
G1 X107.429 Y106.229 E22.15849
G1 X108.295 Y102.098 E22.29888
G1 X109.193 Y98.057 E22.43656
G1 X110.759 Y91.375 E22.66482
G1 X111.05 Y90.085 E22.70881
G1 X111.209 Y89.557 E22.72715
G1 X111.342 Y89.252 E22.73822
G1 X111.403 Y89.127 E22.74284
G1 X111.68 Y88.651 E22.76116
G1 X112.023 Y88.22 E22.77948
G0 F6000 X112.356 Y88.45
G1 F1200 X112.743 Y88.101 E22.79681
G1 X113.02 Y87.908 E22.80804
G1 X113.142 Y87.832 E22.81282
G1 X113.604 Y87.591 E22.83015
G1 X114.098 Y87.424 E22.8475
G1 X114.57 Y87.338 E22.86345
G1 X114.643 Y87.33 E22.8659
G1 X115.163 Y87.313 E22.8832
G1 X115.681 Y87.376 E22.90056
G1 X116.182 Y87.517 E22.91787
G1 X116.565 Y87.685 E22.93178
G1 X116.754 Y87.782 E22.93884
G1 X117.199 Y88.055 E22.95621
G1 X117.596 Y88.392 E22.97353
G1 X117.937 Y88.787 E22.99088
G1 X118.213 Y89.228 E23.00819
G1 X118.384 Y89.608 E23.02205
G1 X118.436 Y89.746 E23.02695
G1 X118.581 Y90.246 E23.04427
G1 X118.648 Y90.75 E23.06118
G1 X118.907 Y95.266 E23.21163
G1 X119.12 Y99.916 E23.36645
G1 X119.26 Y103.447 E23.48398
G1 X119.623 Y113.013 E23.80238
G1 X120.03 Y123.16 E24.14014
G1 X120.011 Y123.681 E24.15748
G1 X119.913 Y124.192 E24.17479
G1 X119.737 Y124.683 E24.19213
G1 X119.489 Y125.141 E24.20946
G1 X119.173 Y125.556 E24.22681
G1 X118.798 Y125.918 E24.24414
G1 X118.485 Y126.148 E24.25706
G1 X109.247 Y132.146 E24.6234
G1 X108.789 Y132.395 E24.64074
G1 X108.299 Y132.572 E24.65807
G1 X107.787 Y132.671 E24.67541
G1 X107.395 Y132.694 E24.68847
G1 X106.885 Y132.694 E24.70544
G1 X106.365 Y132.654 E24.72278
G1 X105.858 Y132.535 E24.7401
G1 X105.375 Y132.34 E24.75743
G1 X104.927 Y132.074 E24.77476
G1 X104.525 Y131.742 E24.7921
G1 X104.179 Y131.352 E24.80944
G1 X103.896 Y130.914 E24.82678
G1 X103.683 Y130.439 E24.8441
G1 X103.546 Y129.936 E24.86144
G1 X103.487 Y129.418 E24.87878
G1 X103.536 Y128.706 E24.90251
G1 X103.895 Y126.663 E24.9715
G1 X104.634 Y122.596 E25.10899
G1 X105.404 Y118.511 E25.24725
G1 X106.195 Y114.437 E25.38528
G1 X107.001 Y110.371 E25.52315
G1 X107.821 Y106.308 E25.66101
G1 X108.686 Y102.18 E25.80129
G1 X109.583 Y98.144 E25.9388
G1 X111.149 Y91.467 E26.16691
G1 X111.44 Y90.172 E26.21105
G1 X111.593 Y89.674 E26.22838
G1 X111.701 Y89.428 E26.23732
G1 X111.762 Y89.303 E26.24194
G1 X112.026 Y88.853 E26.25929
G1 X112.356 Y88.45 E26.27662
G0 F6000 X112.372 Y89.057
