;FLAVOR:Marlin
;TIME:3495
;Filament used: 2.23947m
;Layer height: 0.2
;MINX:90.555
;MINY:88.097
;MINZ:0.2
;MAXX:129.447
;MAXY:128.098
;MAXZ:129
;Generated with Cura_SteamEngine 4.6.1
M140 S60
M105
M190 S60
M104 S220
M105
M109 S220
M82 ;absolute extrusion mode
; Ender 3 Custom Start G-code
G92 E0 ; Reset Extruder
G28 ; Home all axes
G1 Z2.0 F3000 ; Move Z Axis up little to prevent scratching of Heat Bed
G1 X0.1 Y20 Z0.3 F5000.0 ; Move to start position
G1 X0.1 Y200.0 Z0.3 F1500.0 E15 ; Draw the first line
G1 X0.4 Y200.0 Z0.3 F5000.0 ; Move to side a little
G1 X0.4 Y20 Z0.3 F1500.0 E30 ; Draw the second line
G92 E0 ; Reset Extruder
G1 Z2.0 F3000 ; Move Z Axis up little to prevent scratching of Heat Bed
G1 X5 Y20 Z0.3 F5000.0 ; Move over to prevent blob squish
G92 E0
G92 E0
G1 F1500 E-6
;LAYER_COUNT:645
;LAYER:0
M107
G0 F6000 X95.746 Y93.236 Z0.2
;TYPE:SKIRT
G1 F1500 E0.04158
G1 F1200 X96.148 Y92.829 E0.0606
G1 X96.427 Y92.561 E0.07347
G1 X96.617 Y92.386 E0.08206
G1 X97.067 Y91.996 E0.10187
G1 X97.526 Y91.625 E0.1215
G1 X97.836 Y91.389 E0.13445
G1 X98.061 Y91.226 E0.1437
G1 X98.517 Y90.915 E0.16205
G1 X99.032 Y90.585 E0.1824
G1 X99.365 Y90.386 E0.1953
G1 X99.623 Y90.241 E0.20514
G1 X100.185 Y89.943 E0.2263
G1 X100.492 Y89.791 E0.2377
G1 X101.07 Y89.527 E0.25883
G1 X101.358 Y89.405 E0.26923
G1 X101.948 Y89.173 E0.29032
G1 X102.229 Y89.071 E0.30026
G1 X102.907 Y88.849 E0.32399
G1 X103.593 Y88.655 E0.3477
G1 X104.273 Y88.492 E0.37096
G1 X104.744 Y88.395 E0.38695
G1 X105.013 Y88.346 E0.39605
G1 X105.718 Y88.24 E0.41976
G1 X106.197 Y88.184 E0.4358
G1 X106.457 Y88.16 E0.44448
G1 X107.202 Y88.111 E0.46932
G1 X107.73 Y88.097 E0.48688
G1 X108.564 Y88.099 E0.51462
G1 X110.017 Y88.132 E0.56296
G1 X111.416 Y88.099 E0.60951
G1 X111.555 Y88.097 E0.61413
G1 X112.446 Y88.1 E0.64376
G1 X113.009 Y88.122 E0.6625
G1 X113.536 Y88.159 E0.68008
G1 X113.806 Y88.184 E0.68909
G1 X114.275 Y88.239 E0.7048
G1 X114.504 Y88.271 E0.71249
G1 X114.979 Y88.346 E0.72848
G1 X115.223 Y88.39 E0.73673
G1 X115.688 Y88.484 E0.75251
G1 X115.932 Y88.539 E0.76083
G1 X116.605 Y88.709 E0.78392
G1 X117.066 Y88.841 E0.79987
G1 X117.321 Y88.921 E0.80875
G1 X117.772 Y89.073 E0.82458
G1 X118.028 Y89.166 E0.83364
G1 X118.62 Y89.397 E0.85478
G1 X118.913 Y89.52 E0.86535
G1 X119.487 Y89.781 E0.88632
G1 X119.806 Y89.938 E0.89815
G1 X120.373 Y90.239 E0.9195
G1 X120.626 Y90.382 E0.92916
G1 X121.124 Y90.683 E0.94852
G1 X121.643 Y91.022 E0.96913
G1 X122.125 Y91.363 E0.98877
G1 X122.627 Y91.745 E1.00975
G1 X123.082 Y92.121 E1.02939
G1 X123.373 Y92.376 E1.04225
G1 X123.569 Y92.557 E1.05113
G1 X123.98 Y92.955 E1.07016
G1 X124.251 Y93.232 E1.08305
G1 X124.428 Y93.421 E1.09166
G1 X124.825 Y93.87 E1.11159
G1 X125.204 Y94.332 E1.13147
G1 X125.44 Y94.637 E1.14429
G1 X125.605 Y94.86 E1.15352
G1 X125.933 Y95.334 E1.17269
G1 X126.142 Y95.654 E1.1854
G1 X126.269 Y95.858 E1.1934
G1 X126.573 Y96.377 E1.2134
G1 X126.86 Y96.912 E1.23359
G1 X127.131 Y97.47 E1.25423
G1 X127.358 Y97.988 E1.27304
G1 X127.578 Y98.537 E1.29271
G1 X127.942 Y99.54 E1.3282
G1 X128.296 Y100.597 E1.36527
G1 X128.584 Y101.567 E1.39893
G1 X128.852 Y102.605 E1.43458
G1 X129.037 Y103.453 E1.46345
G1 X129.093 Y103.749 E1.47347
G1 X129.233 Y104.601 E1.50219
G1 X129.271 Y104.873 E1.51132
G1 X129.346 Y105.52 E1.53299
G1 X129.371 Y105.78 E1.54167
G1 X129.417 Y106.432 E1.56341
G1 X129.429 Y106.678 E1.57161
G1 X129.447 Y107.453 E1.59739
G1 X129.438 Y108.234 E1.62337
G1 X129.403 Y108.981 E1.64824
G1 X129.345 Y109.729 E1.67319
G1 X129.262 Y110.511 E1.69935
G1 X129.16 Y111.247 E1.72406
G1 X129.036 Y112.001 E1.74948
G1 X128.899 Y112.717 E1.77372
G1 X128.746 Y113.43 E1.79798
G1 X128.578 Y114.133 E1.82202
G1 X128.31 Y115.157 E1.85722
G1 X128.06 Y116.017 E1.88701
G1 X127.985 Y116.256 E1.89534
G1 X127.774 Y116.88 E1.91725
G1 X127.662 Y117.184 E1.92803
G1 X127.423 Y117.779 E1.94935
G1 X127.294 Y118.076 E1.96012
G1 X127.029 Y118.642 E1.98091
G1 X126.864 Y118.967 E1.99303
G1 X126.556 Y119.53 E2.01438
G1 X126.411 Y119.781 E2.02402
G1 X126.073 Y120.324 E2.04529
G1 X125.837 Y120.68 E2.0595
G1 X125.681 Y120.904 E2.06858
G1 X125.312 Y121.402 E2.08919
G1 X125.049 Y121.738 E2.10338
G1 X124.874 Y121.952 E2.11258
G1 X124.447 Y122.44 E2.13414
G1 X124.01 Y122.906 E2.15539
G1 X123.539 Y123.372 E2.17743
G1 X123.037 Y123.83 E2.20003
G1 X122.711 Y124.107 E2.21426
G1 X122.536 Y124.249 E2.22176
G1 X122.014 Y124.654 E2.24373
G1 X121.479 Y125.036 E2.26559
G1 X120.928 Y125.398 E2.28752
G1 X120.351 Y125.746 E2.30993
G1 X119.788 Y126.055 E2.33129
G1 X119.2 Y126.35 E2.35317
G1 X118.598 Y126.623 E2.37516
G1 X117.968 Y126.88 E2.39779
G1 X117.361 Y127.099 E2.41925
G1 X116.721 Y127.303 E2.44159
G1 X116.108 Y127.472 E2.46274
G1 X115.475 Y127.623 E2.48439
G1 X115.051 Y127.71 E2.49878
G1 X114.791 Y127.757 E2.50757
G1 X114.163 Y127.853 E2.5287
G1 X113.541 Y127.926 E2.54953
G1 X112.644 Y128.004 E2.57948
G1 X111.752 Y128.057 E2.6092
G1 X110.882 Y128.087 E2.63815
G1 X110.136 Y128.098 E2.66297
G1 X109.962 Y128.09 E2.66876
G1 X109.872 Y128.097 E2.67176
G1 X109 Y128.084 E2.70077
G1 X108.106 Y128.05 E2.73052
G1 X107.212 Y127.992 E2.76032
G1 X106.258 Y127.904 E2.79219
G1 X105.634 Y127.823 E2.81312
G1 X104.988 Y127.715 E2.8349
G1 X104.331 Y127.579 E2.85721
G1 X103.697 Y127.421 E2.87895
G1 X103.057 Y127.235 E2.90111
G1 X102.453 Y127.034 E2.92229
G1 X102.043 Y126.884 E2.93681
G1 X101.813 Y126.794 E2.94502
G1 X101.413 Y126.628 E2.95943
G1 X101.193 Y126.531 E2.96742
G1 X100.621 Y126.262 E2.98845
G1 X100.024 Y125.954 E3.01079
G1 X99.46 Y125.633 E3.03237
G1 X98.904 Y125.29 E3.0541
G1 X98.54 Y125.049 E3.06862
G1 X98.327 Y124.901 E3.07725
G1 X97.819 Y124.526 E3.09825
G1 X97.305 Y124.118 E3.12008
G1 X96.785 Y123.671 E3.14288
G1 X96.298 Y123.215 E3.16507
G1 X95.858 Y122.769 E3.18591
G1 X95.565 Y122.455 E3.2002
G1 X95.397 Y122.266 E3.20861
G1 X94.973 Y121.763 E3.23049
G1 X94.563 Y121.237 E3.25267
G1 X94.194 Y120.722 E3.27374
G1 X93.954 Y120.366 E3.28802
G1 X93.81 Y120.141 E3.2969
G1 X93.584 Y119.77 E3.31135
G1 X93.452 Y119.543 E3.32009
G1 X93.147 Y118.987 E3.34118
G1 X92.984 Y118.667 E3.35312
G1 X92.711 Y118.087 E3.37445
G1 X92.577 Y117.779 E3.38562
G1 X92.338 Y117.184 E3.40694
G1 X92.223 Y116.872 E3.418
G1 X92.019 Y116.266 E3.43927
G1 X91.946 Y116.033 E3.44739
G1 X91.653 Y115.015 E3.48262
G1 X91.394 Y114.019 E3.51685
G1 X91.23 Y113.322 E3.54067
G1 X91.079 Y112.61 E3.56488
G1 X90.939 Y111.86 E3.59025
G1 X90.821 Y111.12 E3.61518
G1 X90.717 Y110.339 E3.64138
G1 X90.641 Y109.581 E3.66672
G1 X90.587 Y108.819 E3.69213
G1 X90.558 Y108.058 E3.71746
G1 X90.555 Y107.266 E3.7438
G1 X90.571 Y106.681 E3.76326
G1 X90.583 Y106.431 E3.77159
G1 X90.628 Y105.795 E3.79279
G1 X90.652 Y105.544 E3.80118
G1 X90.726 Y104.898 E3.82281
G1 X90.765 Y104.613 E3.83237
G1 X90.906 Y103.759 E3.86116
G1 X90.959 Y103.484 E3.87048
G1 X91.143 Y102.629 E3.89957
G1 X91.203 Y102.375 E3.90825
G1 X91.461 Y101.407 E3.94157
G1 X91.749 Y100.452 E3.97474
G1 X92.096 Y99.422 E4.01089
G1 X92.489 Y98.36 E4.04856
G1 X92.727 Y97.788 E4.06916
G1 X92.967 Y97.264 E4.08833
G1 X93.234 Y96.734 E4.10807
G1 X93.537 Y96.184 E4.12896
G1 X93.848 Y95.67 E4.14894
G1 X94.183 Y95.162 E4.16918
G1 X94.542 Y94.662 E4.18965
G1 X94.926 Y94.169 E4.21043
G1 X95.313 Y93.711 E4.23038
G1 X95.572 Y93.422 E4.24328
G1 X95.746 Y93.236 E4.25175
G0 F6000 X96.032 Y93.516
G1 F1200 X96.425 Y93.118 E4.27036
G1 X96.704 Y92.85 E4.28323
G1 X96.881 Y92.687 E4.29123
G1 X97.32 Y92.306 E4.31056
G1 X97.768 Y91.943 E4.32974
G1 X98.078 Y91.707 E4.3427
G1 X98.288 Y91.555 E4.35132
G1 X98.735 Y91.25 E4.36932
G1 X99.237 Y90.929 E4.38914
G1 X99.57 Y90.73 E4.40204
G1 X99.81 Y90.594 E4.41121
G1 X100.372 Y90.296 E4.43237
G1 X100.659 Y90.155 E4.44301
G1 X101.237 Y89.891 E4.46414
G1 X101.504 Y89.778 E4.47379
G1 X102.094 Y89.546 E4.49487
G1 X102.356 Y89.45 E4.50415
G1 X103.018 Y89.233 E4.52732
G1 X103.477 Y89.1 E4.54322
G1 X103.689 Y89.044 E4.55051
G1 X104.354 Y88.884 E4.57326
G1 X104.825 Y88.787 E4.58925
G1 X105.075 Y88.742 E4.5977
G1 X105.764 Y88.638 E4.62088
G1 X106.243 Y88.582 E4.63692
G1 X106.485 Y88.559 E4.645
G1 X107.214 Y88.511 E4.6693
G1 X107.73 Y88.497 E4.68647
G1 X108.554 Y88.498 E4.71388
G1 X110.039 Y88.532 E4.76328
G1 X111.426 Y88.499 E4.80943
G1 X111.555 Y88.497 E4.81372
G1 X112.433 Y88.5 E4.84292
G1 X112.981 Y88.521 E4.86116
G1 X113.508 Y88.558 E4.87873
G1 X113.759 Y88.582 E4.88712
G1 X114.441 Y88.666 E4.90997
G1 X115.144 Y88.782 E4.93367
G1 X115.609 Y88.876 E4.94945
G1 X115.836 Y88.927 E4.95719
G1 X116.494 Y89.094 E4.97977
G1 X116.955 Y89.226 E4.99572
G1 X117.194 Y89.3 E5.00404
G1 X117.645 Y89.452 E5.01987
G1 X117.883 Y89.538 E5.02828
G1 X118.475 Y89.769 E5.04942
G1 X118.747 Y89.884 E5.05924
G1 X119.321 Y90.145 E5.08021
G1 X119.618 Y90.291 E5.09122
G1 X120.185 Y90.592 E5.11257
G1 X120.421 Y90.725 E5.12158
G1 X120.907 Y91.019 E5.14047
G1 X121.414 Y91.35 E5.16061
G1 X121.885 Y91.683 E5.1798
G1 X122.374 Y92.055 E5.20023
G1 X122.818 Y92.422 E5.21939
G1 X123.109 Y92.677 E5.23226
G1 X123.292 Y92.845 E5.24052
G1 X123.694 Y93.235 E5.25915
G1 X123.965 Y93.512 E5.27204
G1 X124.13 Y93.688 E5.28007
G1 X124.518 Y94.126 E5.29953
G1 X124.888 Y94.576 E5.3189
G1 X125.124 Y94.881 E5.33173
G1 X125.277 Y95.089 E5.34032
G1 X125.598 Y95.553 E5.35909
G1 X125.925 Y96.062 E5.37921
G1 X126.222 Y96.568 E5.39872
G1 X126.501 Y97.09 E5.41841
G1 X126.766 Y97.633 E5.4385
G1 X126.988 Y98.139 E5.45688
G1 X127.202 Y98.675 E5.47608
G1 X127.563 Y99.668 E5.51122
G1 X127.913 Y100.712 E5.54784
G1 X128.197 Y101.669 E5.58105
G1 X128.461 Y102.69 E5.61612
G1 X128.646 Y103.538 E5.64499
G1 X128.699 Y103.813 E5.6543
G1 X128.839 Y104.665 E5.68302
G1 X128.874 Y104.919 E5.69155
G1 X128.949 Y105.566 E5.71321
G1 X128.972 Y105.808 E5.7213
G1 X129.018 Y106.46 E5.74304
G1 X129.029 Y106.689 E5.75066
G1 X129.047 Y107.451 E5.77601
G1 X129.038 Y108.217 E5.80149
G1 X129.004 Y108.952 E5.82597
G1 X128.947 Y109.688 E5.85052
G1 X128.865 Y110.458 E5.87627
G1 X128.766 Y111.183 E5.90061
G1 X128.643 Y111.926 E5.92566
G1 X128.508 Y112.634 E5.94963
G1 X128.356 Y113.338 E5.97359
G1 X128.191 Y114.033 E5.99734
G1 X127.926 Y115.045 E6.03214
G1 X127.606 Y116.128 E6.0697
G1 X127.395 Y116.752 E6.09161
G1 X127.291 Y117.035 E6.10164
G1 X127.052 Y117.63 E6.12296
G1 X126.932 Y117.907 E6.133
G1 X126.667 Y118.473 E6.15379
G1 X126.513 Y118.775 E6.16506
G1 X126.205 Y119.338 E6.18641
G1 X126.07 Y119.571 E6.19537
G1 X125.74 Y120.103 E6.21619
G1 X125.504 Y120.459 E6.23039
G1 X125.358 Y120.667 E6.23885
G1 X124.997 Y121.155 E6.25903
G1 X124.734 Y121.491 E6.27323
G1 X124.571 Y121.69 E6.28178
G1 X124.154 Y122.169 E6.30291
G1 X123.727 Y122.624 E6.32366
G1 X123.268 Y123.078 E6.34513
G1 X122.778 Y123.525 E6.36719
G1 X122.289 Y123.935 E6.38842
G1 X121.779 Y124.33 E6.40987
G1 X121.257 Y124.703 E6.43121
G1 X120.719 Y125.057 E6.45263
G1 X120.157 Y125.396 E6.47446
G1 X119.606 Y125.699 E6.49537
G1 X119.032 Y125.987 E6.51673
G1 X118.444 Y126.254 E6.53821
G1 X117.83 Y126.504 E6.56026
G1 X117.237 Y126.719 E6.58124
G1 X116.613 Y126.918 E6.60303
G1 X116.013 Y127.083 E6.62372
G1 X115.394 Y127.231 E6.64489
G1 X114.97 Y127.318 E6.65929
G1 X114.728 Y127.362 E6.66747
G1 X114.114 Y127.456 E6.68813
G1 X113.506 Y127.527 E6.70849
G1 X112.62 Y127.605 E6.73807
G1 X111.737 Y127.657 E6.76749
G1 X110.876 Y127.687 E6.79614
G1 X110.13 Y127.698 E6.82096
G1 X109.999 Y127.692 E6.82532
G1 X109.877 Y127.698 E6.82938
G1 X109.014 Y127.684 E6.85809
G1 X108.131 Y127.651 E6.88748
G1 X107.247 Y127.594 E6.91694
G1 X106.307 Y127.507 E6.94834
G1 X105.697 Y127.428 E6.9688
G1 X105.066 Y127.323 E6.99007
G1 X104.64 Y127.238 E7.00452
G1 X104.425 Y127.19 E7.01185
G1 X103.806 Y127.036 E7.03307
G1 X103.181 Y126.855 E7.05471
G1 X102.591 Y126.658 E7.0754
G1 X101.966 Y126.425 E7.09758
G1 X101.361 Y126.169 E7.11943
G1 X100.802 Y125.905 E7.13999
G1 X100.22 Y125.605 E7.16177
G1 X99.668 Y125.292 E7.18288
G1 X99.125 Y124.957 E7.2041
G1 X98.761 Y124.716 E7.21862
G1 X98.563 Y124.578 E7.22664
G1 X98.065 Y124.211 E7.24722
G1 X97.563 Y123.813 E7.26853
G1 X97.056 Y123.377 E7.29077
G1 X96.581 Y122.932 E7.31242
G1 X96.151 Y122.496 E7.33278
G1 X95.858 Y122.182 E7.34707
G1 X95.701 Y122.006 E7.35491
G1 X95.287 Y121.515 E7.37627
G1 X94.887 Y121.002 E7.39791
G1 X94.525 Y120.499 E7.41852
G1 X94.285 Y120.143 E7.4328
G1 X94.151 Y119.933 E7.44109
G1 X93.925 Y119.562 E7.45554
G1 X93.803 Y119.35 E7.46367
G1 X93.498 Y118.794 E7.48476
G1 X93.346 Y118.497 E7.49586
G1 X93.073 Y117.917 E7.51718
G1 X92.948 Y117.63 E7.52759
G1 X92.709 Y117.035 E7.54892
G1 X92.602 Y116.745 E7.5592
G1 X92.33 Y115.922 E7.58803
G1 X92.04 Y114.914 E7.62292
G1 X91.783 Y113.927 E7.65684
G1 X91.621 Y113.238 E7.68038
G1 X91.472 Y112.536 E7.70425
G1 X91.333 Y111.796 E7.72929
G1 X91.217 Y111.066 E7.75388
G1 X91.115 Y110.297 E7.77968
G1 X91.04 Y109.551 E7.80461
G1 X90.987 Y108.802 E7.82959
G1 X90.958 Y108.054 E7.85448
G1 X90.955 Y107.277 E7.88033
G1 X90.982 Y106.459 E7.90755
G1 X91.027 Y105.823 E7.92876
G1 X91.049 Y105.589 E7.93657
G1 X91.123 Y104.943 E7.9582
G1 X91.16 Y104.678 E7.9671
G1 X91.301 Y103.824 E7.99589
G1 X91.35 Y103.568 E8.00456
G1 X91.534 Y102.713 E8.03365
G1 X91.59 Y102.477 E8.04171
G1 X91.844 Y101.521 E8.07461
G1 X92.128 Y100.579 E8.10734
G1 X92.472 Y99.56 E8.14311
G1 X92.859 Y98.511 E8.1803
G1 X93.091 Y97.952 E8.20043
G1 X93.326 Y97.441 E8.21913
G1 X93.585 Y96.924 E8.23837
G1 X93.88 Y96.389 E8.25869
G1 X94.184 Y95.888 E8.27818
G1 X94.51 Y95.393 E8.29789
G1 X94.86 Y94.906 E8.31784
G1 X95.234 Y94.425 E8.3381
G1 X95.611 Y93.978 E8.35755
G1 X95.87 Y93.689 E8.37046
G1 X96.032 Y93.516 E8.37834
G0 F6000 X96.318 Y93.796
G1 F1200 X96.702 Y93.406 E8.39655
G1 X97.145 Y92.987 E8.41683
G1 X97.573 Y92.615 E8.43569
G1 X98.01 Y92.262 E8.45437
G1 X98.32 Y92.026 E8.46733
G1 X98.515 Y91.885 E8.47533
G1 X98.952 Y91.586 E8.49295
G1 X99.442 Y91.272 E8.5123
G1 X99.775 Y91.073 E8.5252
G1 X99.998 Y90.948 E8.53371
G1 X100.56 Y90.65 E8.55486
G1 X100.825 Y90.519 E8.5647
G1 X101.403 Y90.255 E8.58583
G1 X101.65 Y90.15 E8.59476
G1 X102.24 Y89.918 E8.61584
G1 X102.483 Y89.83 E8.62444
G1 X103.129 Y89.618 E8.64705
G1 X103.785 Y89.432 E8.66973
G1 X104.434 Y89.276 E8.69193
G1 X104.905 Y89.179 E8.70793
G1 X105.137 Y89.137 E8.71577
G1 X105.81 Y89.035 E8.73841
G1 X106.289 Y88.979 E8.75445
G1 X106.514 Y88.958 E8.76196
G1 X107.227 Y88.911 E8.78573
G1 X107.73 Y88.897 E8.80247
G1 X108.545 Y88.898 E8.82957
G1 X110.018 Y88.932 E8.87858
G1 X111.435 Y88.898 E8.92572
G1 X111.555 Y88.897 E8.92971
G1 X112.42 Y88.9 E8.95848
G1 X112.953 Y88.92 E8.97622
G1 X113.48 Y88.957 E8.9938
G1 X113.712 Y88.979 E9.00155
G1 X114.379 Y89.061 E9.0239
G1 X115.065 Y89.174 E9.04702
G1 X115.739 Y89.315 E9.06992
G1 X116.384 Y89.478 E9.09205
G1 X116.845 Y89.61 E9.108
G1 X117.066 Y89.679 E9.1157
G1 X117.517 Y89.831 E9.13153
G1 X117.738 Y89.911 E9.13935
G1 X118.33 Y90.142 E9.16048
G1 X118.582 Y90.248 E9.16958
G1 X119.156 Y90.509 E9.19055
G1 X119.43 Y90.645 E9.20072
G1 X119.997 Y90.946 E9.22207
G1 X120.216 Y91.069 E9.23043
G1 X120.691 Y91.356 E9.24889
G1 X121.185 Y91.677 E9.26848
G1 X121.645 Y92.003 E9.28723
G1 X122.121 Y92.365 E9.30712
G1 X122.554 Y92.723 E9.32581
G1 X123.015 Y93.133 E9.34633
G1 X123.408 Y93.514 E9.36454
G1 X123.832 Y93.954 E9.38486
G1 X124.21 Y94.382 E9.40385
G1 X124.571 Y94.821 E9.42275
G1 X124.807 Y95.126 E9.43558
G1 X124.949 Y95.319 E9.44355
G1 X125.263 Y95.772 E9.46188
G1 X125.582 Y96.267 E9.48147
G1 X125.87 Y96.759 E9.50043
G1 X126.143 Y97.268 E9.51964
G1 X126.4 Y97.796 E9.53917
G1 X126.617 Y98.29 E9.55712
G1 X126.827 Y98.812 E9.57583
G1 X127.184 Y99.796 E9.61065
G1 X127.53 Y100.828 E9.64685
G1 X127.81 Y101.771 E9.67957
G1 X128.07 Y102.775 E9.71406
