;FLAVOR:Marlin
;TIME:476
;Filament used: 0.179599m
;Layer height: 0.13
;MINX:92.2
;MINY:89.2
;MINZ:0.2
;MAXX:127.8
;MAXY:130.8
;MAXZ:0.59
;Generated with Cura_SteamEngine 4.6.1
M140 S60
M105
M190 S60
M104 S205
M105
M109 S205
M82 ;absolute extrusion mode
; Ender 3 Custom Start G-code
G92 E0 ; Reset Extruder
G28 ; Home all axes
G1 Z2.0 F3000 ; Move Z Axis up little to prevent scratching of Heat Bed
G1 X0.1 Y20 Z0.3 F5000.0 ; Move to start position
G1 X0.1 Y200.0 Z0.3 F1500.0 E15 ; Draw the first line
G1 X0.4 Y200.0 Z0.3 F5000.0 ; Move to side a little
G1 X0.4 Y20 Z0.3 F1500.0 E30 ; Draw the second line
G92 E0 ; Reset Extruder
G1 Z2.0 F3000 ; Move Z Axis up little to prevent scratching of Heat Bed
G1 X5 Y20 Z0.3 F5000.0 ; Move over to prevent blob squish
G92 E0
G92 E0
G1 F1500 E-6
;LAYER_COUNT:4
;LAYER:0
M107
;MESH:Guide.stl(7)
G0 F6000 X92.2 Y89.2 Z0.2
;TYPE:WALL-OUTER
G1 F1500 E0
G1 F1200 X99.8 Y89.2 E0.25278
G1 X99.8 Y98.8 E0.57207
G1 X92.2 Y98.8 E0.82485
G1 X92.2 Y89.2 E1.14415
G0 F6000 X92.6 Y89.6
;TYPE:WALL-INNER
G1 F1200 X99.4 Y89.6 E1.37032
G1 X99.4 Y98.4 E1.66301
G1 X92.6 Y98.4 E1.88918
G1 X92.6 Y89.6 E2.18186
G0 F6000 X92.99 Y89.99
;TYPE:SKIN
G1 F1200 X99.01 Y89.99 E2.38209
G1 X99.01 Y98.01 E2.64884
G1 X92.99 Y98.01 E2.84906
G1 X92.99 Y89.99 E3.11581
G0 F6000 X98.849 Y90.364
G1 F1200 X98.635 Y90.15 E3.12588
G0 F6000 X98.07 Y90.15
G1 F1200 X98.849 Y90.929 E3.16252
G0 F6000 X98.849 Y91.495
G1 F1200 X97.504 Y90.15 E3.22578
G0 F6000 X96.938 Y90.15
G1 F1200 X98.849 Y92.061 E3.31567
G0 F6000 X98.849 Y92.626
G1 F1200 X96.372 Y90.15 E3.43216
G0 F6000 X95.807 Y90.15
G1 F1200 X98.849 Y93.192 E3.57524
G0 F6000 X98.849 Y93.758
G1 F1200 X95.241 Y90.15 E3.74495
G0 F6000 X94.675 Y90.15
G1 F1200 X98.849 Y94.323 E3.94126
G0 F6000 X98.849 Y94.889
G1 F1200 X94.11 Y90.15 E4.16417
G0 F6000 X93.544 Y90.15
G1 F1200 X98.849 Y95.455 E4.4137
G0 F6000 X98.849 Y96.02
G1 F1200 X93.149 Y90.32 E4.68181
G0 F6000 X93.149 Y90.886
G1 F1200 X98.849 Y96.586 E4.94992
G0 F6000 X98.849 Y97.152
G1 F1200 X93.149 Y91.452 E5.21803
G0 F6000 X93.149 Y92.017
G1 F1200 X98.849 Y97.717 E5.48614
G0 F6000 X98.415 Y97.849
G1 F1200 X93.149 Y92.583 E5.73384
G0 F6000 X93.149 Y93.149
G1 F1200 X97.849 Y97.849 E5.95491
G0 F6000 X97.283 Y97.849
G1 F1200 X93.149 Y93.714 E6.14939
G0 F6000 X93.149 Y94.28
G1 F1200 X96.718 Y97.849 E6.31726
G0 F6000 X96.152 Y97.849
G1 F1200 X93.149 Y94.846 E6.45851
G0 F6000 X93.149 Y95.412
G1 F1200 X95.586 Y97.849 E6.57314
G0 F6000 X95.021 Y97.849
G1 F1200 X93.149 Y95.977 E6.66119
G0 F6000 X93.149 Y96.543
G1 F1200 X94.455 Y97.849 E6.72263
G0 F6000 X93.889 Y97.849
G1 F1200 X93.149 Y97.109 E6.75743
G0 F6000 X93.149 Y97.674
G1 F1200 X93.323 Y97.849 E6.76564
G1 F1500 E0.76564
;MESH:Guide.stl(4)
G0 F6000 X99.38 Y98.33
G0 X100.665 Y98.33
G0 X105.335 Y98.33
G0 X106.62 Y98.33
G0 X106.2 Y98.8
;TYPE:WALL-OUTER
G1 F1500 E6.76564
G1 F1200 X106.2 Y89.2 E7.08494
G1 X113.8 Y89.2 E7.33771
G1 X113.8 Y98.8 E7.65701
G1 X106.2 Y98.8 E7.90979
G0 F6000 X106.6 Y98.4
;TYPE:WALL-INNER
G1 F1200 X106.6 Y89.6 E8.20248
G1 X113.4 Y89.6 E8.42865
G1 X113.4 Y98.4 E8.72134
G1 X106.6 Y98.4 E8.94751
G0 F6000 X106.99 Y98.01
;TYPE:SKIN
G1 F1200 X106.99 Y89.99 E9.21425
G1 X113.01 Y89.99 E9.41448
G1 X113.01 Y98.01 E9.68122
G1 X106.99 Y98.01 E9.88145
G0 F6000 X107.466 Y97.849
G1 F1200 X107.149 Y97.532 E9.89636
G0 F6000 X107.149 Y96.966
G1 F1200 X108.031 Y97.849 E9.93787
G0 F6000 X108.597 Y97.849
G1 F1200 X107.149 Y96.401 E10.00598
G0 F6000 X107.149 Y95.835
G1 F1200 X109.163 Y97.849 E10.10071
G0 F6000 X109.728 Y97.849
G1 F1200 X107.149 Y95.269 E10.22204
G0 F6000 X107.149 Y94.704
G1 F1200 X110.294 Y97.849 E10.36998
G0 F6000 X110.86 Y97.849
G1 F1200 X107.149 Y94.138 E10.54453
G0 F6000 X107.149 Y93.572
G1 F1200 X111.425 Y97.849 E10.74568
G0 F6000 X111.991 Y97.849
G1 F1200 X107.149 Y93.007 E10.97344
G0 F6000 X107.149 Y92.441
G1 F1200 X112.557 Y97.849 E11.22781
G0 F6000 X112.849 Y97.575
G1 F1200 X107.149 Y91.875 E11.49592
G0 F6000 X107.149 Y91.31
G1 F1200 X112.849 Y97.01 E11.76403
G0 F6000 X112.849 Y96.444
G1 F1200 X107.149 Y90.744 E12.03214
G0 F6000 X107.149 Y90.178
G1 F1200 X112.849 Y95.878 E12.30025
G0 F6000 X112.849 Y95.313
G1 F1200 X107.686 Y90.15 E12.54311
G0 F6000 X108.252 Y90.15
G1 F1200 X112.849 Y94.747 E12.75933
G0 F6000 X112.849 Y94.181
G1 F1200 X108.818 Y90.15 E12.94894
G0 F6000 X109.383 Y90.15
G1 F1200 X112.849 Y93.615 E13.11195
G0 F6000 X112.849 Y93.05
G1 F1200 X109.949 Y90.15 E13.24835
G0 F6000 X110.515 Y90.15
G1 F1200 X112.849 Y92.484 E13.35814
G0 F6000 X112.849 Y91.918
G1 F1200 X111.08 Y90.15 E13.44132
G0 F6000 X111.646 Y90.15
G1 F1200 X112.849 Y91.353 E13.49791
G0 F6000 X112.849 Y90.787
G1 F1200 X112.212 Y90.15 E13.52787
G0 F6000 X112.777 Y90.15
G1 F1200 X112.849 Y90.221 E13.53123
G1 F1500 E7.53123
;MESH:Guide.stl(8)
G0 F6000 X113.38 Y89.67
G0 X114.665 Y89.67
G0 X119.335 Y89.67
G0 X120.62 Y89.67
G0 X120.2 Y89.2
;TYPE:WALL-OUTER
G1 F1500 E13.53123
G1 F1200 X127.8 Y89.2 E13.78401
G1 X127.8 Y98.8 E14.10331
G1 X120.2 Y98.8 E14.35609
G1 X120.2 Y89.2 E14.67538
G0 F6000 X120.6 Y89.6
;TYPE:WALL-INNER
G1 F1200 X127.4 Y89.6 E14.90155
G1 X127.4 Y98.4 E15.19424
G1 X120.6 Y98.4 E15.42041
G1 X120.6 Y89.6 E15.7131
G0 F6000 X120.99 Y89.99
;TYPE:SKIN
G1 F1200 X127.01 Y89.99 E15.91332
G1 X127.01 Y98.01 E16.18007
G1 X120.99 Y98.01 E16.3803
G1 X120.99 Y89.99 E16.64704
G0 F6000 X126.849 Y90.645
G1 F1200 X126.354 Y90.15 E16.67033
G0 F6000 X125.788 Y90.15
G1 F1200 X126.849 Y91.211 E16.72023
G0 F6000 X126.849 Y91.776
G1 F1200 X125.222 Y90.15 E16.79674
G0 F6000 X124.657 Y90.15
G1 F1200 X126.849 Y92.342 E16.89984
G0 F6000 X126.849 Y92.908
G1 F1200 X124.091 Y90.15 E17.02957
G0 F6000 X123.525 Y90.15
G1 F1200 X126.849 Y93.473 E17.1859
G0 F6000 X126.849 Y94.039
G1 F1200 X122.96 Y90.15 E17.36883
G0 F6000 X122.394 Y90.15
G1 F1200 X126.849 Y94.605 E17.57837
G0 F6000 X126.849 Y95.17
G1 F1200 X121.828 Y90.15 E17.81452
G0 F6000 X121.263 Y90.15
G1 F1200 X126.849 Y95.736 E18.07727
G0 F6000 X126.849 Y96.302
G1 F1200 X121.149 Y90.602 E18.34538
G0 F6000 X121.149 Y91.167
G1 F1200 X126.849 Y96.867 E18.61349
G0 F6000 X126.849 Y97.433
G1 F1200 X121.149 Y91.733 E18.8816
G0 F6000 X121.149 Y92.299
G1 F1200 X126.699 Y97.849 E19.14266
G0 F6000 X126.133 Y97.849
G1 F1200 X121.149 Y92.865 E19.37709
G0 F6000 X121.149 Y93.43
G1 F1200 X125.568 Y97.849 E19.58495
G0 F6000 X125.002 Y97.849
G1 F1200 X121.149 Y93.996 E19.76618
G0 F6000 X121.149 Y94.562
G1 F1200 X124.436 Y97.849 E19.92079
G0 F6000 X123.87 Y97.849
G1 F1200 X121.149 Y95.127 E20.0488
G0 F6000 X121.149 Y95.693
G1 F1200 X123.305 Y97.849 E20.15021
G0 F6000 X122.739 Y97.849
G1 F1200 X121.149 Y96.259 E20.225
G0 F6000 X121.149 Y96.824
G1 F1200 X122.173 Y97.849 E20.27319
G0 F6000 X121.608 Y97.849
G1 F1200 X121.149 Y97.39 E20.29478
G1 F1500 E14.29478
;MESH:Guide.stl(2)
G0 F6000 X120.67 Y98.38
G0 X120.67 Y99.665
G0 X120.67 Y104.335
G0 X120.67 Y105.62
G0 X120.2 Y105.2
;TYPE:WALL-OUTER
G1 F1500 E20.29478
G1 F1200 X127.8 Y105.2 E20.54756
G1 X127.8 Y114.8 E20.86686
G1 X120.2 Y114.8 E21.11963
G1 X120.2 Y105.2 E21.43893
G0 F6000 X120.6 Y105.6
;TYPE:WALL-INNER
G1 F1200 X127.4 Y105.6 E21.6651
G1 X127.4 Y114.4 E21.95779
G1 X120.6 Y114.4 E22.18396
G1 X120.6 Y105.6 E22.47665
G0 F6000 X120.99 Y105.99
;TYPE:SKIN
G1 F1200 X127.01 Y105.99 E22.67687
G1 X127.01 Y114.01 E22.94362
G1 X120.99 Y114.01 E23.14384
G1 X120.99 Y105.99 E23.41059
G0 F6000 X126.849 Y106.484
G1 F1200 X126.514 Y106.15 E23.42632
G0 F6000 X125.949 Y106.15
G1 F1200 X126.849 Y107.05 E23.46866
G0 F6000 X126.849 Y107.615
G1 F1200 X125.383 Y106.15 E23.53759
G0 F6000 X124.817 Y106.15
G1 F1200 X126.849 Y108.181 E23.63315
G0 F6000 X126.849 Y108.747
G1 F1200 X124.252 Y106.15 E23.7553
G0 F6000 X123.686 Y106.15
G1 F1200 X126.849 Y109.313 E23.90408
G0 F6000 X126.849 Y109.878
G1 F1200 X123.12 Y106.15 E24.07946
G0 F6000 X122.555 Y106.15
G1 F1200 X126.849 Y110.444 E24.28143
G0 F6000 X126.849 Y111.01
G1 F1200 X121.989 Y106.15 E24.51003
G0 F6000 X121.423 Y106.15
G1 F1200 X126.849 Y111.575 E24.76523
G0 F6000 X126.849 Y112.141
G1 F1200 X121.149 Y106.441 E25.03334
G0 F6000 X121.149 Y107.007
G1 F1200 X126.849 Y112.707 E25.30145
G0 F6000 X126.849 Y113.272
G1 F1200 X121.149 Y107.572 E25.56956
G0 F6000 X121.149 Y108.138
G1 F1200 X126.849 Y113.838 E25.83767
G0 F6000 X126.294 Y113.849
G1 F1200 X121.149 Y108.704 E26.07968
G0 F6000 X121.149 Y109.269
G1 F1200 X125.729 Y113.849 E26.29511
G0 F6000 X125.163 Y113.849
G1 F1200 X121.149 Y109.835 E26.48391
G0 F6000 X121.149 Y110.401
G1 F1200 X124.597 Y113.849 E26.6461
G0 F6000 X124.032 Y113.849
G1 F1200 X121.149 Y110.966 E26.7817
G0 F6000 X121.149 Y111.532
G1 F1200 X123.466 Y113.849 E26.89069
G0 F6000 X122.9 Y113.849
G1 F1200 X121.149 Y112.098 E26.97305
G0 F6000 X121.149 Y112.664
G1 F1200 X122.335 Y113.849 E27.02881
G0 F6000 X121.769 Y113.849
G1 F1200 X121.149 Y113.229 E27.05798
G1 F1500 E21.05798
;MESH:Guide.stl
G0 F6000 X120.62 Y114.33
G0 X119.335 Y114.33
G0 X114.665 Y114.33
G0 X113.38 Y114.33
G0 X113.8 Y114.8
;TYPE:WALL-OUTER
G1 F1500 E27.05798
G1 F1200 X106.2 Y114.8 E27.31075
G1 X106.2 Y105.2 E27.63005
G1 X113.8 Y105.2 E27.88283
G1 X113.8 Y114.8 E28.20212
G0 F6000 X113.4 Y114.4
;TYPE:WALL-INNER
G1 F1200 X106.6 Y114.4 E28.42829
G1 X106.6 Y105.6 E28.72098
G1 X113.4 Y105.6 E28.94715
G1 X113.4 Y114.4 E29.23984
G0 F6000 X113.01 Y114.01
;TYPE:SKIN
G1 F1200 X106.99 Y114.01 E29.44007
G1 X106.99 Y105.99 E29.70681
G1 X113.01 Y105.99 E29.90704
G1 X113.01 Y114.01 E30.17378
G0 F6000 X107.626 Y113.849
G1 F1200 X107.149 Y113.371 E30.19625
G0 F6000 X107.149 Y112.806
G1 F1200 X108.192 Y113.849 E30.2453
G0 F6000 X108.757 Y113.849
G1 F1200 X107.149 Y112.24 E30.32096
G0 F6000 X107.149 Y111.674
G1 F1200 X109.323 Y113.849 E30.42325
G0 F6000 X109.889 Y113.849
G1 F1200 X107.149 Y111.109 E30.55213
G0 F6000 X107.149 Y110.543
G1 F1200 X110.455 Y113.849 E30.70763
G0 F6000 X111.02 Y113.849
G1 F1200 X107.149 Y109.977 E30.88973
G0 F6000 X107.149 Y109.412
G1 F1200 X111.586 Y113.849 E31.09844
G0 F6000 X112.152 Y113.849
G1 F1200 X107.149 Y108.846 E31.33376
G0 F6000 X107.149 Y108.28
G1 F1200 X112.717 Y113.849 E31.59569
G0 F6000 X112.849 Y113.415
G1 F1200 X107.149 Y107.714 E31.86382
G0 F6000 X107.149 Y107.149
G1 F1200 X112.849 Y112.849 E32.13193
G0 F6000 X112.849 Y112.284
G1 F1200 X107.149 Y106.583 E32.40007
G0 F6000 X107.281 Y106.15
G1 F1200 X112.849 Y111.718 E32.66197
G0 F6000 X112.849 Y111.152
G1 F1200 X107.847 Y106.15 E32.89725
G0 F6000 X108.412 Y106.15
G1 F1200 X112.849 Y110.587 E33.10595
G0 F6000 X112.849 Y110.021
G1 F1200 X108.978 Y106.15 E33.28803
G0 F6000 X109.544 Y106.15
G1 F1200 X112.849 Y109.455 E33.44349
G0 F6000 X112.849 Y108.89
G1 F1200 X110.109 Y106.15 E33.57237
G0 F6000 X110.675 Y106.15
G1 F1200 X112.849 Y108.324 E33.67463
G0 F6000 X112.849 Y107.758
G1 F1200 X111.241 Y106.15 E33.75026
G0 F6000 X111.807 Y106.15
G1 F1200 X112.849 Y107.193 E33.7993
G0 F6000 X112.849 Y106.627
G1 F1200 X112.372 Y106.15 E33.82173
G1 F1500 E27.82173
;MESH:Guide.stl(1)
G0 F6000 X106.62 Y105.67
G0 X105.335 Y105.67
G0 X100.665 Y105.67
G0 X99.38 Y105.67
G0 X99.8 Y105.2
;TYPE:WALL-OUTER
G1 F1500 E33.82173
G1 F1200 X99.8 Y114.8 E34.14103
G1 X92.2 Y114.8 E34.39381
G1 X92.2 Y105.2 E34.71311
G1 X99.8 Y105.2 E34.96588
G0 F6000 X99.4 Y105.6
;TYPE:WALL-INNER
G1 F1200 X99.4 Y114.4 E35.25857
G1 X92.6 Y114.4 E35.48474
G1 X92.6 Y105.6 E35.77743
G1 X99.4 Y105.6 E36.0036
G0 F6000 X99.01 Y105.99
;TYPE:SKIN
G1 F1200 X99.01 Y114.01 E36.27035
G1 X92.99 Y114.01 E36.47057
G1 X92.99 Y105.99 E36.73732
G1 X99.01 Y105.99 E36.93754
G0 F6000 X98.849 Y106.769
G1 F1200 X98.229 Y106.149 E36.96671
G0 F6000 X97.664 Y106.149
G1 F1200 X98.849 Y107.335 E37.02247
G0 F6000 X98.849 Y107.9
G1 F1200 X97.098 Y106.149 E37.10483
G0 F6000 X96.532 Y106.149
G1 F1200 X98.849 Y108.466 E37.21382
G0 F6000 X98.849 Y109.032
G1 F1200 X95.967 Y106.149 E37.3494
G0 F6000 X95.401 Y106.149
G1 F1200 X98.849 Y109.598 E37.51161
G0 F6000 X98.849 Y110.163
G1 F1200 X94.835 Y106.149 E37.70041
G0 F6000 X94.27 Y106.149
G1 F1200 X98.849 Y110.729 E37.91582
G0 F6000 X98.849 Y111.295
G1 F1200 X93.704 Y106.149 E38.15785
G0 F6000 X93.15 Y106.16
G1 F1200 X98.849 Y111.86 E38.42593
G0 F6000 X98.849 Y112.426
G1 F1200 X93.15 Y106.726 E38.69402
G0 F6000 X93.15 Y107.292
G1 F1200 X98.849 Y112.992 E38.96211
G0 F6000 X98.849 Y113.557
G1 F1200 X93.15 Y107.857 E39.23019
G0 F6000 X93.15 Y108.423
G1 F1200 X98.575 Y113.849 E39.48539
G0 F6000 X98.009 Y113.849
G1 F1200 X93.15 Y108.989 E39.71397
G0 F6000 X93.15 Y109.554
G1 F1200 X97.444 Y113.849 E39.91597
G0 F6000 X96.878 Y113.849
G1 F1200 X93.15 Y110.12 E40.09135
G0 F6000 X93.15 Y110.686
G1 F1200 X96.312 Y113.849 E40.2401
G0 F6000 X95.747 Y113.849
G1 F1200 X93.15 Y111.251 E40.36228
G0 F6000 X93.15 Y111.817
G1 F1200 X95.181 Y113.849 E40.45784
G0 F6000 X94.615 Y113.849
G1 F1200 X93.15 Y112.383 E40.52677
G0 F6000 X93.15 Y112.948
G1 F1200 X94.05 Y113.849 E40.56912
G0 F6000 X93.484 Y113.849
G1 F1200 X93.15 Y113.514 E40.58486
G1 F1500 E34.58486
;MESH:Guide.stl(5)
G0 F6000 X92.67 Y114.38
G0 X92.67 Y115.665
G0 X92.67 Y120.335
G0 X92.67 Y121.62
G0 X92.2 Y121.2
;TYPE:WALL-OUTER
G1 F1500 E40.58486
G1 F1200 X99.8 Y121.2 E40.83764
G1 X99.8 Y130.8 E41.15693
G1 X92.2 Y130.8 E41.40971
G1 X92.2 Y121.2 E41.72901
G0 F6000 X92.6 Y121.6
;TYPE:WALL-INNER
G1 F1200 X99.4 Y121.6 E41.95518
G1 X99.4 Y130.4 E42.24787
G1 X92.6 Y130.4 E42.47403
G1 X92.6 Y121.6 E42.76672
G0 F6000 X92.99 Y121.99
;TYPE:SKIN
G1 F1200 X99.01 Y121.99 E42.96695
G1 X99.01 Y130.01 E43.2337
G1 X92.99 Y130.01 E43.43392
G1 X92.99 Y121.99 E43.70067
G0 F6000 X98.849 Y122.608
G1 F1200 X98.391 Y122.149 E43.72223
G0 F6000 X97.825 Y122.149
G1 F1200 X98.849 Y123.174 E43.77042
G0 F6000 X98.849 Y123.74
G1 F1200 X97.259 Y122.149 E43.84524
G0 F6000 X96.694 Y122.149
G1 F1200 X98.849 Y124.305 E43.94662
G0 F6000 X98.849 Y124.871
G1 F1200 X96.128 Y122.149 E44.07463
G0 F6000 X95.562 Y122.149
G1 F1200 X98.849 Y125.437 E44.22927
G0 F6000 X98.849 Y126.002
G1 F1200 X94.996 Y122.149 E44.4105
G0 F6000 X94.431 Y122.149
G1 F1200 X98.849 Y126.568 E44.61833
G0 F6000 X98.849 Y127.134
G1 F1200 X93.865 Y122.149 E44.85279
G0 F6000 X93.299 Y122.149
G1 F1200 X98.849 Y127.699 E45.11385
G0 F6000 X98.849 Y128.265
G1 F1200 X93.15 Y122.565 E45.38193
G0 F6000 X93.15 Y123.131
G1 F1200 X98.849 Y128.831 E45.65002
G0 F6000 X98.849 Y129.397
G1 F1200 X93.15 Y123.697 E45.91811
G0 F6000 X93.15 Y124.262
G1 F1200 X98.736 Y129.848 E46.18085
G0 F6000 X98.17 Y129.848
G1 F1200 X93.15 Y124.828 E46.41698
G0 F6000 X93.15 Y125.394
G1 F1200 X97.604 Y129.848 E46.62648
G0 F6000 X97.039 Y129.848
G1 F1200 X93.15 Y125.959 E46.80941
G0 F6000 X93.15 Y126.525
G1 F1200 X96.473 Y129.848 E46.96571
G0 F6000 X95.907 Y129.848
G1 F1200 X93.15 Y127.091 E47.09539
G0 F6000 X93.15 Y127.656
G1 F1200 X95.342 Y129.848 E47.1985
G0 F6000 X94.776 Y129.848
G1 F1200 X93.15 Y128.222 E47.27498
G0 F6000 X93.15 Y128.788
G1 F1200 X94.21 Y129.848 E47.32484
G0 F6000 X93.644 Y129.848
G1 F1200 X93.15 Y129.353 E47.3481
G1 F1500 E41.3481
;MESH:Guide.stl(3)
G0 F6000 X99.38 Y130.33
G0 X100.665 Y130.33
G0 X105.335 Y130.33
G0 X106.62 Y130.33
G0 X106.2 Y130.8
;TYPE:WALL-OUTER
G1 F1500 E47.3481
G1 F1200 X106.2 Y121.2 E47.6674
G1 X113.8 Y121.2 E47.92017
G1 X113.8 Y130.8 E48.23947
G1 X106.2 Y130.8 E48.49225
G0 F6000 X106.6 Y130.4
;TYPE:WALL-INNER
G1 F1200 X106.6 Y121.6 E48.78494
G1 X113.4 Y121.6 E49.01111
G1 X113.4 Y130.4 E49.3038
G1 X106.6 Y130.4 E49.52996
G0 F6000 X106.99 Y130.01
;TYPE:SKIN
G1 F1200 X106.99 Y121.99 E49.79671
G1 X113.01 Y121.99 E49.99694
G1 X113.01 Y130.01 E50.26368
G1 X106.99 Y130.01 E50.46391
G0 F6000 X107.221 Y129.848
G1 F1200 X107.15 Y129.777 E50.46725
