;FLAVOR:Marlin
;TIME:4614
;Filament used: 3.41642m
;Layer height: 0.2
;MINX:99.799
;MINY:75.6
;MINZ:0.2
;MAXX:120.198
;MAXY:144.392
;MAXZ:172.2
;Generated with Cura_SteamEngine 4.6.1
M140 S60
M105
M190 S60
M104 S220
M105
M109 S220
M82 ;absolute extrusion mode
; Ender 3 Custom Start G-code
G92 E0 ; Reset Extruder
G28 ; Home all axes
G1 Z2.0 F3000 ; Move Z Axis up little to prevent scratching of Heat Bed
G1 X0.1 Y20 Z0.3 F5000.0 ; Move to start position
G1 X0.1 Y200.0 Z0.3 F1500.0 E15 ; Draw the first line
G1 X0.4 Y200.0 Z0.3 F5000.0 ; Move to side a little
G1 X0.4 Y20 Z0.3 F1500.0 E30 ; Draw the second line
G92 E0 ; Reset Extruder
G1 Z2.0 F3000 ; Move Z Axis up little to prevent scratching of Heat Bed
G1 X5 Y20 Z0.3 F5000.0 ; Move over to prevent blob squish
G92 E0
G92 E0
G1 F1500 E-6
;LAYER_COUNT:865
;LAYER:0
M107
G0 F6000 X102.391 Y77.84 Z0.2
;TYPE:SKIRT
G1 F1500 E0.04158
G1 F1200 X102.84 Y77.328 E0.06422
G1 X103.346 Y76.872 E0.08688
G1 X103.901 Y76.478 E0.10952
G1 X104.499 Y76.153 E0.13216
G1 X105.131 Y75.899 E0.15481
G1 X105.789 Y75.722 E0.17747
G1 X106.462 Y75.622 E0.2001
G1 X106.97 Y75.6 E0.21701
G1 X113.029 Y75.6 E0.41854
G1 X113.709 Y75.64 E0.44119
G1 X114.379 Y75.759 E0.46383
G1 X115.031 Y75.956 E0.48648
G1 X115.655 Y76.228 E0.50912
G1 X116.243 Y76.572 E0.53178
G1 X116.787 Y76.982 E0.55444
G1 X117.278 Y77.453 E0.57707
G1 X117.712 Y77.978 E0.59972
G1 X118.081 Y78.55 E0.62236
G1 X118.38 Y79.162 E0.64502
G1 X118.605 Y79.804 E0.66764
G1 X118.754 Y80.469 E0.69031
G1 X118.814 Y80.989 E0.70772
G1 X119.229 Y86.835 E0.90265
G1 X119.418 Y89.802 E1.00153
G1 X119.589 Y92.704 E1.09822
G1 X119.745 Y95.664 E1.1968
G1 X119.882 Y98.63 E1.29556
G1 X119.998 Y101.543 E1.39252
G1 X120.094 Y104.545 E1.49242
G1 X120.161 Y107.512 E1.59113
G1 X120.195 Y110.475 E1.68969
G1 X120.198 Y113.512 E1.7907
G1 X120.16 Y116.458 E1.88869
G1 X120.112 Y118.475 E1.95579
G1 X120.038 Y120.496 E2.02306
G1 X119.937 Y122.5 E2.08979
G1 X119.805 Y124.522 E2.15719
G1 X119.647 Y126.533 E2.22428
G1 X119.545 Y127.605 E2.2601
G1 X119.329 Y129.496 E2.3234
G1 X119.092 Y131.181 E2.38
G1 X118.8 Y132.954 E2.43976
G1 X118.616 Y133.936 E2.47299
G1 X118.448 Y134.724 E2.49979
G1 X118.168 Y135.848 E2.53832
G1 X118.101 Y136.093 E2.54676
G1 X117.766 Y137.216 E2.58574
G1 X117.522 Y137.954 E2.61159
G1 X117.425 Y138.224 E2.62114
G1 X117.209 Y138.783 E2.64107
G1 X117.068 Y139.117 E2.65313
G1 X116.883 Y139.519 E2.66785
G1 X116.749 Y139.79 E2.6779
G1 X116.644 Y139.99 E2.68541
G1 X116.467 Y140.303 E2.69737
G1 X116.257 Y140.649 E2.71084
G1 X115.949 Y141.107 E2.72919
G1 X115.697 Y141.445 E2.74322
G1 X115.324 Y141.896 E2.76268
G1 X115.171 Y142.063 E2.77021
G1 X114.851 Y142.385 E2.78531
G1 X114.686 Y142.539 E2.79282
G1 X114.074 Y143.037 E2.81906
G1 X113.87 Y143.181 E2.82737
G1 X113.291 Y143.541 E2.85004
G1 X112.979 Y143.698 E2.86166
G1 X112.752 Y143.804 E2.86999
G1 X112.119 Y144.056 E2.89265
G1 X111.276 Y144.266 E2.92155
G1 X110.978 Y144.317 E2.93161
G1 X110.302 Y144.392 E2.95423
G1 X109.621 Y144.388 E2.97688
G1 X109.007 Y144.314 E2.99745
G1 X108.702 Y144.261 E3.00774
G1 X108.039 Y144.106 E3.03039
G1 X107.174 Y143.771 E3.06124
G1 X106.944 Y143.66 E3.06974
G1 X106.085 Y143.149 E3.10298
G1 X105.88 Y143.002 E3.11137
G1 X105.245 Y142.475 E3.13882
G1 X105.024 Y142.263 E3.149
G1 X104.562 Y141.765 E3.1716
G1 X104.361 Y141.521 E3.18211
G1 X104.041 Y141.093 E3.19988
G1 X103.812 Y140.756 E3.21344
G1 X103.563 Y140.355 E3.22914
G1 X103.363 Y140.002 E3.24263
G1 X103.144 Y139.577 E3.25853
G1 X102.936 Y139.127 E3.27502
G1 X102.804 Y138.817 E3.28623
G1 X102.621 Y138.352 E3.30285
G1 X102.525 Y138.089 E3.31216
G1 X102.252 Y137.273 E3.34078
G1 X101.917 Y136.155 E3.3796
G1 X101.854 Y135.926 E3.3875
G1 X101.603 Y134.944 E3.42121
G1 X101.543 Y134.686 E3.43002
G1 X101.291 Y133.46 E3.47165
G1 X101.07 Y132.19 E3.51452
G1 X100.768 Y130.211 E3.58111
G1 X100.587 Y128.804 E3.62829
G1 X100.385 Y126.851 E3.69359
G1 X100.218 Y124.813 E3.7616
G1 X100.065 Y122.488 E3.8391
G1 X99.938 Y119.883 E3.92585
G1 X99.852 Y117.051 E4.02008
G1 X99.808 Y114.141 E4.11688
G1 X99.799 Y112.577 E4.1689
G1 X99.806 Y110.041 E4.25325
G1 X99.813 Y109.926 E4.25708
G1 X99.809 Y109.87 E4.25895
G1 X99.857 Y106.675 E4.36523
G1 X99.931 Y103.759 E4.46224
G1 X100.031 Y100.784 E4.56125
G1 X100.154 Y97.812 E4.66018
G1 X100.295 Y94.895 E4.75731
G1 X100.454 Y91.937 E4.85584
G1 X100.632 Y88.976 E4.9545
G1 X101.026 Y83.139 E5.14908
G1 X101.186 Y80.973 E5.22132
G1 X101.276 Y80.299 E5.24394
G1 X101.444 Y79.639 E5.26659
G1 X101.688 Y79.003 E5.28924
G1 X102.006 Y78.401 E5.31189
G1 X102.391 Y77.84 E5.33452
G0 F6000 X102.779 Y77.995
G1 F1200 X103.223 Y77.511 E5.35636
G1 X103.723 Y77.085 E5.37821
G1 X104.271 Y76.723 E5.40006
G1 X104.859 Y76.43 E5.42191
G1 X105.479 Y76.21 E5.44379
G1 X106.12 Y76.067 E5.46563
G1 X106.97 Y76 E5.49399
G1 X113.029 Y76 E5.69551
G1 X113.685 Y76.04 E5.71737
G1 X114.331 Y76.159 E5.73922
G1 X114.958 Y76.356 E5.76108
G1 X115.556 Y76.628 E5.78293
G1 X116.117 Y76.97 E5.80478
G1 X116.632 Y77.378 E5.82664
G1 X117.094 Y77.845 E5.84849
G1 X117.495 Y78.365 E5.87033
G1 X117.831 Y78.929 E5.89216
G1 X118.095 Y79.531 E5.91402
G1 X118.285 Y80.16 E5.93588
G1 X118.415 Y81.018 E5.96474
G1 X118.83 Y86.864 E6.15967
G1 X119.019 Y89.827 E6.25842
G1 X119.19 Y92.727 E6.35504
G1 X119.346 Y95.685 E6.45356
G1 X119.482 Y98.648 E6.55222
G1 X119.599 Y101.559 E6.64911
G1 X119.692 Y104.506 E6.74718
G1 X119.761 Y107.517 E6.84735
G1 X119.795 Y110.476 E6.94578
G1 X119.798 Y113.507 E7.04659
G1 X119.76 Y116.449 E7.14445
G1 X119.712 Y118.46 E7.21135
G1 X119.638 Y120.476 E7.27845
G1 X119.538 Y122.474 E7.34499
G1 X119.406 Y124.491 E7.41222
G1 X119.248 Y126.496 E7.47911
G1 X119.148 Y127.56 E7.51465
G1 X118.933 Y129.44 E7.57759
G1 X118.698 Y131.117 E7.63391
G1 X118.407 Y132.881 E7.69338
G1 X118.224 Y133.855 E7.72634
G1 X118.06 Y134.627 E7.75259
G1 X117.78 Y135.751 E7.79112
G1 X117.718 Y135.979 E7.79897
G1 X117.386 Y137.09 E7.83754
G1 X117.142 Y137.828 E7.86339
G1 X117.052 Y138.079 E7.87226
G1 X116.836 Y138.638 E7.89219
G1 X116.704 Y138.949 E7.90343
G1 X116.519 Y139.351 E7.91815
G1 X116.395 Y139.604 E7.92752
G1 X116.29 Y139.804 E7.93503
G1 X116.125 Y140.096 E7.94619
G1 X115.915 Y140.442 E7.95965
G1 X115.628 Y140.868 E7.97674
G1 X115.376 Y141.206 E7.99076
G1 X115.029 Y141.626 E8.00888
G1 X114.876 Y141.793 E8.01641
G1 X114.579 Y142.093 E8.03045
G1 X114.414 Y142.247 E8.03796
G1 X113.843 Y142.711 E8.06243
G1 X113.639 Y142.855 E8.07074
G1 X112.81 Y143.336 E8.10261
G1 X112.583 Y143.442 E8.11095
G1 X111.972 Y143.683 E8.13279
G1 X111.209 Y143.872 E8.15894
G1 X110.911 Y143.923 E8.16899
G1 X110.258 Y143.994 E8.19084
G1 X109.601 Y143.985 E8.21269
G1 X109.075 Y143.92 E8.23032
G1 X108.77 Y143.867 E8.24062
G1 X108.131 Y143.716 E8.26246
G1 X107.348 Y143.41 E8.29042
G1 X107.118 Y143.299 E8.29891
G1 X106.318 Y142.824 E8.32985
G1 X106.113 Y142.677 E8.33825
G1 X105.522 Y142.186 E8.3638
G1 X105.301 Y141.974 E8.37399
G1 X104.871 Y141.51 E8.39503
G1 X104.67 Y141.266 E8.40554
G1 X104.372 Y140.868 E8.42208
G1 X104.143 Y140.531 E8.43563
G1 X103.911 Y140.158 E8.45024
G1 X103.711 Y139.805 E8.46373
G1 X103.507 Y139.409 E8.47855
G1 X103.299 Y138.959 E8.49504
G1 X103.176 Y138.671 E8.50545
G1 X102.993 Y138.206 E8.52208
G1 X102.903 Y137.96 E8.53079
G1 X102.635 Y137.158 E8.55891
G1 X102.241 Y135.827 E8.60508
G1 X101.99 Y134.845 E8.63879
G1 X101.935 Y134.605 E8.64698
G1 X101.685 Y133.391 E8.68821
G1 X101.465 Y132.13 E8.73078
G1 X101.165 Y130.16 E8.79706
G1 X100.985 Y128.763 E8.84391
G1 X100.783 Y126.818 E8.90895
G1 X100.617 Y124.787 E8.97672
G1 X100.465 Y122.469 E9.05399
G1 X100.338 Y119.87 E9.14053
G1 X100.252 Y117.045 E9.23453
G1 X100.209 Y114.187 E9.3296
G1 X100.199 Y112.625 E9.38156
G1 X100.206 Y110.042 E9.46747
G1 X100.212 Y109.944 E9.47073
G1 X100.209 Y109.876 E9.473
G1 X100.257 Y106.685 E9.57914
G1 X100.331 Y103.769 E9.67616
G1 X100.431 Y100.797 E9.77507
G1 X100.554 Y97.828 E9.8739
G1 X100.694 Y94.914 E9.97093
G1 X100.854 Y91.959 E10.06936
G1 X101.032 Y89 E10.16795
G1 X101.425 Y83.165 E10.36247
G1 X101.585 Y81.003 E10.43457
G1 X101.673 Y80.352 E10.45642
G1 X101.839 Y79.716 E10.47828
G1 X102.082 Y79.106 E10.50012
G1 X102.396 Y78.529 E10.52197
G1 X102.779 Y77.995 E10.54383
G0 F6000 X103.166 Y78.155
G1 F1200 X103.606 Y77.701 E10.56486
G1 X104.099 Y77.306 E10.58587
G1 X104.639 Y76.977 E10.6069
G1 X105.215 Y76.718 E10.6279
G1 X105.82 Y76.534 E10.64894
G1 X106.443 Y76.428 E10.66995
G1 X106.97 Y76.4 E10.68751
G1 X113.029 Y76.4 E10.88903
G1 X113.66 Y76.44 E10.91006
G1 X114.281 Y76.559 E10.93109
G1 X114.881 Y76.756 E10.95209
G1 X115.453 Y77.027 E10.97315
G1 X115.985 Y77.367 E10.99415
G1 X116.47 Y77.773 E11.01518
G1 X116.9 Y78.236 E11.0362
G1 X117.269 Y78.75 E11.05724
G1 X117.569 Y79.306 E11.07826
G1 X117.797 Y79.895 E11.09926
G1 X117.949 Y80.509 E11.1203
G1 X118.016 Y81.046 E11.1383
G1 X118.431 Y86.892 E11.33323
G1 X118.62 Y89.853 E11.43191
G1 X118.79 Y92.75 E11.52843
G1 X118.946 Y95.706 E11.62689
G1 X119.083 Y98.667 E11.72548
G1 X119.199 Y101.575 E11.82227
G1 X119.292 Y104.519 E11.92024
G1 X119.361 Y107.521 E12.02011
G1 X119.395 Y110.476 E12.1184
G1 X119.398 Y113.502 E12.21905
G1 X119.361 Y116.439 E12.31674
G1 X119.313 Y118.446 E12.38351
G1 X119.239 Y120.456 E12.45041
G1 X119.139 Y122.449 E12.51678
G1 X119.008 Y124.459 E12.58378
G1 X118.85 Y126.458 E12.65047
G1 X118.75 Y127.515 E12.68578
G1 X118.537 Y129.385 E12.74838
G1 X118.303 Y131.052 E12.80437
G1 X118.014 Y132.808 E12.86356
G1 X117.833 Y133.774 E12.89625
G1 X117.672 Y134.531 E12.92199
G1 X117.392 Y135.655 E12.96052
G1 X117.334 Y135.866 E12.9678
G1 X117.006 Y136.965 E13.00594
G1 X116.762 Y137.703 E13.0318
G1 X116.679 Y137.935 E13.03999
G1 X116.463 Y138.494 E13.05992
G1 X116.341 Y138.782 E13.07033
G1 X116.156 Y139.184 E13.08504
G1 X116.041 Y139.418 E13.09372
G1 X115.936 Y139.618 E13.10123
G1 X115.783 Y139.888 E13.11155
G1 X115.573 Y140.234 E13.12501
G1 X115.308 Y140.629 E13.14083
G1 X115.056 Y140.967 E13.15486
G1 X114.734 Y141.356 E13.17165
G1 X114.581 Y141.523 E13.17918
G1 X114.306 Y141.8 E13.19217
G1 X114.141 Y141.954 E13.19967
G1 X113.612 Y142.384 E13.22235
G1 X113.408 Y142.528 E13.23065
G1 X112.641 Y142.973 E13.26015
G1 X112.414 Y143.079 E13.26848
G1 X111.825 Y143.31 E13.28952
G1 X111.141 Y143.477 E13.31294
G1 X110.843 Y143.528 E13.323
G1 X110.215 Y143.595 E13.344
G1 X109.583 Y143.583 E13.36503
G1 X109.144 Y143.526 E13.37975
G1 X108.839 Y143.473 E13.39005
G1 X108.224 Y143.326 E13.41108
G1 X107.522 Y143.05 E13.43617
G1 X107.292 Y142.939 E13.44466
G1 X106.551 Y142.499 E13.47332
G1 X106.346 Y142.352 E13.48171
G1 X105.799 Y141.897 E13.50538
G1 X105.578 Y141.685 E13.51556
G1 X105.18 Y141.256 E13.53503
G1 X104.979 Y141.012 E13.54554
G1 X104.702 Y140.643 E13.56089
G1 X104.473 Y140.306 E13.57444
G1 X104.259 Y139.961 E13.58794
G1 X104.059 Y139.608 E13.60144
G1 X103.87 Y139.241 E13.61517
G1 X103.662 Y138.791 E13.63165
G1 X103.548 Y138.524 E13.64131
G1 X103.365 Y138.059 E13.65793
G1 X103.282 Y137.832 E13.66597
G1 X103.018 Y137.043 E13.69364
G1 X102.629 Y135.728 E13.73925
G1 X102.326 Y134.523 E13.78058
G1 X102.079 Y133.322 E13.82136
G1 X101.861 Y132.069 E13.86366
G1 X101.562 Y130.108 E13.92964
G1 X101.383 Y128.721 E13.97615
G1 X101.182 Y126.785 E14.04089
G1 X101.016 Y124.76 E14.10847
G1 X100.864 Y122.449 E14.1855
G1 X100.737 Y119.858 E14.27178
G1 X100.652 Y117.039 E14.36558
G1 X100.609 Y114.181 E14.46065
G1 X100.599 Y112.623 E14.51247
G1 X100.609 Y109.882 E14.60364
G1 X100.657 Y106.695 E14.70965
G1 X100.731 Y103.779 E14.80667
G1 X100.831 Y100.811 E14.90544
G1 X100.953 Y97.845 E15.00417
G1 X101.094 Y94.934 E15.10111
G1 X101.253 Y91.98 E15.1995
G1 X101.431 Y89.024 E15.29799
G1 X101.824 Y83.192 E15.49241
G1 X101.984 Y81.032 E15.56445
G1 X102.07 Y80.406 E15.58546
G1 X102.234 Y79.796 E15.60647
G1 X102.475 Y79.211 E15.62751
G1 X102.787 Y78.661 E15.64855
G1 X103.166 Y78.155 E15.66957
G0 F6000 X103.177 Y78.798
G1 F1200 X103.552 Y78.322 E15.68973
G1 X103.986 Y77.899 E15.70988
G1 X104.473 Y77.537 E15.73007
G1 X105.002 Y77.242 E15.75021
G1 X105.566 Y77.019 E15.77038
G1 X106.155 Y76.873 E15.79057
G1 X106.97 Y76.8 E15.81778
G1 X113.029 Y76.8 E16.01931
G1 X113.634 Y76.84 E16.03947
G1 X114.228 Y76.959 E16.05962
G1 X114.802 Y77.155 E16.0798
G1 X115.345 Y77.426 E16.09998
G1 X115.848 Y77.765 E16.12015
G1 X116.301 Y78.167 E16.1403
G1 X116.698 Y78.625 E16.16046
G1 X117.031 Y79.132 E16.18063
G1 X117.295 Y79.678 E16.2008
G1 X117.484 Y80.254 E16.22097
G1 X117.617 Y81.074 E16.2486
G1 X118.032 Y86.92 E16.44352
G1 X118.221 Y89.878 E16.54211
G1 X118.391 Y92.774 E16.6386
G1 X118.547 Y95.727 E16.73695
G1 X118.683 Y98.685 E16.83544
G1 X118.799 Y101.591 E16.93217
G1 X118.893 Y104.531 E17.03
G1 X118.961 Y107.526 E17.12964
G1 X118.995 Y110.427 E17.22614
G1 X118.998 Y113.497 E17.32825
G1 X118.961 Y116.43 E17.42581
G1 X118.913 Y118.431 E17.49238
G1 X118.839 Y120.436 E17.55911
G1 X118.739 Y122.423 E17.62528
G1 X118.609 Y124.428 E17.69211
G1 X118.452 Y126.421 E17.7586
G1 X118.353 Y127.47 E17.79365
G1 X118.141 Y129.33 E17.85591
G1 X117.908 Y130.987 E17.91156
G1 X117.62 Y132.735 E17.97049
G1 X117.441 Y133.692 E18.00287
G1 X117.284 Y134.434 E18.02809
G1 X116.951 Y135.752 E18.07331
G1 X116.626 Y136.839 E18.11104
G1 X116.306 Y137.791 E18.14445
G1 X116.09 Y138.35 E18.16438
G1 X115.978 Y138.615 E18.17395
G1 X115.793 Y139.017 E18.18867
G1 X115.687 Y139.232 E18.19664
G1 X115.582 Y139.432 E18.20415
G1 X115.441 Y139.681 E18.21367
G1 X115.231 Y140.027 E18.22713
G1 X114.987 Y140.39 E18.24168
G1 X114.735 Y140.728 E18.2557
G1 X114.439 Y141.085 E18.27113
G1 X114.286 Y141.252 E18.27866
G1 X114.033 Y141.508 E18.29063
G1 X113.868 Y141.662 E18.29814
G1 X113.382 Y142.057 E18.31897
G1 X113.178 Y142.201 E18.32727
G1 X112.471 Y142.611 E18.35446
G1 X112.244 Y142.717 E18.36279
G1 X111.679 Y142.937 E18.38296
G1 X111.074 Y143.083 E18.40366
G1 X110.776 Y143.134 E18.41371
G1 X110.173 Y143.197 E18.43388
G1 X109.567 Y143.18 E18.45404
G1 X109.212 Y143.132 E18.46595
G1 X108.907 Y143.079 E18.47625
G1 X108.318 Y142.936 E18.49641
G1 X107.696 Y142.69 E18.51866
G1 X107.466 Y142.579 E18.52715
G1 X106.784 Y142.174 E18.55353
G1 X106.579 Y142.027 E18.56192
G1 X106.076 Y141.609 E18.58368
G1 X105.855 Y141.397 E18.59386
G1 X105.489 Y141.002 E18.61177
G1 X105.288 Y140.758 E18.62229
G1 X105.033 Y140.418 E18.63642
G1 X104.804 Y140.081 E18.64997
G1 X104.607 Y139.764 E18.66239
G1 X104.407 Y139.411 E18.67588
G1 X104.233 Y139.073 E18.68853
G1 X104.025 Y138.623 E18.70501
G1 X103.921 Y138.378 E18.71387
G1 X103.661 Y137.704 E18.73789
G1 X103.402 Y136.928 E18.7651
G1 X103.016 Y135.629 E18.81018
G1 X102.765 Y134.647 E18.84389
G1 X102.718 Y134.442 E18.85088
G1 X102.473 Y133.252 E18.89129
G1 X102.256 Y132.009 E18.93326
G1 X101.958 Y130.057 E18.99894
G1 X101.781 Y128.68 E19.04511
G1 X101.581 Y126.752 E19.10958
G1 X101.415 Y124.734 E19.17693
G1 X101.264 Y122.429 E19.25376
G1 X101.137 Y119.846 E19.33977
G1 X101.052 Y117.033 E19.43337
G1 X101.009 Y114.175 E19.52844
G1 X100.999 Y112.62 E19.58016
G1 X101.006 Y110.044 E19.66584
G1 X101.012 Y109.953 E19.66887
G1 X101.009 Y109.888 E19.67104
G1 X101.056 Y106.753 E19.77532
G1 X101.13 Y103.789 E19.87394
G1 X101.231 Y100.824 E19.97261
G1 X101.353 Y97.861 E20.07124
G1 X101.493 Y94.953 E20.16807
G1 X101.653 Y92.002 E20.26637
G1 X101.83 Y89.048 E20.3648
G1 X102.223 Y83.219 E20.55911
G1 X102.382 Y81.062 E20.63105
G1 X102.467 Y80.461 E20.65123
G1 X102.629 Y79.877 E20.67139
G1 X102.867 Y79.32 E20.69154
G1 X103.177 Y78.798 E20.71173
G0 F6000 X103.566 Y78.94
G1 F1200 X103.937 Y78.495 E20.731
G1 X104.365 Y78.105 E20.75026
G1 X104.843 Y77.778 E20.76952
G1 X105.362 Y77.52 E20.7888
