;FLAVOR:Marlin
;TIME:4614
;Filament used: 3.41654m
;Layer height: 0.2
;MINX:99.802
;MINY:75.6
;MINZ:0.2
;MAXX:120.201
;MAXY:144.39
;MAXZ:172.2
;Generated with Cura_SteamEngine 4.6.1
M140 S60
M105
M190 S60
M104 S220
M105
M109 S220
M82 ;absolute extrusion mode
; Ender 3 Custom Start G-code
G92 E0 ; Reset Extruder
G28 ; Home all axes
G1 Z2.0 F3000 ; Move Z Axis up little to prevent scratching of Heat Bed
G1 X0.1 Y20 Z0.3 F5000.0 ; Move to start position
G1 X0.1 Y200.0 Z0.3 F1500.0 E15 ; Draw the first line
G1 X0.4 Y200.0 Z0.3 F5000.0 ; Move to side a little
G1 X0.4 Y20 Z0.3 F1500.0 E30 ; Draw the second line
G92 E0 ; Reset Extruder
G1 Z2.0 F3000 ; Move Z Axis up little to prevent scratching of Heat Bed
G1 X5 Y20 Z0.3 F5000.0 ; Move over to prevent blob squish
G92 E0
G92 E0
G1 F1500 E-6
;LAYER_COUNT:865
;LAYER:0
M107
G0 F6000 X102.381 Y77.853 Z0.2
;TYPE:SKIRT
G1 F1500 E0.04158
G1 F1200 X102.829 Y77.339 E0.06425
G1 X103.333 Y76.882 E0.08688
G1 X103.888 Y76.487 E0.10954
G1 X104.485 Y76.159 E0.13219
G1 X105.116 Y75.904 E0.15483
G1 X105.773 Y75.725 E0.17748
G1 X106.446 Y75.624 E0.20011
G1 X106.97 Y75.6 E0.21756
G1 X113.03 Y75.6 E0.41912
G1 X113.71 Y75.64 E0.44177
G1 X114.38 Y75.759 E0.46441
G1 X115.032 Y75.956 E0.48706
G1 X115.656 Y76.228 E0.5097
G1 X116.244 Y76.572 E0.53236
G1 X116.788 Y76.982 E0.55501
G1 X117.279 Y77.453 E0.57764
G1 X117.713 Y77.978 E0.6003
G1 X118.082 Y78.55 E0.62294
G1 X118.381 Y79.162 E0.64559
G1 X118.606 Y79.804 E0.66822
G1 X118.755 Y80.469 E0.69089
G1 X118.814 Y80.973 E0.70776
G1 X118.975 Y83.153 E0.78047
G1 X119.369 Y88.986 E0.97492
G1 X119.547 Y91.955 E1.07384
G1 X119.704 Y94.863 E1.17071
G1 X119.846 Y97.824 E1.2693
G1 X119.969 Y100.792 E1.3681
G1 X120.068 Y103.71 E1.46521
G1 X120.143 Y106.697 E1.56459
G1 X120.189 Y109.832 E1.66887
G1 X120.185 Y109.938 E1.6724
G1 X120.193 Y110.038 E1.67574
G1 X120.201 Y112.63 E1.76195
G1 X120.193 Y114.169 E1.81314
G1 X120.145 Y117.189 E1.91359
G1 X120.061 Y119.961 E2.00583
G1 X119.933 Y122.557 E2.09228
G1 X119.779 Y124.879 E2.16968
G1 X119.607 Y126.964 E2.23927
G1 X119.401 Y128.916 E2.30455
G1 X119.217 Y130.328 E2.35191
G1 X118.916 Y132.284 E2.41773
G1 X118.679 Y133.624 E2.46299
G1 X118.459 Y134.683 E2.49897
G1 X118.4 Y134.936 E2.50761
G1 X118.089 Y136.137 E2.54887
G1 X117.686 Y137.469 E2.59516
G1 X117.395 Y138.309 E2.62472
G1 X117.217 Y138.77 E2.64116
G1 X117.063 Y139.131 E2.65421
G1 X116.85 Y139.588 E2.67098
G1 X116.648 Y139.982 E2.68571
G1 X116.45 Y140.334 E2.69914
G1 X116.192 Y140.749 E2.7154
G1 X115.961 Y141.089 E2.72907
G1 X115.649 Y141.508 E2.74644
G1 X115.453 Y141.747 E2.75672
G1 X114.994 Y142.244 E2.77922
G1 X114.77 Y142.46 E2.78957
G1 X114.141 Y142.986 E2.81685
G1 X113.932 Y143.137 E2.82542
G1 X113.357 Y143.503 E2.84809
G1 X113.027 Y143.673 E2.86044
G1 X112.8 Y143.781 E2.8688
G1 X112.169 Y144.037 E2.89145
G1 X111.334 Y144.253 E2.92013
G1 X111.028 Y144.308 E2.93048
G1 X110.352 Y144.388 E2.95312
G1 X109.671 Y144.39 E2.97577
G1 X109.045 Y144.32 E2.99672
G1 X108.746 Y144.27 E3.0068
G1 X108.083 Y144.118 E3.02942
G1 X107.289 Y143.823 E3.0576
G1 X107.064 Y143.72 E3.06583
G1 X106.462 Y143.4 E3.0885
G1 X106.111 Y143.169 E3.10248
G1 X105.909 Y143.025 E3.11073
G1 X105.345 Y142.567 E3.13489
G1 X105.179 Y142.414 E3.1424
G1 X104.833 Y142.067 E3.1587
G1 X104.68 Y141.9 E3.16623
G1 X104.317 Y141.462 E3.18515
G1 X104.065 Y141.126 E3.19912
G1 X103.749 Y140.659 E3.21788
G1 X103.535 Y140.307 E3.23158
G1 X103.352 Y139.982 E3.24398
G1 X103.25 Y139.787 E3.2513
G1 X103.122 Y139.527 E3.26094
G1 X102.939 Y139.13 E3.27548
G1 X102.797 Y138.796 E3.28755
G1 X102.579 Y138.233 E3.30763
G1 X102.482 Y137.962 E3.31721
G1 X102.182 Y137.047 E3.34923
G1 X101.904 Y136.107 E3.38184
G1 X101.839 Y135.869 E3.39004
G1 X101.509 Y134.533 E3.43581
G1 X101.36 Y133.82 E3.46004
G1 X101.18 Y132.839 E3.49321
G1 X100.893 Y131.074 E3.55269
G1 X100.655 Y129.358 E3.61031
G1 X100.448 Y127.521 E3.67179
G1 X100.35 Y126.464 E3.7071
G1 X100.193 Y124.471 E3.77359
G1 X100.063 Y122.451 E3.84092
G1 X99.959 Y120.419 E3.90859
G1 X99.887 Y118.426 E3.97492
G1 X99.839 Y116.419 E4.04169
G1 X99.802 Y113.387 E4.14255
G1 X99.803 Y110.437 E4.24066
G1 X99.84 Y107.475 E4.33919
G1 X99.907 Y104.517 E4.4376
G1 X100 Y101.614 E4.5342
G1 X100.119 Y98.616 E4.63399
G1 X100.256 Y95.649 E4.73278
G1 X100.409 Y92.74 E4.82967
G1 X100.583 Y89.778 E4.92836
G1 X100.771 Y86.826 E5.02674
G1 X101.185 Y80.99 E5.22133
G1 X101.272 Y80.314 E5.244
G1 X101.439 Y79.654 E5.26664
G1 X101.682 Y79.018 E5.28929
G1 X101.997 Y78.415 E5.31192
G1 X102.381 Y77.853 E5.33456
G0 F6000 X102.769 Y78.007
G1 F1200 X103.213 Y77.522 E5.35643
G1 X103.711 Y77.094 E5.37827
G1 X104.258 Y76.73 E5.40012
G1 X104.845 Y76.435 E5.42197
G1 X105.464 Y76.214 E5.44383
G1 X106.105 Y76.07 E5.46568
G1 X106.97 Y76 E5.49455
G1 X113.03 Y76 E5.6961
G1 X113.686 Y76.04 E5.71796
G1 X114.332 Y76.159 E5.73981
G1 X114.959 Y76.356 E5.76167
G1 X115.557 Y76.628 E5.78352
G1 X116.118 Y76.97 E5.80537
G1 X116.633 Y77.378 E5.82722
G1 X117.095 Y77.845 E5.84907
G1 X117.496 Y78.365 E5.87091
G1 X117.832 Y78.929 E5.89275
G1 X118.096 Y79.531 E5.91461
G1 X118.286 Y80.16 E5.93647
G1 X118.415 Y81.002 E5.9648
G1 X118.576 Y83.182 E6.0375
G1 X118.97 Y89.013 E6.23189
G1 X119.147 Y91.978 E6.33068
G1 X119.304 Y94.884 E6.42747
G1 X119.447 Y97.843 E6.526
G1 X119.569 Y100.808 E6.6247
G1 X119.668 Y103.724 E6.72175
G1 X119.743 Y106.703 E6.82086
G1 X119.786 Y109.911 E6.92757
G1 X119.793 Y110.039 E6.93183
G1 X119.801 Y112.631 E7.01804
G1 X119.793 Y114.163 E7.069
G1 X119.746 Y117.177 E7.16926
G1 X119.662 Y119.942 E7.26126
G1 X119.534 Y122.53 E7.34744
G1 X119.381 Y124.847 E7.42468
G1 X119.209 Y126.923 E7.49396
G1 X119.004 Y128.865 E7.55891
G1 X118.822 Y130.268 E7.60597
G1 X118.522 Y132.215 E7.67149
G1 X118.287 Y133.542 E7.71631
G1 X118.013 Y134.837 E7.76034
G1 X117.706 Y136.022 E7.80105
G1 X117.307 Y137.34 E7.84685
G1 X117.022 Y138.165 E7.87588
G1 X116.844 Y138.626 E7.89232
G1 X116.7 Y138.962 E7.90448
G1 X116.487 Y139.419 E7.92125
G1 X116.3 Y139.785 E7.93492
G1 X116.102 Y140.137 E7.94835
G1 X115.862 Y140.525 E7.96352
G1 X115.631 Y140.865 E7.9772
G1 X115.339 Y141.254 E7.99337
G1 X115.143 Y141.493 E8.00365
G1 X114.716 Y141.956 E8.0246
G1 X114.492 Y142.172 E8.03495
G1 X113.906 Y142.662 E8.06036
G1 X113.697 Y142.813 E8.06893
G1 X112.855 Y143.312 E8.10149
G1 X112.628 Y143.42 E8.10985
G1 X112.019 Y143.666 E8.13169
G1 X111.263 Y143.859 E8.15765
G1 X110.957 Y143.914 E8.16799
G1 X110.305 Y143.991 E8.18982
G1 X109.648 Y143.987 E8.21167
G1 X109.111 Y143.925 E8.22965
G1 X108.812 Y143.875 E8.23974
G1 X108.172 Y143.727 E8.26158
G1 X107.455 Y143.459 E8.28704
G1 X107.23 Y143.356 E8.29527
G1 X106.651 Y143.047 E8.3171
G1 X106.343 Y142.843 E8.32939
G1 X106.141 Y142.699 E8.33764
G1 X105.616 Y142.273 E8.36013
G1 X105.45 Y142.12 E8.36764
G1 X105.128 Y141.797 E8.38281
G1 X104.975 Y141.63 E8.39034
G1 X104.637 Y141.222 E8.40796
G1 X104.385 Y140.886 E8.42193
G1 X104.091 Y140.451 E8.43939
G1 X103.877 Y140.099 E8.45309
G1 X103.706 Y139.797 E8.46464
G1 X103.604 Y139.602 E8.47196
G1 X103.485 Y139.36 E8.48093
G1 X103.302 Y138.963 E8.49547
G1 X103.17 Y138.652 E8.5067
G1 X102.952 Y138.089 E8.52678
G1 X102.862 Y137.836 E8.53571
G1 X102.566 Y136.933 E8.56732
G1 X102.227 Y135.772 E8.60755
G1 X101.9 Y134.45 E8.65284
G1 X101.753 Y133.747 E8.67673
G1 X101.575 Y132.775 E8.7096
G1 X101.289 Y131.019 E8.76877
G1 X101.052 Y129.313 E8.82606
G1 X100.846 Y127.483 E8.88731
G1 X100.749 Y126.432 E8.92241
G1 X100.592 Y124.445 E8.98871
G1 X100.462 Y122.43 E9.05587
G1 X100.359 Y120.404 E9.12334
G1 X100.287 Y118.417 E9.18947
G1 X100.239 Y116.414 E9.25611
G1 X100.202 Y113.387 E9.35679
G1 X100.203 Y110.442 E9.45475
G1 X100.24 Y107.484 E9.55314
G1 X100.307 Y104.53 E9.65141
G1 X100.4 Y101.627 E9.74802
G1 X100.518 Y98.631 E9.84774
G1 X100.656 Y95.667 E9.94643
G1 X100.808 Y92.761 E10.04322
G1 X100.982 Y89.801 E10.14184
G1 X101.17 Y86.851 E10.24015
G1 X101.584 Y81.018 E10.43465
G1 X101.67 Y80.367 E10.45649
G1 X101.835 Y79.731 E10.47834
G1 X102.075 Y79.119 E10.50021
G1 X102.388 Y78.542 E10.52204
G1 X102.769 Y78.007 E10.54388
G0 F6000 X103.157 Y78.166
G1 F1200 X103.595 Y77.711 E10.56489
G1 X104.088 Y77.314 E10.58594
G1 X104.626 Y76.983 E10.60695
G1 X105.202 Y76.723 E10.62797
G1 X105.806 Y76.537 E10.64899
G1 X106.429 Y76.429 E10.67002
G1 X106.97 Y76.4 E10.68804
G1 X113.03 Y76.4 E10.8896
G1 X113.661 Y76.44 E10.91063
G1 X114.282 Y76.559 E10.93166
G1 X114.882 Y76.756 E10.95266
G1 X115.454 Y77.027 E10.97371
G1 X115.986 Y77.367 E10.99471
G1 X116.471 Y77.773 E11.01575
G1 X116.901 Y78.236 E11.03677
G1 X117.27 Y78.75 E11.05781
G1 X117.57 Y79.306 E11.07882
G1 X117.798 Y79.895 E11.09983
G1 X117.95 Y80.509 E11.12087
G1 X118.016 Y81.032 E11.1384
G1 X118.177 Y83.212 E11.21111
G1 X118.571 Y89.039 E11.40536
G1 X118.748 Y92.002 E11.50408
G1 X118.905 Y94.906 E11.60081
G1 X119.047 Y97.863 E11.69927
G1 X119.17 Y100.825 E11.79787
G1 X119.268 Y103.737 E11.89478
G1 X119.343 Y106.709 E11.99366
G1 X119.388 Y109.792 E12.09622
G1 X119.385 Y109.949 E12.10144
G1 X119.393 Y110.041 E12.10451
G1 X119.401 Y112.633 E12.19072
G1 X119.393 Y114.156 E12.24138
G1 X119.346 Y117.165 E12.34147
G1 X119.262 Y119.922 E12.43321
G1 X119.135 Y122.504 E12.51919
G1 X118.982 Y124.814 E12.59619
G1 X118.811 Y126.881 E12.66517
G1 X118.608 Y128.814 E12.72982
G1 X118.426 Y130.207 E12.77654
G1 X118.128 Y132.146 E12.84179
G1 X117.895 Y133.461 E12.88621
G1 X117.625 Y134.738 E12.92962
G1 X117.323 Y135.907 E12.96978
G1 X116.928 Y137.211 E13.0151
G1 X116.648 Y138.021 E13.0436
G1 X116.47 Y138.482 E13.06004
G1 X116.338 Y138.793 E13.07128
G1 X116.125 Y139.25 E13.08805
G1 X115.951 Y139.589 E13.10072
G1 X115.753 Y139.941 E13.11415
G1 X115.531 Y140.3 E13.12819
G1 X115.3 Y140.64 E13.14186
G1 X115.03 Y141.001 E13.15686
G1 X114.834 Y141.24 E13.16714
G1 X114.439 Y141.668 E13.18651
G1 X114.215 Y141.884 E13.19686
G1 X113.672 Y142.338 E13.2204
G1 X113.463 Y142.489 E13.22898
G1 X112.683 Y142.951 E13.25913
G1 X112.456 Y143.059 E13.26749
G1 X111.869 Y143.294 E13.28852
G1 X111.193 Y143.465 E13.31171
G1 X110.887 Y143.52 E13.32205
G1 X110.259 Y143.592 E13.34308
G1 X109.626 Y143.585 E13.36413
G1 X109.177 Y143.531 E13.37917
G1 X108.878 Y143.481 E13.38925
G1 X108.263 Y143.337 E13.41026
G1 X107.622 Y143.095 E13.43305
G1 X107.397 Y142.992 E13.44128
G1 X106.84 Y142.693 E13.46231
G1 X106.576 Y142.517 E13.47286
G1 X106.374 Y142.373 E13.48111
G1 X105.887 Y141.979 E13.50195
G1 X105.721 Y141.826 E13.50946
G1 X105.423 Y141.527 E13.5235
G1 X105.27 Y141.36 E13.53103
G1 X104.957 Y140.982 E13.54735
G1 X104.705 Y140.646 E13.56132
G1 X104.433 Y140.243 E13.57749
G1 X104.219 Y139.891 E13.59119
G1 X104.061 Y139.611 E13.60189
G1 X103.959 Y139.416 E13.60921
G1 X103.848 Y139.192 E13.61752
G1 X103.665 Y138.795 E13.63206
G1 X103.543 Y138.507 E13.64246
G1 X103.325 Y137.944 E13.66254
G1 X103.241 Y137.71 E13.67081
G1 X102.949 Y136.82 E13.70197
G1 X102.615 Y135.675 E13.74164
G1 X102.292 Y134.367 E13.78645
G1 X102.147 Y133.674 E13.81
G1 X101.969 Y132.71 E13.8426
G1 X101.685 Y130.963 E13.90147
G1 X101.45 Y129.268 E13.95839
G1 X101.245 Y127.446 E14.01937
G1 X101.148 Y126.401 E14.05427
G1 X100.991 Y124.419 E14.1204
G1 X100.862 Y122.41 E14.18736
G1 X100.758 Y120.389 E14.25467
G1 X100.686 Y118.407 E14.32063
G1 X100.639 Y116.409 E14.3871
G1 X100.602 Y113.387 E14.48762
G1 X100.603 Y110.447 E14.58541
G1 X100.64 Y107.493 E14.68367
G1 X100.705 Y104.591 E14.78021
G1 X100.8 Y101.64 E14.87841
G1 X100.918 Y98.647 E14.97804
G1 X101.055 Y95.686 E15.07663
G1 X101.208 Y92.782 E15.17335
G1 X101.382 Y89.825 E15.27187
G1 X101.569 Y86.877 E15.37012
G1 X101.983 Y81.046 E15.56454
G1 X102.067 Y80.42 E15.58555
G1 X102.23 Y79.809 E15.60658
G1 X102.469 Y79.224 E15.6276
G1 X102.779 Y78.673 E15.64863
G1 X103.157 Y78.166 E15.66966
G0 F6000 X103.169 Y78.809
G1 F1200 X103.543 Y78.331 E15.68985
G1 X103.977 Y77.907 E15.71003
G1 X104.462 Y77.544 E15.73018
G1 X104.991 Y77.248 E15.75034
G1 X105.554 Y77.023 E15.77051
G1 X106.142 Y76.875 E15.79067
G1 X106.97 Y76.8 E15.81833
G1 X113.03 Y76.8 E16.01988
G1 X113.635 Y76.84 E16.04005
G1 X114.229 Y76.959 E16.0602
G1 X114.803 Y77.155 E16.08037
G1 X115.346 Y77.426 E16.10056
G1 X115.849 Y77.765 E16.12073
G1 X116.302 Y78.167 E16.14088
G1 X116.699 Y78.625 E16.16103
G1 X117.032 Y79.132 E16.18121
G1 X117.296 Y79.678 E16.20138
G1 X117.485 Y80.254 E16.22154
G1 X117.618 Y81.061 E16.24875
G1 X117.779 Y83.241 E16.32145
G1 X118.172 Y89.066 E16.51563
G1 X118.349 Y92.026 E16.61426
G1 X118.505 Y94.927 E16.71088
G1 X118.648 Y97.882 E16.80928
G1 X118.77 Y100.841 E16.90778
G1 X118.868 Y103.751 E17.00463
G1 X118.944 Y106.715 E17.10324
G1 X118.986 Y109.933 E17.21028
G1 X118.993 Y110.042 E17.21391
G1 X119.001 Y112.634 E17.30012
G1 X118.994 Y114.101 E17.34892
G1 X118.946 Y117.153 E17.45044
G1 X118.863 Y119.902 E17.54191
G1 X118.736 Y122.478 E17.6277
G1 X118.584 Y124.781 E17.70446
G1 X118.413 Y126.839 E17.77315
G1 X118.211 Y128.762 E17.83746
G1 X118.031 Y130.147 E17.88391
G1 X117.734 Y132.077 E17.94886
G1 X117.504 Y133.38 E17.99287
G1 X117.284 Y134.439 E18.02884
G1 X117.237 Y134.639 E18.03567
G1 X116.939 Y135.792 E18.07528
G1 X116.55 Y137.082 E18.1201
G1 X116.275 Y137.877 E18.14808
G1 X116.097 Y138.338 E18.16451
G1 X115.975 Y138.624 E18.17485
G1 X115.762 Y139.081 E18.19162
G1 X115.602 Y139.393 E18.20329
G1 X115.404 Y139.745 E18.21672
G1 X115.2 Y140.075 E18.22962
G1 X114.969 Y140.415 E18.24329
G1 X114.721 Y140.747 E18.25708
G1 X114.525 Y140.986 E18.26736
G1 X114.161 Y141.38 E18.2852
G1 X113.937 Y141.596 E18.29555
G1 X113.438 Y142.014 E18.3172
G1 X113.229 Y142.165 E18.32577
G1 X112.511 Y142.59 E18.35352
G1 X112.284 Y142.698 E18.36189
G1 X111.721 Y142.922 E18.38204
G1 X111.122 Y143.071 E18.40257
G1 X110.816 Y143.126 E18.41291
G1 X110.213 Y143.194 E18.43309
G1 X109.607 Y143.182 E18.45325
G1 X109.243 Y143.136 E18.46546
G1 X108.944 Y143.086 E18.47554
G1 X108.354 Y142.947 E18.4957
G1 X107.788 Y142.732 E18.51584
G1 X107.563 Y142.629 E18.52407
G1 X106.808 Y142.192 E18.55308
G1 X106.606 Y142.048 E18.56133
G1 X106.158 Y141.684 E18.58053
G1 X105.992 Y141.531 E18.58804
G1 X105.718 Y141.256 E18.60095
G1 X105.565 Y141.089 E18.60848
G1 X105.277 Y140.742 E18.62348
G1 X105.025 Y140.406 E18.63745
G1 X104.774 Y140.036 E18.65232
G1 X104.56 Y139.684 E18.66602
G1 X104.415 Y139.426 E18.67587
G1 X104.313 Y139.231 E18.68319
G1 X104.211 Y139.025 E18.69083
G1 X104.028 Y138.628 E18.70537
G1 X103.916 Y138.363 E18.71494
G1 X103.698 Y137.8 E18.73502
G1 X103.621 Y137.585 E18.74262
G1 X103.333 Y136.707 E18.77335
G1 X103.003 Y135.578 E18.81247
G1 X102.683 Y134.284 E18.85681
G1 X102.54 Y133.601 E18.88002
G1 X102.364 Y132.646 E18.91231
G1 X102.082 Y130.908 E18.97088
G1 X101.847 Y129.223 E19.02746
G1 X101.643 Y127.409 E19.08818
G1 X101.546 Y126.369 E19.12292
G1 X101.391 Y124.393 E19.18884
G1 X101.261 Y122.389 E19.25563
G1 X101.158 Y120.375 E19.32271
G1 X101.086 Y118.398 E19.38851
G1 X101.039 Y116.404 E19.45485
G1 X101.002 Y113.387 E19.5552
G1 X101.003 Y110.452 E19.65282
G1 X101.039 Y107.548 E19.74941
G1 X101.105 Y104.6 E19.84749
G1 X101.199 Y101.653 E19.94556
G1 X101.318 Y98.663 E20.04508
G1 X101.455 Y95.704 E20.1436
G1 X101.607 Y92.803 E20.24022
G1 X101.781 Y89.848 E20.33868
G1 X101.968 Y86.902 E20.43686
G1 X102.382 Y81.075 E20.63116
G1 X102.464 Y80.474 E20.65133
G1 X102.625 Y79.889 E20.67151
G1 X102.862 Y79.331 E20.69167
G1 X103.169 Y78.809 E20.71182
G0 F6000 X103.559 Y78.949
G1 F1200 X103.929 Y78.503 E20.73109
G1 X104.356 Y78.112 E20.75035
G1 X104.833 Y77.784 E20.7696
G1 X105.351 Y77.524 E20.78888
G1 X105.9 Y77.339 E20.80815
G1 X106.469 Y77.23 E20.82742
G1 X106.97 Y77.2 E20.84411
G1 X113.03 Y77.2 E21.04567
