;FLAVOR:Marlin
;TIME:4413
;Filament used: 1.40515m
;Layer height: 0.13
;MINX:86.11
;MINY:80.951
;MINZ:0.2
;MAXX:132.26
;MAXY:138.382
;MAXZ:9.95
;Generated with Cura_SteamEngine 4.6.1
M140 S60
M105
M190 S60
M104 S205
M105
M109 S205
M82 ;absolute extrusion mode
; Ender 3 Custom Start G-code
G92 E0 ; Reset Extruder
G28 ; Home all axes
G1 Z2.0 F3000 ; Move Z Axis up little to prevent scratching of Heat Bed
G1 X0.1 Y20 Z0.3 F5000.0 ; Move to start position
G1 X0.1 Y200.0 Z0.3 F1500.0 E15 ; Draw the first line
G1 X0.4 Y200.0 Z0.3 F5000.0 ; Move to side a little
G1 X0.4 Y20 Z0.3 F1500.0 E30 ; Draw the second line
G92 E0 ; Reset Extruder
G1 Z2.0 F3000 ; Move Z Axis up little to prevent scratching of Heat Bed
G1 X5 Y20 Z0.3 F5000.0 ; Move over to prevent blob squish
G92 E0
G92 E0
G1 F1500 E-6
;LAYER_COUNT:76
;LAYER:0
M107
G0 F6000 X87.178 Y87.667 Z0.2
;TYPE:SKIRT
G1 F1500 E0
G1 F1200 X87.725 Y87.167 E0.02465
G1 X88.679 Y86.452 E0.0643
G1 X88.901 Y86.298 E0.07329
G1 X89.089 Y86.177 E0.08072
G1 X89.792 Y85.718 E0.10865
G1 X89.959 Y85.615 E0.11517
G1 X91.058 Y84.981 E0.15737
G1 X92.198 Y84.395 E0.20001
G1 X93.185 Y83.945 E0.23608
G1 X93.36 Y83.871 E0.2424
G1 X94.371 Y83.47 E0.27858
G1 X94.554 Y83.403 E0.28506
G1 X95.713 Y83.012 E0.32574
G1 X96.96 Y82.64 E0.36903
G1 X98.114 Y82.328 E0.40879
G1 X98.655 Y82.223 E0.42711
G1 X99.025 Y82.197 E0.43945
G1 X99.212 Y82.193 E0.44567
G1 X99.762 Y82.221 E0.46399
G1 X100.302 Y82.329 E0.48231
G1 X100.753 Y82.484 E0.49817
G1 X100.95 Y82.566 E0.50526
G1 X101.442 Y82.814 E0.52359
G1 X101.893 Y83.13 E0.54191
G1 X102.371 Y83.596 E0.56411
G1 X102.531 Y83.782 E0.57227
G1 X102.859 Y84.225 E0.5906
G1 X103.206 Y84.921 E0.61647
G1 X103.593 Y85.949 E0.653
G1 X103.936 Y86.789 E0.68318
G1 X104.302 Y87.604 E0.7129
G1 X104.663 Y88.332 E0.73992
G1 X105.009 Y88.956 E0.76365
G1 X105.401 Y89.587 E0.78836
G1 X105.677 Y89.984 E0.80444
G1 X105.984 Y90.372 E0.8209
G1 X106.255 Y90.669 E0.83427
G1 X106.626 Y91.006 E0.85094
G1 X106.79 Y91.117 E0.85753
G1 X106.903 Y91.176 E0.86177
G1 X106.973 Y91.176 E0.8641
G1 X107.054 Y91.146 E0.86697
G1 X107.155 Y91.097 E0.8707
G1 X107.366 Y90.971 E0.87888
G1 X107.477 Y90.894 E0.88337
G1 X107.68 Y90.734 E0.89197
G1 X107.992 Y90.454 E0.90591
G1 X108.407 Y90.013 E0.92605
G1 X108.827 Y89.508 E0.9479
G1 X109.251 Y88.938 E0.97153
G1 X109.519 Y88.54 E0.98748
G1 X109.821 Y88.069 E1.00609
G1 X110.073 Y87.655 E1.02221
G1 X110.312 Y87.237 E1.03823
G1 X110.885 Y86.164 E1.07869
G1 X111.437 Y85.027 E1.12072
G1 X111.825 Y84.168 E1.15207
G1 X112.095 Y83.54 E1.17481
G1 X112.349 Y83.051 E1.19314
G1 X112.55 Y82.756 E1.20501
G1 X112.672 Y82.594 E1.21176
G1 X113.034 Y82.179 E1.23007
G1 X113.453 Y81.821 E1.2484
G1 X113.824 Y81.58 E1.26312
G1 X114.008 Y81.475 E1.27016
G1 X114.505 Y81.237 E1.28849
G1 X115.031 Y81.074 E1.30681
G1 X115.32 Y81.018 E1.3166
G1 X115.478 Y80.994 E1.32191
G1 X116.028 Y80.951 E1.34026
G1 X116.506 Y80.979 E1.35619
G1 X117.695 Y81.124 E1.39603
G1 X118.703 Y81.279 E1.42995
G1 X119.905 Y81.497 E1.47058
G1 X120.56 Y81.638 E1.49286
G1 X121.246 Y81.804 E1.51634
G1 X121.917 Y81.983 E1.53944
G1 X122.572 Y82.176 E1.56215
G1 X123.192 Y82.375 E1.5838
G1 X123.929 Y82.634 E1.60979
G1 X125.038 Y83.068 E1.6494
G1 X125.213 Y83.142 E1.65572
G1 X126.462 Y83.709 E1.70134
G1 X127.522 Y84.25 E1.74092
G1 X127.691 Y84.342 E1.74732
G1 X128.723 Y84.936 E1.78692
G1 X129.179 Y85.244 E1.80523
G1 X129.487 Y85.515 E1.81887
G1 X129.636 Y85.661 E1.82581
G1 X130 Y86.074 E1.84412
G1 X130.301 Y86.535 E1.86243
G1 X130.572 Y87.146 E1.88466
G1 X130.64 Y87.345 E1.89166
G1 X130.78 Y87.878 E1.90999
G1 X130.841 Y88.426 E1.92832
G1 X130.822 Y88.986 E1.94696
G1 X130.799 Y89.197 E1.95402
G1 X130.699 Y89.739 E1.97235
G1 X130.523 Y90.261 E1.99067
G1 X130.134 Y90.964 E2.0174
G1 X129.375 Y92.048 E2.06141
G1 X128.749 Y92.993 E2.09911
G1 X128.186 Y93.924 E2.1353
G1 X127.667 Y94.868 E2.17113
G1 X127.171 Y95.865 E2.20817
G1 X126.733 Y96.843 E2.24381
G1 X126.311 Y97.893 E2.28145
G1 X125.901 Y99.045 E2.32212
G1 X125.552 Y100.177 E2.36151
G1 X125.481 Y100.436 E2.37045
G1 X125.256 Y101.294 E2.39995
G1 X125.186 Y101.598 E2.41032
G1 X124.988 Y102.491 E2.44075
G1 X124.775 Y103.665 E2.48043
G1 X124.606 Y104.87 E2.5209
G1 X124.486 Y106.076 E2.56121
G1 X124.413 Y107.284 E2.60146
G1 X124.389 Y108.487 E2.64148
G1 X124.41 Y109.695 E2.68167
G1 X124.476 Y110.842 E2.71988
G1 X124.565 Y111.828 E2.75281
G1 X124.669 Y112.678 E2.78129
G1 X124.808 Y113.6 E2.8123
G1 X124.96 Y114.445 E2.84086
G1 X125.14 Y115.299 E2.86989
G1 X125.441 Y116.511 E2.91142
G1 X125.774 Y117.657 E2.95112
G1 X126.208 Y118.936 E2.99604
G1 X126.595 Y119.945 E3.03198
G1 X127.079 Y121.065 E3.07256
G1 X127.636 Y122.219 E3.11518
G1 X127.914 Y122.748 E3.13506
G1 X128.24 Y123.334 E3.15736
G1 X128.583 Y123.917 E3.17986
G1 X128.94 Y124.49 E3.20231
G1 X129.297 Y125.034 E3.22395
G1 X129.679 Y125.586 E3.24628
G1 X130.016 Y126.048 E3.2653
G1 X130.412 Y126.564 E3.28693
G1 X130.808 Y127.056 E3.30794
G1 X131.283 Y127.621 E3.33249
G1 X131.606 Y128.067 E3.35081
G1 X131.861 Y128.556 E3.36915
G1 X131.971 Y128.84 E3.37928
G1 X132.06 Y129.101 E3.38845
G1 X132.199 Y129.634 E3.40677
G1 X132.26 Y130.181 E3.42508
G1 X132.241 Y130.732 E3.44342
G1 X132.187 Y131.085 E3.45529
G1 X132.141 Y131.311 E3.46296
G1 X131.992 Y131.841 E3.48127
G1 X131.768 Y132.345 E3.49962
G1 X131.457 Y132.833 E3.51887
G1 X131.343 Y132.985 E3.52519
G1 X130.981 Y133.401 E3.54353
G1 X130.391 Y133.88 E3.5688
G1 X129.415 Y134.522 E3.60766
G1 X129.242 Y134.629 E3.61442
G1 X128.117 Y135.281 E3.65767
G1 X126.964 Y135.879 E3.70087
G1 X125.775 Y136.426 E3.7444
G1 X124.736 Y136.848 E3.7817
G1 X124.562 Y136.913 E3.78788
G1 X123.326 Y137.342 E3.83139
G1 X122.205 Y137.673 E3.87027
G1 X121.641 Y137.826 E3.88971
G1 X120.657 Y138.065 E3.92339
G1 X119.768 Y138.256 E3.95363
G1 X119.223 Y138.333 E3.97194
G1 X118.55 Y138.318 E3.99433
G1 X118.307 Y138.291 E4.00246
G1 X117.766 Y138.19 E4.02076
G1 X117.244 Y138.013 E4.03909
G1 X116.716 Y137.738 E4.0589
G1 X116.538 Y137.627 E4.06587
G1 X116.093 Y137.303 E4.08418
G1 X115.58 Y136.774 E4.10869
G1 X115.473 Y136.64 E4.11439
G1 X115.161 Y136.186 E4.13272
G1 X115.013 Y135.907 E4.14322
G1 X114.351 Y134.522 E4.19428
G1 X113.824 Y133.484 E4.233
G1 X113.179 Y132.302 E4.27778
G1 X112.614 Y131.342 E4.31483
G1 X112.109 Y130.536 E4.34647
G1 X111.532 Y129.694 E4.38042
G1 X110.999 Y128.982 E4.41
G1 X110.457 Y128.328 E4.43825
G1 X110.23 Y128.079 E4.44945
G1 X109.981 Y127.819 E4.46143
G1 X109.634 Y127.487 E4.4774
G1 X109.398 Y127.281 E4.48782
G1 X109.145 Y127.083 E4.49851
G1 X108.91 Y126.921 E4.508
G1 X108.724 Y126.809 E4.51522
G1 X108.573 Y126.731 E4.52087
G1 X108.441 Y126.675 E4.52564
G1 X108.366 Y126.65 E4.52827
G1 X108.299 Y126.634 E4.53056
G1 X108.184 Y126.693 E4.53486
G1 X108.116 Y126.743 E4.53767
G1 X108.011 Y126.828 E4.54216
G1 X107.92 Y126.912 E4.54628
G1 X107.797 Y127.036 E4.55209
G1 X107.666 Y127.184 E4.55866
G1 X107.532 Y127.348 E4.56571
G1 X107.39 Y127.539 E4.57362
G1 X107.241 Y127.755 E4.58235
G1 X107.065 Y128.034 E4.59332
G1 X106.965 Y128.203 E4.59985
G1 X106.609 Y128.867 E4.62491
G1 X106.284 Y129.567 E4.65058
G1 X105.929 Y130.436 E4.6818
G1 X105.61 Y131.337 E4.71359
G1 X105.294 Y132.338 E4.74851
G1 X105.217 Y132.61 E4.75791
G1 X104.938 Y133.634 E4.79321
G1 X104.734 Y134.455 E4.82135
G1 X104.602 Y135.044 E4.84142
G1 X104.443 Y135.571 E4.85973
G1 X104.325 Y135.845 E4.86965
G1 X104.244 Y136.015 E4.87592
G1 X103.972 Y136.493 E4.89421
G1 X103.633 Y136.928 E4.91255
G1 X103.205 Y137.333 E4.93215
G1 X103 Y137.499 E4.94092
G1 X102.548 Y137.814 E4.95925
G1 X102.055 Y138.06 E4.97757
G1 X101.313 Y138.28 E5.00331
G1 X101.106 Y138.319 E5.01032
G1 X100.558 Y138.382 E5.02867
G1 X100.007 Y138.364 E5.047
G1 X99.669 Y138.314 E5.05837
G1 X98.51 Y138.084 E5.09767
G1 X97.313 Y137.808 E5.13852
G1 X96.704 Y137.65 E5.15945
G1 X95.674 Y137.346 E5.19517
G1 X94.696 Y137.012 E5.22954
G1 X93.729 Y136.638 E5.26403
G1 X92.785 Y136.228 E5.29826
G1 X91.854 Y135.778 E5.33265
G1 X90.944 Y135.292 E5.36696
G1 X90.044 Y134.764 E5.40167
G1 X89.178 Y134.207 E5.43591
G1 X88.901 Y134.019 E5.44705
G1 X88.469 Y133.678 E5.46535
G1 X88.158 Y133.358 E5.4802
G1 X88.032 Y133.212 E5.48661
G1 X87.703 Y132.77 E5.50494
G1 X87.442 Y132.285 E5.52326
G1 X87.281 Y131.86 E5.53837
G1 X87.209 Y131.629 E5.54642
G1 X87.084 Y131.092 E5.56476
G1 X87.043 Y130.289 E5.5915
G1 X87.05 Y130.162 E5.59573
G1 X87.182 Y129.357 E5.62286
G1 X87.524 Y128.121 E5.66552
G1 X87.832 Y126.925 E5.70659
G1 X88.114 Y125.738 E5.74717
G1 X88.494 Y123.94 E5.80829
G1 X88.818 Y122.149 E5.86883
G1 X89.092 Y120.347 E5.92945
G1 X89.315 Y118.533 E5.99024
G1 X89.452 Y117.083 E6.03868
G1 X89.559 Y115.575 E6.08897
G1 X89.629 Y114.067 E6.13918
G1 X89.663 Y112.573 E6.18888
G1 X89.658 Y110.939 E6.24323
G1 X89.621 Y109.588 E6.28818
G1 X89.536 Y107.949 E6.34277
G1 X89.413 Y106.381 E6.39508
G1 X89.388 Y106.135 E6.4033
G1 X89.239 Y104.719 E6.45066
G1 X89.021 Y103.066 E6.50611
G1 X88.707 Y101.146 E6.57082
G1 X88.386 Y99.473 E6.62748
G1 X88.041 Y97.901 E6.68101
G1 X87.769 Y96.78 E6.71938
G1 X87.465 Y95.624 E6.75913
G1 X87.108 Y94.37 E6.8025
G1 X86.764 Y93.243 E6.84169
G1 X86.299 Y91.829 E6.8912
G1 X86.165 Y91.295 E6.90951
G1 X86.11 Y90.549 E6.93439
G1 X86.116 Y90.303 E6.94257
G1 X86.169 Y89.755 E6.96088
G1 X86.302 Y89.22 E6.97922
G1 X86.48 Y88.77 E6.99531
G1 X86.569 Y88.582 E7.00223
G1 X86.841 Y88.102 E7.02058
G1 X87.178 Y87.667 E7.03889
G0 F6000 X87.514 Y87.893
G1 F1200 X87.965 Y87.487 E7.05907
G1 X88.919 Y86.772 E7.09872
G1 X89.118 Y86.634 E7.10678
G1 X90.16 Y85.961 E7.14803
G1 X91.243 Y85.336 E7.18962
G1 X92.364 Y84.759 E7.23156
G1 X93.507 Y84.243 E7.27327
G1 X94.682 Y83.781 E7.31526
G1 X95.828 Y83.396 E7.35547
G1 X97.065 Y83.026 E7.39841
G1 X98.219 Y82.714 E7.43817
G1 X98.731 Y82.617 E7.4555
G1 X99.033 Y82.597 E7.46557
G1 X99.22 Y82.593 E7.47179
G1 X99.741 Y82.622 E7.48915
G1 X100.25 Y82.73 E7.50645
G1 X100.6 Y82.853 E7.51879
G1 X100.797 Y82.935 E7.52589
G1 X101.261 Y83.172 E7.54322
G1 X101.684 Y83.476 E7.56054
G1 X102.068 Y83.857 E7.57854
G1 X102.228 Y84.043 E7.5867
G1 X102.536 Y84.463 E7.60402
G1 X102.832 Y85.062 E7.62624
G1 X103.22 Y86.092 E7.66285
G1 X103.574 Y86.96 E7.69403
G1 X103.937 Y87.767 E7.72346
G1 X104.312 Y88.524 E7.75156
G1 X104.66 Y89.153 E7.77547
G1 X105.01 Y89.723 E7.79771
G1 X105.348 Y90.212 E7.81749
G1 X105.683 Y90.637 E7.83548
G1 X105.971 Y90.952 E7.84968
G1 X106.31 Y91.265 E7.86503
G1 X106.384 Y91.324 E7.86817
G1 X106.497 Y91.405 E7.8728
G1 X106.574 Y91.454 E7.87583
G1 X106.734 Y91.539 E7.88186
G1 X106.785 Y91.56 E7.88369
G1 X106.875 Y91.584 E7.88679
G1 X106.94 Y91.591 E7.88897
G1 X107.012 Y91.58 E7.89139
G1 X107.1 Y91.556 E7.89442
G1 X107.203 Y91.518 E7.89807
G1 X107.351 Y91.445 E7.90356
G1 X107.585 Y91.306 E7.91262
G1 X107.71 Y91.22 E7.91766
G1 X107.939 Y91.039 E7.92737
G1 X108.279 Y90.732 E7.94261
G1 X108.706 Y90.278 E7.96334
G1 X109.14 Y89.757 E7.98589
G1 X109.582 Y89.163 E8.01052
G1 X109.849 Y88.766 E8.02643
G1 X110.186 Y88.239 E8.04723
G1 X110.397 Y87.893 E8.06071
G1 X110.669 Y87.418 E8.07892
G1 X111.245 Y86.337 E8.11966
G1 X111.783 Y85.23 E8.16059
G1 X112.189 Y84.332 E8.19337
G1 X112.462 Y83.698 E8.21633
G1 X112.704 Y83.236 E8.23368
G1 X112.869 Y82.997 E8.24334
G1 X112.991 Y82.835 E8.25008
G1 X113.336 Y82.444 E8.26743
G1 X113.736 Y82.11 E8.28476
G1 X114.022 Y81.927 E8.29605
G1 X114.206 Y81.822 E8.3031
G1 X114.677 Y81.599 E8.32043
G1 X115.38 Y81.414 E8.34461
G1 X115.538 Y81.39 E8.34992
G1 X116.058 Y81.351 E8.36727
G1 X116.458 Y81.376 E8.3806
G1 X117.634 Y81.52 E8.42
G1 X118.632 Y81.673 E8.45359
G1 X119.822 Y81.889 E8.49381
G1 X120.466 Y82.027 E8.51572
G1 X121.143 Y82.19 E8.53888
G1 X121.805 Y82.367 E8.56167
G1 X122.451 Y82.557 E8.58407
G1 X123.06 Y82.753 E8.60534
G1 X123.783 Y83.007 E8.63083
G1 X125.048 Y83.507 E8.67607
G1 X126.281 Y84.066 E8.7211
G1 X127.491 Y84.688 E8.76635
G1 X128.523 Y85.282 E8.80596
G1 X128.954 Y85.576 E8.82331
G1 X129.207 Y85.801 E8.83457
G1 X129.356 Y85.947 E8.84151
G1 X129.699 Y86.339 E8.85883
G1 X129.978 Y86.779 E8.87616
G1 X130.193 Y87.276 E8.89417
G1 X130.261 Y87.475 E8.90117
G1 X130.392 Y87.979 E8.91849
G1 X130.443 Y88.498 E8.93583
G1 X130.424 Y88.942 E8.95061
G1 X130.401 Y89.153 E8.95767
G1 X130.305 Y89.666 E8.97503
G1 X130.132 Y90.157 E8.99235
G1 X129.806 Y90.735 E9.01442
G1 X129.034 Y91.837 E9.05917
G1 X128.42 Y92.764 E9.09615
G1 X127.841 Y93.722 E9.13338
G1 X127.311 Y94.686 E9.16997
G1 X126.807 Y95.7 E9.20763
G1 X126.702 Y95.931 E9.21607
G1 X126.365 Y96.686 E9.24357
G1 X125.937 Y97.749 E9.28169
G1 X125.528 Y98.901 E9.32234
G1 X125.444 Y99.167 E9.33162
G1 X125.171 Y100.052 E9.36243
G1 X125.095 Y100.331 E9.37204
G1 X124.865 Y101.208 E9.4022
G1 X124.796 Y101.508 E9.41244
G1 X124.602 Y102.382 E9.44221
G1 X124.377 Y103.621 E9.4841
G1 X124.208 Y104.83 E9.5247
G1 X124.088 Y106.039 E9.56511
G1 X124.013 Y107.277 E9.60636
G1 X123.989 Y108.484 E9.64651
G1 X123.993 Y108.792 E9.65676
G1 X124.011 Y109.725 E9.6878
G1 X124.076 Y110.863 E9.72571
G1 X124.165 Y111.847 E9.75857
G1 X124.275 Y112.754 E9.78896
G1 X124.407 Y113.627 E9.81832
G1 X124.571 Y114.534 E9.84898
G1 X124.752 Y115.395 E9.87824
G1 X125.054 Y116.609 E9.91985
G1 X125.397 Y117.791 E9.96079
G1 X125.825 Y119.051 E10.00505
G1 X126.229 Y120.106 E10.04262
G1 X126.714 Y121.229 E10.08331
G1 X127.279 Y122.4 E10.12655
G1 X127.576 Y122.965 E10.14778
G1 X127.885 Y123.52 E10.16891
G1 X128.242 Y124.126 E10.1923
G1 X128.586 Y124.679 E10.21396
G1 X128.985 Y125.287 E10.23815
G1 X129.347 Y125.81 E10.25931
G1 X129.677 Y126.262 E10.27792
G1 X130.088 Y126.799 E10.30041
G1 X130.498 Y127.308 E10.32215
G1 X130.977 Y127.878 E10.34691
G1 X131.28 Y128.302 E10.36425
G1 X131.592 Y128.969 E10.38874
G1 X131.681 Y129.23 E10.39791
G1 X131.811 Y129.734 E10.41522
G1 X131.862 Y130.253 E10.43257
G1 X131.795 Y131.005 E10.45768
G1 X131.749 Y131.231 E10.46535
G1 X131.606 Y131.732 E10.48268
G1 X131.388 Y132.206 E10.50003
G1 X131.137 Y132.593 E10.51537
G1 X131.023 Y132.745 E10.52169
G1 X130.679 Y133.137 E10.53904
G1 X130.171 Y133.546 E10.56073
G1 X129.041 Y134.284 E10.60562
G1 X127.932 Y134.926 E10.64824
G1 X126.796 Y135.516 E10.69081
G1 X125.624 Y136.055 E10.73372
G1 X124.43 Y136.536 E10.77653
G1 X123.213 Y136.958 E10.81938
G1 X122.099 Y137.287 E10.85801
G1 X121.546 Y137.438 E10.87708
G1 X120.573 Y137.674 E10.91038
G1 X119.684 Y137.865 E10.94062
G1 X119.168 Y137.935 E10.95794
G1 X118.595 Y137.92 E10.977
G1 X118.352 Y137.893 E10.98513
G1 X117.84 Y137.796 E11.00247
G1 X117.348 Y137.622 E11.01982
G1 X116.928 Y137.399 E11.03564
G1 X116.75 Y137.288 E11.04262
G1 X116.33 Y136.979 E11.05996
G1 X115.892 Y136.525 E11.08094
G1 X115.785 Y136.391 E11.08665
G1 X115.374 Y135.735 E11.11239
G1 X114.712 Y134.349 E11.16348
G1 X114.181 Y133.303 E11.2025
G1 X113.524 Y132.099 E11.24812
G1 X112.965 Y131.149 E11.28478
G1 X112.431 Y130.296 E11.31825
G1 X111.865 Y129.47 E11.35155
G1 X111.315 Y128.737 E11.38203
G1 X110.771 Y128.08 E11.4104
G1 X110.484 Y127.765 E11.42458
G1 X110.264 Y127.535 E11.43516
G1 X109.903 Y127.191 E11.45175
G1 X109.65 Y126.97 E11.46292
G1 X109.379 Y126.758 E11.47436
G1 X109.144 Y126.596 E11.48386
G1 X108.911 Y126.456 E11.4929
G1 X108.736 Y126.365 E11.49946
G1 X108.585 Y126.301 E11.50491
G1 X108.483 Y126.267 E11.50849
G1 X108.361 Y126.238 E11.51266
G1 X108.264 Y126.232 E11.51589
G1 X108.192 Y126.245 E11.51833
G1 X108.094 Y126.284 E11.52183
G1 X107.957 Y126.364 E11.52711
G1 X107.868 Y126.429 E11.53078
G1 X107.753 Y126.523 E11.53572
G1 X107.638 Y126.628 E11.5409
G1 X107.514 Y126.753 E11.54675
G1 X107.361 Y126.926 E11.55443
G1 X107.211 Y127.109 E11.5623
G1 X107.067 Y127.304 E11.57037
