;FLAVOR:Marlin
;TIME:2141
;Filament used: 0.940445m
;Layer height: 0.13
;MINX:91.124
;MINY:91.124
;MINZ:0.2
;MAXX:128.876
;MAXY:128.876
;MAXZ:10.47
;Generated with Cura_SteamEngine 4.6.1
M140 S60
M105
M190 S60
M104 S205
M105
M109 S205
M82 ;absolute extrusion mode
; Ender 3 Custom Start G-code
G92 E0 ; Reset Extruder
G28 ; Home all axes
G1 Z2.0 F3000 ; Move Z Axis up little to prevent scratching of Heat Bed
G1 X0.1 Y20 Z0.3 F5000.0 ; Move to start position
G1 X0.1 Y200.0 Z0.3 F1500.0 E15 ; Draw the first line
G1 X0.4 Y200.0 Z0.3 F5000.0 ; Move to side a little
G1 X0.4 Y20 Z0.3 F1500.0 E30 ; Draw the second line
G92 E0 ; Reset Extruder
G1 Z2.0 F3000 ; Move Z Axis up little to prevent scratching of Heat Bed
G1 X5 Y20 Z0.3 F5000.0 ; Move over to prevent blob squish
G92 E0
G92 E0
G1 F1500 E-6
;LAYER_COUNT:80
;LAYER:0
M107
G0 F6000 X96.746 Y96.561 Z0.2
;TYPE:SKIRT
G1 F1500 E0
G1 F1200 X97.534 Y95.827 E0.03582
G1 X97.74 Y95.649 E0.04487
G1 X98.579 Y94.973 E0.08071
G1 X98.792 Y94.813 E0.08957
G1 X99.674 Y94.199 E0.12531
G1 X99.903 Y94.052 E0.13436
G1 X100.828 Y93.502 E0.17016
G1 X101.072 Y93.368 E0.17942
G1 X102.037 Y92.886 E0.21529
G1 X102.277 Y92.777 E0.22406
G1 X103.269 Y92.365 E0.25979
G1 X103.527 Y92.268 E0.26895
G1 X104.549 Y91.928 E0.30478
G1 X104.807 Y91.853 E0.31371
G1 X105.85 Y91.586 E0.34952
G1 X106.118 Y91.527 E0.35865
G1 X107.178 Y91.336 E0.39447
G1 X107.446 Y91.298 E0.40348
G1 X108.516 Y91.183 E0.43927
G1 X108.784 Y91.163 E0.44821
G1 X109.859 Y91.124 E0.48399
G1 X110.135 Y91.124 E0.49317
G1 X111.21 Y91.163 E0.52894
G1 X111.478 Y91.183 E0.53788
G1 X112.548 Y91.298 E0.57368
G1 X112.812 Y91.336 E0.58255
G1 X113.872 Y91.526 E0.61837
G1 X114.141 Y91.584 E0.62752
G1 X115.184 Y91.85 E0.66332
G1 X115.445 Y91.926 E0.67236
G1 X116.467 Y92.266 E0.70818
G1 X116.723 Y92.362 E0.71728
G1 X117.716 Y92.774 E0.75303
G1 X117.957 Y92.884 E0.76185
G1 X118.921 Y93.365 E0.79768
G1 X119.162 Y93.496 E0.8068
G1 X120.088 Y94.045 E0.84261
G1 X120.317 Y94.192 E0.85166
G1 X121.2 Y94.805 E0.88741
G1 X121.421 Y94.971 E0.8966
G1 X122.258 Y95.647 E0.93239
G1 X122.458 Y95.821 E0.9412
G1 X123.246 Y96.554 E0.977
G1 X123.439 Y96.746 E0.98605
G1 X124.173 Y97.534 E1.02187
G1 X124.351 Y97.74 E1.03093
G1 X125.027 Y98.579 E1.06676
G1 X125.187 Y98.792 E1.07562
G1 X125.801 Y99.674 E1.11137
G1 X125.948 Y99.903 E1.12042
G1 X126.498 Y100.828 E1.15621
G1 X126.631 Y101.071 E1.16542
G1 X127.113 Y102.035 E1.20127
G1 X127.224 Y102.278 E1.21016
G1 X127.636 Y103.271 E1.24591
G1 X127.731 Y103.526 E1.25496
G1 X128.071 Y104.547 E1.29076
G1 X128.148 Y104.806 E1.29974
G1 X128.415 Y105.85 E1.33558
G1 X128.473 Y106.117 E1.34467
G1 X128.664 Y107.175 E1.38043
G1 X128.702 Y107.444 E1.38947
G1 X128.817 Y108.515 E1.42529
G1 X128.837 Y108.783 E1.43423
G1 X128.876 Y109.858 E1.47001
G1 X128.876 Y110.134 E1.47919
G1 X128.837 Y111.21 E1.515
G1 X128.818 Y111.475 E1.52384
G1 X128.704 Y112.545 E1.55963
G1 X128.665 Y112.816 E1.56873
G1 X128.474 Y113.876 E1.60456
G1 X128.416 Y114.141 E1.61358
G1 X128.15 Y115.184 E1.64938
G1 X128.074 Y115.443 E1.65836
G1 X127.735 Y116.463 E1.69411
G1 X127.639 Y116.722 E1.70329
G1 X127.226 Y117.717 E1.73913
G1 X127.116 Y117.957 E1.74791
G1 X126.635 Y118.921 E1.78374
G1 X126.504 Y119.161 E1.79283
G1 X125.956 Y120.086 E1.82859
G1 X125.808 Y120.317 E1.83772
G1 X125.194 Y121.201 E1.87352
G1 X125.029 Y121.421 E1.88266
G1 X124.353 Y122.258 E1.91845
G1 X124.179 Y122.458 E1.92726
G1 X123.446 Y123.246 E1.96306
G1 X123.254 Y123.439 E1.97211
G1 X122.466 Y124.173 E2.00793
G1 X122.26 Y124.351 E2.01699
G1 X121.421 Y125.027 E2.05282
G1 X121.208 Y125.187 E2.06168
G1 X120.326 Y125.801 E2.09743
G1 X120.097 Y125.948 E2.10648
G1 X119.172 Y126.498 E2.14227
G1 X118.928 Y126.632 E2.15153
G1 X117.963 Y127.114 E2.18741
G1 X117.723 Y127.223 E2.19617
G1 X116.731 Y127.635 E2.2319
G1 X116.473 Y127.732 E2.24107
G1 X115.451 Y128.072 E2.27689
G1 X115.193 Y128.147 E2.28583
G1 X114.15 Y128.414 E2.32164
G1 X113.882 Y128.473 E2.33076
G1 X112.822 Y128.664 E2.36659
G1 X112.554 Y128.702 E2.37559
G1 X111.484 Y128.817 E2.41138
G1 X111.216 Y128.837 E2.42032
G1 X110.141 Y128.876 E2.4561
G1 X109.865 Y128.876 E2.46528
G1 X108.79 Y128.837 E2.50106
G1 X108.525 Y128.818 E2.50989
G1 X107.455 Y128.704 E2.54568
G1 X107.184 Y128.665 E2.55479
G1 X106.124 Y128.474 E2.59061
G1 X105.859 Y128.416 E2.59964
G1 X104.816 Y128.15 E2.63544
G1 X104.555 Y128.074 E2.64448
G1 X103.533 Y127.734 E2.6803
G1 X103.277 Y127.638 E2.6894
G1 X102.284 Y127.226 E2.72515
G1 X102.043 Y127.116 E2.73396
G1 X101.079 Y126.635 E2.7698
G1 X100.838 Y126.504 E2.77892
G1 X99.912 Y125.955 E2.81473
G1 X99.683 Y125.808 E2.82378
G1 X98.8 Y125.195 E2.85953
G1 X98.579 Y125.029 E2.86872
G1 X97.741 Y124.352 E2.90455
G1 X97.541 Y124.178 E2.91337
G1 X96.753 Y123.445 E2.94916
G1 X96.56 Y123.253 E2.95822
G1 X95.826 Y122.465 E2.99404
G1 X95.648 Y122.259 E3.00309
G1 X94.973 Y121.421 E3.03888
G1 X94.814 Y121.209 E3.04769
G1 X94.199 Y120.326 E3.08348
G1 X94.05 Y120.095 E3.09263
G1 X93.501 Y119.171 E3.12838
G1 X93.368 Y118.928 E3.13759
G1 X92.886 Y117.963 E3.17347
G1 X92.777 Y117.723 E3.18223
G1 X92.364 Y116.729 E3.21803
G1 X92.267 Y116.469 E3.22726
G1 X91.928 Y115.449 E3.26301
G1 X91.853 Y115.193 E3.27189
G1 X91.586 Y114.15 E3.3077
G1 X91.527 Y113.882 E3.31682
G1 X91.336 Y112.822 E3.35265
G1 X91.298 Y112.554 E3.36165
G1 X91.183 Y111.484 E3.39744
G1 X91.164 Y111.216 E3.40638
G1 X91.125 Y110.142 E3.44212
G1 X91.124 Y109.866 E3.4513
G1 X91.163 Y108.79 E3.48711
G1 X91.182 Y108.525 E3.49595
G1 X91.296 Y107.455 E3.53174
G1 X91.335 Y107.184 E3.54085
G1 X91.526 Y106.124 E3.57667
G1 X91.584 Y105.859 E3.58569
G1 X91.85 Y104.816 E3.62149
G1 X91.926 Y104.557 E3.63047
G1 X92.265 Y103.537 E3.66622
G1 X92.361 Y103.278 E3.67541
G1 X92.774 Y102.283 E3.71124
G1 X92.884 Y102.043 E3.72002
G1 X93.365 Y101.079 E3.75585
G1 X93.496 Y100.839 E3.76495
G1 X94.044 Y99.914 E3.80071
G1 X94.192 Y99.683 E3.80983
G1 X94.806 Y98.799 E3.84563
G1 X94.971 Y98.579 E3.85478
G1 X95.647 Y97.742 E3.89056
G1 X95.821 Y97.542 E3.89938
G1 X96.554 Y96.754 E3.93517
G1 X96.746 Y96.561 E3.94423
G0 F6000 X97.019 Y96.854
G1 F1200 X97.807 Y96.12 E3.98004
G1 X97.991 Y95.96 E3.98815
G1 X98.83 Y95.284 E4.02399
G1 X99.02 Y95.142 E4.03188
G1 X99.902 Y94.528 E4.06762
G1 X100.107 Y94.396 E4.07573
G1 X101.032 Y93.846 E4.11153
G1 X101.251 Y93.726 E4.11983
G1 X102.216 Y93.244 E4.15571
G1 X102.431 Y93.146 E4.16357
G1 X103.423 Y92.734 E4.19929
G1 X103.654 Y92.648 E4.20749
G1 X104.676 Y92.308 E4.24332
G1 X104.906 Y92.24 E4.25129
G1 X105.949 Y91.973 E4.2871
G1 X106.189 Y91.921 E4.29527
G1 X107.249 Y91.73 E4.33109
G1 X107.489 Y91.695 E4.33916
G1 X108.559 Y91.58 E4.37495
G1 X108.799 Y91.563 E4.38296
G1 X109.874 Y91.524 E4.41873
G1 X110.12 Y91.524 E4.42692
G1 X111.195 Y91.563 E4.46269
G1 X111.435 Y91.58 E4.4707
G1 X112.505 Y91.695 E4.50649
G1 X112.742 Y91.729 E4.51445
G1 X113.802 Y91.919 E4.55027
G1 X114.042 Y91.971 E4.55844
G1 X115.085 Y92.237 E4.59424
G1 X115.318 Y92.306 E4.60232
G1 X116.34 Y92.646 E4.63815
G1 X116.57 Y92.732 E4.64631
G1 X117.563 Y93.144 E4.68207
G1 X117.778 Y93.242 E4.68993
G1 X118.742 Y93.723 E4.72576
G1 X118.958 Y93.84 E4.73393
G1 X119.884 Y94.389 E4.76974
G1 X120.089 Y94.521 E4.77785
G1 X120.972 Y95.134 E4.8136
G1 X121.169 Y95.282 E4.82179
G1 X122.006 Y95.958 E4.85758
G1 X122.186 Y96.114 E4.8655
G1 X122.974 Y96.847 E4.9013
G1 X123.146 Y97.019 E4.90939
G1 X123.88 Y97.807 E4.9452
G1 X124.04 Y97.991 E4.95331
G1 X124.716 Y98.83 E4.98915
G1 X124.858 Y99.02 E4.99704
G1 X125.472 Y99.902 E5.03278
G1 X125.604 Y100.107 E5.04089
G1 X126.154 Y101.032 E5.07669
G1 X126.273 Y101.249 E5.08492
G1 X126.755 Y102.213 E5.12076
G1 X126.854 Y102.431 E5.12873
G1 X127.266 Y103.424 E5.16448
G1 X127.352 Y103.653 E5.17262
G1 X127.692 Y104.674 E5.20841
G1 X127.76 Y104.906 E5.21645
G1 X128.027 Y105.95 E5.25229
G1 X128.079 Y106.188 E5.2604
G1 X128.27 Y107.246 E5.29616
G1 X128.305 Y107.487 E5.30426
G1 X128.42 Y108.558 E5.34008
G1 X128.437 Y108.798 E5.34808
G1 X128.476 Y109.873 E5.38386
G1 X128.476 Y110.119 E5.39204
G1 X128.437 Y111.195 E5.42786
G1 X128.42 Y111.432 E5.43576
G1 X128.306 Y112.502 E5.47155
G1 X128.271 Y112.745 E5.47971
G1 X128.08 Y113.805 E5.51554
G1 X128.029 Y114.042 E5.5236
G1 X127.763 Y115.085 E5.5594
G1 X127.694 Y115.317 E5.56745
G1 X127.355 Y116.337 E5.6032
G1 X127.269 Y116.568 E5.6114
G1 X126.856 Y117.563 E5.64723
G1 X126.758 Y117.778 E5.65509
G1 X126.277 Y118.742 E5.69092
G1 X126.16 Y118.957 E5.69906
G1 X125.612 Y119.882 E5.73482
G1 X125.479 Y120.089 E5.74301
G1 X124.865 Y120.973 E5.7788
G1 X124.718 Y121.169 E5.78695
G1 X124.042 Y122.006 E5.82274
G1 X123.886 Y122.186 E5.83066
G1 X123.153 Y122.974 E5.86646
G1 X122.981 Y123.146 E5.87455
G1 X122.193 Y123.88 E5.91036
G1 X122.009 Y124.04 E5.91847
G1 X121.17 Y124.716 E5.95431
G1 X120.98 Y124.858 E5.9622
G1 X120.098 Y125.472 E5.99794
G1 X119.893 Y125.604 E6.00605
G1 X118.968 Y126.154 E6.04185
G1 X118.749 Y126.274 E6.05015
G1 X117.784 Y126.756 E6.08603
G1 X117.569 Y126.854 E6.09389
G1 X116.577 Y127.266 E6.12961
G1 X116.346 Y127.352 E6.13781
G1 X115.324 Y127.692 E6.17364
G1 X115.094 Y127.76 E6.18161
G1 X114.051 Y128.027 E6.21742
G1 X113.811 Y128.079 E6.22559
G1 X112.751 Y128.27 E6.26141
G1 X112.511 Y128.305 E6.26948
G1 X111.441 Y128.42 E6.30527
G1 X111.201 Y128.437 E6.31327
G1 X110.126 Y128.476 E6.34905
G1 X109.88 Y128.476 E6.35724
G1 X108.805 Y128.437 E6.39301
G1 X108.568 Y128.42 E6.40092
G1 X107.498 Y128.306 E6.43671
G1 X107.255 Y128.271 E6.44487
G1 X106.195 Y128.08 E6.4807
G1 X105.958 Y128.029 E6.48876
G1 X104.915 Y127.763 E6.52456
G1 X104.682 Y127.694 E6.53264
G1 X103.66 Y127.354 E6.56846
G1 X103.43 Y127.268 E6.57663
G1 X102.437 Y126.856 E6.61239
G1 X102.222 Y126.758 E6.62025
G1 X101.258 Y126.277 E6.65608
G1 X101.042 Y126.16 E6.66425
G1 X100.116 Y125.611 E6.70006
G1 X99.911 Y125.479 E6.70817
G1 X99.028 Y124.866 E6.74392
G1 X98.83 Y124.718 E6.75214
G1 X97.992 Y124.041 E6.78797
G1 X97.813 Y123.885 E6.79587
G1 X97.025 Y123.152 E6.83166
G1 X96.853 Y122.98 E6.83975
G1 X96.119 Y122.192 E6.87557
G1 X95.959 Y122.008 E6.88368
G1 X95.284 Y121.17 E6.91947
G1 X95.142 Y120.98 E6.92736
G1 X94.527 Y120.097 E6.96315
G1 X94.394 Y119.891 E6.9713
G1 X93.845 Y118.967 E7.00705
G1 X93.726 Y118.749 E7.01531
G1 X93.244 Y117.784 E7.05119
G1 X93.146 Y117.57 E7.05902
G1 X92.733 Y116.576 E7.09482
G1 X92.647 Y116.343 E7.10308
G1 X92.308 Y115.323 E7.13883
G1 X92.24 Y115.094 E7.14678
G1 X91.973 Y114.051 E7.18258
G1 X91.921 Y113.811 E7.19075
G1 X91.73 Y112.751 E7.22658
G1 X91.695 Y112.511 E7.23464
G1 X91.58 Y111.441 E7.27044
G1 X91.563 Y111.201 E7.27844
G1 X91.524 Y110.127 E7.31418
G1 X91.524 Y109.881 E7.32236
G1 X91.563 Y108.805 E7.35818
G1 X91.58 Y108.568 E7.36608
G1 X91.694 Y107.498 E7.40187
G1 X91.729 Y107.255 E7.41003
G1 X91.92 Y106.195 E7.44586
G1 X91.971 Y105.958 E7.45392
G1 X92.237 Y104.915 E7.48972
G1 X92.306 Y104.683 E7.49777
G1 X92.645 Y103.663 E7.53352
G1 X92.731 Y103.432 E7.54172
G1 X93.144 Y102.437 E7.57755
G1 X93.242 Y102.222 E7.58541
G1 X93.723 Y101.258 E7.62124
G1 X93.84 Y101.043 E7.62938
G1 X94.388 Y100.118 E7.66514
G1 X94.521 Y99.911 E7.67333
G1 X95.135 Y99.027 E7.70913
G1 X95.282 Y98.831 E7.71727
G1 X95.958 Y97.994 E7.75306
G1 X96.114 Y97.814 E7.76098
G1 X96.847 Y97.026 E7.79678
G1 X97.019 Y96.854 E7.80487
G0 F6000 X97.291 Y97.147
G1 F1200 X98.079 Y96.413 E7.84068
G1 X98.242 Y96.272 E7.84785
G1 X99.081 Y95.596 E7.88369
G1 X99.249 Y95.47 E7.89067
G1 X100.131 Y94.856 E7.92642
G1 X100.312 Y94.739 E7.93358
G1 X101.237 Y94.189 E7.96938
G1 X101.429 Y94.084 E7.97666
G1 X102.394 Y93.602 E8.01253
G1 X102.584 Y93.515 E8.01948
G1 X103.576 Y93.103 E8.05521
G1 X103.78 Y93.027 E8.06245
G1 X104.802 Y92.687 E8.09827
G1 X105.005 Y92.628 E8.10531
G1 X106.048 Y92.361 E8.14111
G1 X106.26 Y92.315 E8.14833
G1 X107.32 Y92.124 E8.18415
G1 X107.531 Y92.093 E8.19125
G1 X108.601 Y91.978 E8.22704
G1 X108.813 Y91.963 E8.23411
G1 X109.888 Y91.924 E8.26989
G1 X110.106 Y91.924 E8.27714
G1 X111.181 Y91.963 E8.31292
G1 X111.393 Y91.978 E8.31998
G1 X112.463 Y92.093 E8.35578
G1 X112.671 Y92.123 E8.36277
G1 X113.731 Y92.313 E8.39859
G1 X113.943 Y92.359 E8.4058
G1 X114.986 Y92.625 E8.4416
G1 X115.192 Y92.685 E8.44874
G1 X116.214 Y93.025 E8.48456
G1 X116.417 Y93.101 E8.49177
G1 X117.41 Y93.513 E8.52753
G1 X117.599 Y93.6 E8.53445
G1 X118.563 Y94.081 E8.57028
G1 X118.754 Y94.184 E8.5775
G1 X119.68 Y94.733 E8.6133
G1 X119.861 Y94.85 E8.62047
G1 X120.744 Y95.463 E8.65622
G1 X120.918 Y95.593 E8.66345
G1 X121.755 Y96.269 E8.69923
G1 X121.913 Y96.406 E8.70619
G1 X122.701 Y97.139 E8.74198
G1 X122.853 Y97.291 E8.74913
G1 X123.587 Y98.079 E8.78495
G1 X123.728 Y98.242 E8.79212
G1 X124.404 Y99.081 E8.82795
G1 X124.53 Y99.249 E8.83494
G1 X125.144 Y100.131 E8.87068
G1 X125.261 Y100.312 E8.87785
G1 X125.811 Y101.237 E8.91364
G1 X125.915 Y101.428 E8.92088
G1 X126.397 Y102.392 E8.95672
G1 X126.485 Y102.584 E8.96375
G1 X126.897 Y103.577 E8.99951
G1 X126.972 Y103.779 E9.00667
G1 X127.312 Y104.8 E9.04247
G1 X127.372 Y105.005 E9.04957
G1 X127.639 Y106.049 E9.08541
G1 X127.685 Y106.259 E9.09256
G1 X127.876 Y107.317 E9.12832
G1 X127.907 Y107.53 E9.13548
G1 X128.022 Y108.601 E9.1713
G1 X128.037 Y108.812 E9.17834
G1 X128.076 Y109.887 E9.21412
G1 X128.076 Y110.105 E9.22137
G1 X128.037 Y111.181 E9.25718
G1 X128.022 Y111.39 E9.26415
G1 X127.908 Y112.46 E9.29994
G1 X127.877 Y112.674 E9.30713
G1 X127.686 Y113.734 E9.34295
G1 X127.641 Y113.943 E9.35007
G1 X127.375 Y114.986 E9.38587
G1 X127.315 Y115.191 E9.39297
G1 X126.976 Y116.211 E9.42872
G1 X126.9 Y116.415 E9.43596
G1 X126.487 Y117.41 E9.47179
G1 X126.4 Y117.599 E9.47871
G1 X125.919 Y118.563 E9.51455
G1 X125.816 Y118.753 E9.52173
G1 X125.268 Y119.678 E9.55749
G1 X125.151 Y119.86 E9.56469
G1 X124.537 Y120.744 E9.60049
G1 X124.407 Y120.918 E9.60771
G1 X123.731 Y121.755 E9.6435
G1 X123.594 Y121.913 E9.65045
G1 X122.861 Y122.701 E9.68625
G1 X122.709 Y122.853 E9.6934
G1 X121.921 Y123.587 E9.72921
G1 X121.758 Y123.728 E9.73638
G1 X120.919 Y124.404 E9.77222
G1 X120.751 Y124.53 E9.7792
G1 X119.869 Y125.144 E9.81495
G1 X119.688 Y125.261 E9.82211
G1 X118.763 Y125.811 E9.85791
G1 X118.571 Y125.916 E9.86519
G1 X117.606 Y126.398 E9.90106
G1 X117.416 Y126.485 E9.90801
G1 X116.424 Y126.897 E9.94374
G1 X116.22 Y126.973 E9.95098
G1 X115.198 Y127.313 E9.9868
G1 X114.995 Y127.372 E9.99384
G1 X113.952 Y127.639 E10.02964
G1 X113.74 Y127.685 E10.03686
G1 X112.68 Y127.876 E10.07268
G1 X112.469 Y127.907 E10.07978
G1 X111.399 Y128.022 E10.11557
G1 X111.187 Y128.037 E10.12264
G1 X110.112 Y128.076 E10.15842
G1 X109.894 Y128.076 E10.16567
G1 X108.819 Y128.037 E10.20145
G1 X108.61 Y128.022 E10.20841
G1 X107.54 Y127.908 E10.2442
G1 X107.326 Y127.877 E10.2514
G1 X106.266 Y127.686 E10.28722
G1 X106.057 Y127.641 E10.29433
G1 X105.014 Y127.375 E10.33013
G1 X104.808 Y127.315 E10.33727
G1 X103.786 Y126.975 E10.37309
G1 X103.583 Y126.899 E10.3803
G1 X102.59 Y126.487 E10.41606
G1 X102.401 Y126.4 E10.42298
G1 X101.437 Y125.919 E10.45881
G1 X101.246 Y125.816 E10.46603
G1 X100.32 Y125.267 E10.50183
G1 X100.139 Y125.15 E10.509
G1 X99.256 Y124.537 E10.54475
G1 X99.082 Y124.407 E10.55198
G1 X98.244 Y123.73 E10.58781
G1 X98.086 Y123.593 E10.59476
G1 X97.298 Y122.86 E10.63056
G1 X97.146 Y122.708 E10.63771
G1 X96.412 Y121.92 E10.67353
G1 X96.271 Y121.757 E10.68069
G1 X95.596 Y120.919 E10.71648
G1 X95.47 Y120.752 E10.72344
G1 X94.855 Y119.869 E10.75923
G1 X94.738 Y119.686 E10.76646
G1 X94.189 Y118.762 E10.8022
G1 X94.084 Y118.571 E10.80945
G1 X93.602 Y117.606 E10.84533
G1 X93.516 Y117.416 E10.85227
G1 X93.103 Y116.422 E10.88807
G1 X93.026 Y116.217 E10.89535
G1 X92.687 Y115.197 E10.9311
