;FLAVOR:Marlin
;TIME:3970
;Filament used: 1.81997m
;Layer height: 0.2
;MINX:84.197
;MINY:90.021
;MINZ:0.2
;MAXX:135.789
;MAXY:129.983
;MAXZ:141
;Generated with Cura_SteamEngine 4.6.1
M140 S60
M105
M190 S60
M104 S220
M105
M109 S220
M82 ;absolute extrusion mode
; Ender 3 Custom Start G-code
G92 E0 ; Reset Extruder
G28 ; Home all axes
G1 Z2.0 F3000 ; Move Z Axis up little to prevent scratching of Heat Bed
G1 X0.1 Y20 Z0.3 F5000.0 ; Move to start position
G1 X0.1 Y200.0 Z0.3 F1500.0 E15 ; Draw the first line
G1 X0.4 Y200.0 Z0.3 F5000.0 ; Move to side a little
G1 X0.4 Y20 Z0.3 F1500.0 E30 ; Draw the second line
G92 E0 ; Reset Extruder
G1 Z2.0 F3000 ; Move Z Axis up little to prevent scratching of Heat Bed
G1 X5 Y20 Z0.3 F5000.0 ; Move over to prevent blob squish
G92 E0
G92 E0
G1 F1500 E-6
;LAYER_COUNT:712
;LAYER:0
M107
G0 F6000 X94.349 Y91.836 Z0.2
;TYPE:SKIRT
G1 F1500 E0.04158
G1 F1200 X94.845 Y91.369 E0.06423
G1 X95.393 Y90.964 E0.0869
G1 X95.984 Y90.626 E0.10954
G1 X96.61 Y90.36 E0.13216
G1 X97.264 Y90.168 E0.15483
G1 X97.935 Y90.055 E0.17747
G1 X98.615 Y90.021 E0.20011
G1 X99.027 Y90.04 E0.21383
G1 X103.448 Y90.395 E0.36135
G1 X108.584 Y90.839 E0.53281
G1 X113.714 Y91.312 E0.70416
G1 X118.842 Y91.815 E0.87553
G1 X123.928 Y92.345 E1.04561
G1 X130.417 Y93.059 E1.26274
G1 X131.088 Y93.173 E1.28537
G1 X131.741 Y93.365 E1.30801
G1 X132.234 Y93.566 E1.32572
G1 X132.842 Y93.874 E1.34839
G1 X133.408 Y94.251 E1.37101
G1 X133.927 Y94.692 E1.39366
G1 X134.39 Y95.191 E1.4163
G1 X134.825 Y95.794 E1.44103
G1 X134.903 Y95.918 E1.4459
G1 X135.232 Y96.514 E1.46855
G1 X135.487 Y97.145 E1.49118
G1 X135.668 Y97.802 E1.51385
G1 X135.77 Y98.475 E1.53649
G1 X135.789 Y99.239 E1.56191
G1 X135.783 Y99.388 E1.56687
G1 X135.716 Y100.066 E1.58953
G1 X135.57 Y100.731 E1.61217
G1 X135.347 Y101.374 E1.63481
G1 X135.05 Y101.987 E1.65746
G1 X134.619 Y102.648 E1.68371
G1 X134.53 Y102.766 E1.68862
G1 X134.088 Y103.284 E1.71127
G1 X133.589 Y103.747 E1.73391
G1 X133.04 Y104.149 E1.75654
G1 X132.447 Y104.484 E1.7792
G1 X132.001 Y104.68 E1.7954
G1 X131.357 Y104.903 E1.81807
G1 X130.417 Y105.086 E1.84992
G1 X123.912 Y105.801 E2.06758
G1 X118.786 Y106.335 E2.23899
G1 X116.881 Y106.523 E2.30266
G1 X116.371 Y107.845 E2.34979
G1 X115.526 Y109.803 E2.42072
G1 X114.706 Y111.525 E2.48416
G1 X114.602 Y111.731 E2.49183
G1 X113.602 Y113.622 E2.56298
G1 X112.533 Y115.463 E2.63378
G1 X111.389 Y117.269 E2.70489
G1 X110.309 Y118.84 E2.7683
G1 X110.175 Y119.026 E2.77592
G1 X108.892 Y120.735 E2.847
G1 X107.543 Y122.391 E2.91804
G1 X106.13 Y123.993 E2.98909
G1 X104.816 Y125.375 E3.05251
G1 X104.654 Y125.538 E3.06016
G1 X103.286 Y126.867 E3.12359
G1 X102.945 Y127.173 E3.13883
G1 X102.438 Y127.593 E3.16073
G1 X101.874 Y128.006 E3.18398
G1 X101.32 Y128.362 E3.20588
G1 X100.725 Y128.697 E3.22859
G1 X100.13 Y128.987 E3.25061
G1 X99.463 Y129.262 E3.2746
G1 X98.842 Y129.474 E3.29643
G1 X98.195 Y129.654 E3.31876
G1 X97.548 Y129.794 E3.34078
G1 X96.85 Y129.901 E3.36427
G1 X96.195 Y129.961 E3.38615
G1 X95.507 Y129.983 E3.40904
G1 X94.849 Y129.965 E3.43093
G1 X94.157 Y129.904 E3.45404
G1 X93.503 Y129.807 E3.47603
G1 X92.823 Y129.664 E3.49914
G1 X92.191 Y129.491 E3.52093
G1 X91.517 Y129.261 E3.54462
G1 X90.904 Y129.009 E3.56666
G1 X90.295 Y128.716 E3.58914
G1 X89.722 Y128.398 E3.61094
G1 X89.131 Y128.022 E3.63424
G1 X88.596 Y127.634 E3.65622
G1 X88.056 Y127.191 E3.67945
G1 X87.572 Y126.742 E3.70141
G1 X87.102 Y126.251 E3.72401
G1 X86.676 Y125.751 E3.74586
G1 X86.249 Y125.183 E3.7695
G1 X85.885 Y124.631 E3.79149
G1 X85.536 Y124.025 E3.81475
G1 X85.242 Y123.435 E3.83667
G1 X84.975 Y122.811 E3.85925
G1 X84.752 Y122.191 E3.88116
G1 X84.554 Y121.512 E3.90469
G1 X84.408 Y120.869 E3.92662
G1 X84.295 Y120.186 E3.94964
G1 X84.227 Y119.533 E3.97148
G1 X84.197 Y118.844 E3.99442
G1 X84.207 Y118.185 E4.01634
G1 X84.259 Y117.492 E4.03945
G1 X84.348 Y116.837 E4.06144
G1 X84.485 Y116.145 E4.0849
G1 X84.652 Y115.509 E4.10677
G1 X84.868 Y114.851 E4.1298
G1 X85.111 Y114.236 E4.1518
G1 X85.246 Y113.921 E4.1632
G1 X88.993 Y105.866 E4.45867
G1 X89.176 Y105.425 E4.47455
G1 X89.286 Y105.072 E4.48685
G1 X89.365 Y104.715 E4.49901
G1 X89.414 Y104.344 E4.51146
G1 X89.435 Y103.872 E4.52717
G1 X89.435 Y101.598 E4.60281
G1 X89.475 Y100.918 E4.62546
G1 X89.594 Y100.248 E4.6481
G1 X89.791 Y99.596 E4.67075
G1 X90.209 Y98.703 E4.70355
G1 X93.537 Y92.926 E4.92529
G1 X93.911 Y92.357 E4.94794
G1 X94.349 Y91.836 E4.97058
G0 F6000 X94.672 Y92.077
G1 F1200 X95.155 Y91.632 E4.99242
G1 X95.689 Y91.249 E5.01428
G1 X96.265 Y90.934 E5.03611
G1 X96.876 Y90.691 E5.05798
G1 X97.511 Y90.524 E5.07982
G1 X98.162 Y90.436 E5.10167
G1 X98.995 Y90.438 E5.12938
G1 X103.416 Y90.793 E5.27689
G1 X108.549 Y91.237 E5.44825
G1 X113.677 Y91.71 E5.61954
G1 X118.803 Y92.213 E5.79085
G1 X123.886 Y92.743 E5.96082
G1 X130.373 Y93.456 E6.17788
G1 X131.021 Y93.568 E6.19975
G1 X131.942 Y93.874 E6.23203
G1 X132.075 Y93.932 E6.23686
G1 X132.66 Y94.231 E6.25871
G1 X133.204 Y94.599 E6.28056
G1 X133.7 Y95.03 E6.30241
G1 X134.14 Y95.518 E6.32427
G1 X134.487 Y96.007 E6.34421
G1 X134.565 Y96.131 E6.34908
G1 X134.88 Y96.707 E6.37092
G1 X135.123 Y97.317 E6.39276
G1 X135.29 Y97.953 E6.41463
G1 X135.379 Y98.604 E6.43648
G1 X135.39 Y99.223 E6.45707
G1 X135.384 Y99.372 E6.46203
G1 X135.317 Y100.026 E6.4839
G1 X135.172 Y100.667 E6.50575
G1 X134.95 Y101.285 E6.5276
G1 X134.655 Y101.872 E6.54945
G1 X134.299 Y102.407 E6.57082
G1 X134.21 Y102.525 E6.57574
G1 X133.783 Y103.024 E6.59758
G1 X133.299 Y103.468 E6.61942
G1 X132.765 Y103.85 E6.64126
G1 X131.964 Y104.263 E6.67124
G1 X131.848 Y104.311 E6.67541
G1 X131.226 Y104.524 E6.69728
G1 X130.373 Y104.689 E6.72618
G1 X123.868 Y105.404 E6.94384
G1 X118.745 Y105.937 E7.11515
G1 X116.597 Y106.149 E7.18694
G1 X116.003 Y107.687 E7.24177
G1 X115.164 Y109.631 E7.3122
G1 X114.248 Y111.545 E7.38277
G1 X113.256 Y113.422 E7.45338
G1 X112.194 Y115.25 E7.5237
G1 X111.059 Y117.042 E7.59425
G1 X109.854 Y118.787 E7.66478
G1 X108.581 Y120.483 E7.73531
G1 X107.243 Y122.127 E7.80581
G1 X105.84 Y123.717 E7.87634
G1 X104.376 Y125.251 E7.94687
G1 X103.008 Y126.58 E8.01031
G1 X102.69 Y126.865 E8.02451
G1 X102.183 Y127.285 E8.04641
G1 X101.657 Y127.67 E8.06809
G1 X101.103 Y128.026 E8.08999
G1 X100.55 Y128.337 E8.11109
G1 X99.955 Y128.627 E8.13311
G1 X99.334 Y128.883 E8.15545
G1 X98.713 Y129.095 E8.17727
G1 X98.11 Y129.263 E8.19809
G1 X97.463 Y129.403 E8.22011
G1 X96.814 Y129.502 E8.24194
G1 X96.159 Y129.562 E8.26382
G1 X95.518 Y129.583 E8.28515
G1 X94.86 Y129.565 E8.30705
G1 X94.216 Y129.509 E8.32855
G1 X93.562 Y129.412 E8.35054
G1 X92.928 Y129.278 E8.37209
G1 X92.296 Y129.105 E8.39388
G1 X91.669 Y128.891 E8.41592
G1 X91.056 Y128.639 E8.43796
G1 X90.489 Y128.367 E8.45888
G1 X89.916 Y128.049 E8.48067
G1 X89.366 Y127.698 E8.50237
G1 X88.831 Y127.31 E8.52436
G1 X88.328 Y126.898 E8.54598
G1 X87.844 Y126.449 E8.56794
G1 X87.407 Y125.992 E8.58897
G1 X86.981 Y125.492 E8.61082
G1 X86.583 Y124.963 E8.63284
G1 X86.219 Y124.411 E8.65483
G1 X85.894 Y123.846 E8.67651
G1 X85.6 Y123.256 E8.69843
G1 X85.352 Y122.676 E8.71941
G1 X85.129 Y122.056 E8.74133
G1 X84.944 Y121.424 E8.76323
G1 X84.798 Y120.781 E8.78516
G1 X84.693 Y120.144 E8.80663
G1 X84.625 Y119.491 E8.82847
G1 X84.597 Y118.85 E8.84981
G1 X84.607 Y118.191 E8.87173
G1 X84.655 Y117.546 E8.89324
G1 X84.744 Y116.891 E8.91523
G1 X84.872 Y116.247 E8.93707
G1 X85.039 Y115.611 E8.95894
G1 X85.24 Y114.998 E8.98039
G1 X85.483 Y114.383 E9.00239
G1 X85.609 Y114.089 E9.01303
G1 X89.354 Y106.039 E9.30833
G1 X89.556 Y105.552 E9.32586
G1 X89.67 Y105.185 E9.33864
G1 X89.762 Y104.774 E9.35265
G1 X89.812 Y104.392 E9.36547
G1 X89.835 Y103.866 E9.38298
G1 X89.835 Y101.598 E9.45841
G1 X89.875 Y100.942 E9.48027
G1 X89.994 Y100.296 E9.50212
G1 X90.191 Y99.669 E9.52398
G1 X90.556 Y98.902 E9.55223
G1 X93.884 Y93.125 E9.77397
G1 X94.246 Y92.577 E9.79582
G1 X94.672 Y92.077 E9.81767
G0 F6000 X94.993 Y92.32
G1 F1200 X95.463 Y91.898 E9.83868
G1 X95.983 Y91.538 E9.85971
G1 X96.544 Y91.247 E9.88073
G1 X97.138 Y91.028 E9.90179
G1 X97.754 Y90.887 E9.92281
G1 X98.383 Y90.824 E9.94383
G1 X98.963 Y90.837 E9.96313
G1 X103.384 Y91.192 E10.11064
G1 X108.515 Y91.636 E10.28194
G1 X113.64 Y92.108 E10.45312
G1 X118.763 Y92.611 E10.62433
G1 X123.845 Y93.141 E10.79427
G1 X130.329 Y93.854 E11.01123
G1 X130.952 Y93.963 E11.03227
G1 X131.782 Y94.241 E11.06138
G1 X131.915 Y94.299 E11.06621
G1 X132.477 Y94.588 E11.08723
G1 X132.998 Y94.945 E11.10823
G1 X133.47 Y95.365 E11.12925
G1 X133.886 Y95.842 E11.1503
G1 X134.148 Y96.22 E11.16559
G1 X134.226 Y96.344 E11.17047
G1 X134.528 Y96.899 E11.19148
G1 X134.758 Y97.488 E11.21251
G1 X134.911 Y98.101 E11.23353
G1 X134.986 Y98.729 E11.25456
G1 X134.99 Y99.207 E11.27046
G1 X134.984 Y99.356 E11.27542
G1 X134.919 Y99.985 E11.29645
G1 X134.775 Y100.6 E11.31746
G1 X134.554 Y101.193 E11.33851
G1 X134.26 Y101.753 E11.35955
G1 X133.98 Y102.166 E11.37614
G1 X133.891 Y102.284 E11.38106
G1 X133.479 Y102.763 E11.40207
G1 X133.01 Y103.187 E11.4231
G1 X132.491 Y103.549 E11.44415
G1 X131.811 Y103.893 E11.46949
G1 X131.695 Y103.941 E11.47367
G1 X131.097 Y104.145 E11.49468
G1 X130.329 Y104.291 E11.52069
G1 X123.824 Y105.006 E11.73835
G1 X118.704 Y105.539 E11.90956
G1 X116.311 Y105.776 E11.98954
G1 X115.636 Y107.529 E12.05202
G1 X114.803 Y109.459 E12.12193
G1 X113.894 Y111.359 E12.19199
G1 X112.91 Y113.222 E12.26206
G1 X111.856 Y115.036 E12.33184
G1 X110.729 Y116.816 E12.40191
G1 X109.534 Y118.547 E12.47187
G1 X108.271 Y120.231 E12.54189
G1 X106.942 Y121.863 E12.61189
G1 X105.551 Y123.441 E12.68185
G1 X104.097 Y124.964 E12.75189
G1 X102.729 Y126.293 E12.81532
G1 X102.435 Y126.557 E12.82846
G1 X101.928 Y126.977 E12.85036
G1 X101.441 Y127.333 E12.87043
G1 X100.887 Y127.689 E12.89233
G1 X100.375 Y127.978 E12.91188
G1 X99.78 Y128.268 E12.9339
G1 X99.204 Y128.505 E12.95461
G1 X98.583 Y128.717 E12.97644
G1 X98.025 Y128.872 E12.9957
G1 X97.378 Y129.012 E13.01772
G1 X96.777 Y129.104 E13.03794
G1 X96.122 Y129.164 E13.05982
G1 X95.529 Y129.183 E13.07955
G1 X94.871 Y129.165 E13.10144
G1 X94.274 Y129.113 E13.12137
G1 X93.62 Y129.016 E13.14337
G1 X93.034 Y128.893 E13.16328
G1 X92.402 Y128.72 E13.18507
G1 X91.821 Y128.521 E13.2055
G1 X91.208 Y128.269 E13.22754
G1 X90.683 Y128.017 E13.24691
G1 X90.11 Y127.699 E13.26871
G1 X89.601 Y127.375 E13.28878
G1 X89.066 Y126.987 E13.31076
G1 X88.6 Y126.605 E13.3308
G1 X88.116 Y126.156 E13.35276
G1 X87.711 Y125.733 E13.37224
G1 X87.285 Y125.233 E13.39408
G1 X86.917 Y124.743 E13.41447
G1 X86.553 Y124.191 E13.43646
G1 X86.252 Y123.668 E13.45653
G1 X85.958 Y123.078 E13.47845
G1 X85.728 Y122.54 E13.49791
G1 X85.505 Y121.92 E13.51983
G1 X85.334 Y121.335 E13.5401
G1 X85.188 Y120.692 E13.56203
G1 X85.091 Y120.103 E13.58188
G1 X85.023 Y119.45 E13.60372
G1 X84.997 Y118.856 E13.6235
G1 X85.007 Y118.197 E13.64542
G1 X85.052 Y117.6 E13.66533
G1 X85.141 Y116.945 E13.68731
G1 X85.259 Y116.348 E13.70756
G1 X85.426 Y115.712 E13.72943
G1 X85.612 Y115.145 E13.74927
G1 X85.855 Y114.53 E13.77127
G1 X85.972 Y114.258 E13.78111
G1 X89.72 Y106.2 E14.0767
G1 X89.927 Y105.701 E14.09467
G1 X90.061 Y105.274 E14.10955
G1 X90.154 Y104.854 E14.12386
G1 X90.212 Y104.416 E14.13855
G1 X90.235 Y103.884 E14.15626
G1 X90.235 Y101.598 E14.2323
G1 X90.275 Y100.967 E14.25333
G1 X90.394 Y100.346 E14.27436
G1 X90.591 Y99.746 E14.29536
G1 X90.902 Y99.102 E14.31915
G1 X94.23 Y93.325 E14.54089
G1 X94.58 Y92.798 E14.56194
G1 X94.993 Y92.32 E14.58295
G0 F6000 X95.314 Y92.565
G1 F1200 X95.77 Y92.166 E14.6031
G1 X96.275 Y91.83 E14.62327
G1 X96.82 Y91.564 E14.64344
G1 X97.395 Y91.372 E14.66361
G1 X97.99 Y91.257 E14.68376
G1 X98.595 Y91.221 E14.70392
G1 X98.931 Y91.236 E14.71511
G1 X103.352 Y91.591 E14.86262
G1 X108.48 Y92.034 E15.03382
G1 X113.603 Y92.506 E15.20493
G1 X118.724 Y93.009 E15.37608
G1 X123.803 Y93.539 E15.54592
G1 X130.286 Y94.252 E15.76285
G1 X130.883 Y94.357 E15.78301
G1 X131.622 Y94.607 E15.80895
G1 X131.755 Y94.665 E15.81378
G1 X132.293 Y94.944 E15.83394
G1 X132.791 Y95.291 E15.85413
G1 X133.238 Y95.7 E15.87428
G1 X133.628 Y96.165 E15.89446
G1 X133.81 Y96.433 E15.90524
G1 X133.888 Y96.557 E15.91011
G1 X134.176 Y97.09 E15.93026
G1 X134.392 Y97.657 E15.95044
G1 X134.531 Y98.247 E15.9706
G1 X134.591 Y98.85 E15.99076
G1 X134.59 Y99.191 E16.0021
G1 X134.584 Y99.34 E16.00706
G1 X134.52 Y99.943 E16.02723
G1 X134.377 Y100.532 E16.04739
G1 X134.158 Y101.097 E16.06754
G1 X133.866 Y101.629 E16.08772
G1 X133.661 Y101.925 E16.0997
G1 X133.572 Y102.043 E16.10462
G1 X133.175 Y102.502 E16.1248
G1 X132.722 Y102.905 E16.14497
G1 X132.22 Y103.244 E16.16511
G1 X131.658 Y103.523 E16.18598
G1 X131.542 Y103.571 E16.19016
G1 X130.968 Y103.766 E16.21032
G1 X130.286 Y103.893 E16.23339
G1 X123.781 Y104.608 E16.45105
G1 X118.662 Y105.141 E16.62223
G1 X116.026 Y105.402 E16.71034
G1 X115.268 Y107.371 E16.78051
G1 X114.442 Y109.287 E16.84991
G1 X113.54 Y111.173 E16.91944
G1 X112.563 Y113.021 E16.98897
G1 X111.518 Y114.823 E17.05825
G1 X110.4 Y116.589 E17.12777
G1 X109.214 Y118.308 E17.19723
G1 X107.96 Y119.979 E17.26672
G1 X106.642 Y121.599 E17.33618
G1 X105.261 Y123.166 E17.40565
G1 X103.818 Y124.677 E17.47514
G1 X102.45 Y126.006 E17.53858
G1 X102.18 Y126.249 E17.55066
G1 X101.673 Y126.669 E17.57255
G1 X101.225 Y126.997 E17.59102
G1 X100.671 Y127.353 E17.61292
G1 X100.199 Y127.618 E17.63093
G1 X99.604 Y127.908 E17.65294
G1 X99.075 Y128.126 E17.67197
G1 X98.454 Y128.338 E17.6938
G1 X97.941 Y128.481 E17.71151
G1 X97.294 Y128.621 E17.73353
G1 X96.741 Y128.706 E17.75214
G1 X96.086 Y128.766 E17.77401
G1 X95.54 Y128.783 E17.79218
G1 X94.882 Y128.765 E17.81408
G1 X94.333 Y128.717 E17.83241
G1 X93.679 Y128.62 E17.8544
G1 X93.14 Y128.507 E17.87271
G1 X92.508 Y128.334 E17.89451
G1 X91.973 Y128.152 E17.9133
G1 X91.36 Y127.9 E17.93535
G1 X90.877 Y127.667 E17.95318
G1 X90.304 Y127.349 E17.97498
G1 X89.835 Y127.051 E17.99346
G1 X89.3 Y126.663 E18.01544
G1 X88.873 Y126.311 E18.03385
G1 X88.389 Y125.862 E18.05581
G1 X88.016 Y125.473 E18.07373
G1 X87.59 Y124.973 E18.09558
G1 X87.251 Y124.522 E18.11434
G1 X86.887 Y123.97 E18.13634
G1 X86.61 Y123.49 E18.15477
G1 X86.316 Y122.9 E18.17669
G1 X86.104 Y122.405 E18.1946
G1 X85.881 Y121.785 E18.21652
G1 X85.724 Y121.247 E18.23516
G1 X85.578 Y120.604 E18.25709
G1 X85.489 Y120.061 E18.27539
G1 X85.421 Y119.408 E18.29723
G1 X85.397 Y118.862 E18.3154
G1 X85.407 Y118.203 E18.33732
G1 X85.448 Y117.654 E18.35564
G1 X85.537 Y116.999 E18.37762
G1 X85.646 Y116.45 E18.39624
G1 X85.813 Y115.814 E18.41811
G1 X85.984 Y115.292 E18.43638
G1 X86.227 Y114.677 E18.45837
G1 X86.334 Y114.427 E18.46742
G1 X90.086 Y106.362 E18.76327
G1 X90.306 Y105.831 E18.78238
G1 X90.446 Y105.383 E18.79799
G1 X90.55 Y104.913 E18.814
G1 X90.609 Y104.464 E18.82907
G1 X90.635 Y103.878 E18.84858
G1 X90.635 Y101.598 E18.92441
G1 X90.675 Y100.993 E18.94458
G1 X90.794 Y100.399 E18.96472
G1 X90.99 Y99.825 E18.9849
G1 X91.249 Y99.302 E19.00431
G1 X94.577 Y93.525 E19.22606
G1 X94.914 Y93.021 E19.24622
G1 X95.314 Y92.565 E19.2664
G0 F6000 X95.633 Y92.812
G1 F1200 X96.075 Y92.437 E19.28567
G1 X96.564 Y92.127 E19.30493
G1 X97.092 Y91.887 E19.32422
G1 X97.647 Y91.722 E19.34348
G1 X98.22 Y91.635 E19.36276
G1 X98.899 Y91.634 E19.38534
G1 X103.32 Y91.989 E19.53286
G1 X108.446 Y92.433 E19.70399
G1 X113.567 Y92.905 E19.87503
G1 X118.685 Y93.407 E20.04608
G1 X123.762 Y93.937 E20.21586
G1 X130.242 Y94.649 E20.43268
G1 X130.812 Y94.752 E20.45194
G1 X131.462 Y94.974 E20.47479
G1 X131.595 Y95.032 E20.47961
G1 X132.109 Y95.3 E20.49889
G1 X132.581 Y95.636 E20.51816
G1 X133.002 Y96.033 E20.53741
G1 X133.471 Y96.646 E20.56308
G1 X133.549 Y96.77 E20.56795
