;FLAVOR:Marlin
;TIME:4112
;Filament used: 1.56887m
;Layer height: 0.13
;MINX:51.83
;MINY:73.001
;MINZ:0.2
;MAXX:182.352
;MAXY:146.997
;MAXZ:11.9
;Generated with Cura_SteamEngine 4.6.1
M140 S60
M105
M190 S60
M104 S205
M105
M109 S205
M82 ;absolute extrusion mode
; Ender 3 Custom Start G-code
G92 E0 ; Reset Extruder
G28 ; Home all axes
G1 Z2.0 F3000 ; Move Z Axis up little to prevent scratching of Heat Bed
G1 X0.1 Y20 Z0.3 F5000.0 ; Move to start position
G1 X0.1 Y200.0 Z0.3 F1500.0 E15 ; Draw the first line
G1 X0.4 Y200.0 Z0.3 F5000.0 ; Move to side a little
G1 X0.4 Y20 Z0.3 F1500.0 E30 ; Draw the second line
G92 E0 ; Reset Extruder
G1 Z2.0 F3000 ; Move Z Axis up little to prevent scratching of Heat Bed
G1 X5 Y20 Z0.3 F5000.0 ; Move over to prevent blob squish
G92 E0
G92 E0
G1 F1500 E-6
;LAYER_COUNT:91
;LAYER:0
M107
;MESH:Servo_holder_Wing.stl(1)
G0 F6000 X57.777 Y76.689 Z0.2
;TYPE:WALL-OUTER
G1 F1500 E0
G1 F1200 X58.62 Y76.05 E0.03518
G1 X59.522 Y75.458 E0.07107
G1 X60.438 Y74.944 E0.106
G1 X61.412 Y74.481 E0.14187
G1 X62.391 Y74.095 E0.17687
G1 X63.419 Y73.768 E0.21275
G1 X64.441 Y73.519 E0.24774
G1 X65.494 Y73.337 E0.28328
G1 X66.554 Y73.229 E0.31872
G1 X67.627 Y73.192 E0.35443
G1 X95.513 Y73.192 E1.28192
G1 X96.585 Y73.229 E1.3176
G1 X97.645 Y73.337 E1.35304
G1 X98.698 Y73.519 E1.38858
G1 X99.72 Y73.768 E1.42356
G1 X100.749 Y74.095 E1.45948
G1 X101.727 Y74.481 E1.49445
G1 X102.701 Y74.944 E1.53031
G1 X103.617 Y75.458 E1.56525
G1 X104.519 Y76.05 E1.60113
G1 X105.362 Y76.689 E1.63632
G1 X106.171 Y77.395 E1.67203
G1 X106.914 Y78.138 E1.70698
G1 X107.623 Y78.951 E1.74286
G1 X108.259 Y79.789 E1.77785
G1 X108.85 Y80.691 E1.81371
G1 X109.365 Y81.607 E1.84867
G1 X109.828 Y82.581 E1.88454
G1 X110.214 Y83.559 E1.91951
G1 X110.54 Y84.587 E1.95538
G1 X110.789 Y85.609 E1.99036
G1 X110.97 Y86.659 E2.0258
G1 X111.08 Y87.718 E2.06121
G1 X111.117 Y88.789 E2.09685
G1 X111.117 Y118.582 E3.08777
G1 X111.081 Y119.637 E3.12288
G1 X110.975 Y120.681 E3.15779
G1 X110.802 Y121.703 E3.19226
G1 X110.557 Y122.729 E3.22735
G1 X110.248 Y123.72 E3.26187
G1 X109.866 Y124.708 E3.2971
G1 X109.43 Y125.645 E3.33148
G1 X108.918 Y126.573 E3.36673
G1 X108.359 Y127.444 E3.40115
G1 X107.73 Y128.293 E3.43629
G1 X107.05 Y129.092 E3.47119
G1 X106.329 Y129.833 E3.50558
G1 X105.54 Y130.542 E3.54086
G1 X89.667 Y143.861 E4.23003
G1 X88.901 Y144.455 E4.26227
G1 X88.08 Y144.996 E4.29497
G1 X87.223 Y145.468 E4.32751
G1 X86.332 Y145.873 E4.36007
G1 X85.423 Y146.204 E4.39224
G1 X84.467 Y146.47 E4.42525
G1 X83.524 Y146.655 E4.45721
G1 X82.544 Y146.77 E4.49003
G1 X81.57 Y146.808 E4.52245
G1 X80.595 Y146.77 E4.5549
G1 X79.615 Y146.655 E4.58772
G1 X78.672 Y146.47 E4.61968
G1 X77.716 Y146.204 E4.65269
G1 X76.807 Y145.873 E4.68486
G1 X75.916 Y145.468 E4.71741
G1 X75.059 Y144.996 E4.74996
G1 X74.238 Y144.455 E4.78266
G1 X73.472 Y143.861 E4.8149
G1 X57.599 Y130.542 E5.50407
G1 X56.81 Y129.833 E5.53935
G1 X56.089 Y129.092 E5.57374
G1 X55.409 Y128.293 E5.60864
G1 X54.78 Y127.444 E5.64378
G1 X54.221 Y126.573 E5.6782
G1 X53.709 Y125.645 E5.71345
G1 X53.273 Y124.708 E5.74783
G1 X52.891 Y123.72 E5.78306
G1 X52.582 Y122.729 E5.81758
G1 X52.337 Y121.703 E5.85267
G1 X52.164 Y120.681 E5.88714
G1 X52.058 Y119.637 E5.92205
G1 X52.022 Y118.589 E5.95692
G1 X52.022 Y88.796 E6.94784
G1 X52.059 Y87.718 E6.98372
G1 X52.169 Y86.659 E7.01913
G1 X52.35 Y85.609 E7.05457
G1 X52.599 Y84.587 E7.08955
G1 X52.925 Y83.559 E7.12542
G1 X53.311 Y82.581 E7.16039
G1 X53.774 Y81.607 E7.19626
G1 X54.289 Y80.691 E7.23121
G1 X54.881 Y79.789 E7.2671
G1 X55.517 Y78.951 E7.30209
G1 X56.217 Y78.148 E7.33752
G1 X56.979 Y77.385 E7.37339
G1 X57.777 Y76.689 E7.40861
G0 F6000 X58.054 Y77.03
G1 F1500 E1.40861
G0 F6000 X58.09 Y77.079
G0 X58.592 Y78.487
G0 X58.769 Y78.954
G1 F1500 E7.40861
G1 F1200 X58.513 Y79.052 E7.41772
G1 X58.282 Y79.197 E7.42679
G1 X58.083 Y79.384 E7.43588
G1 X57.924 Y79.608 E7.44501
G1 X57.812 Y79.857 E7.45409
G1 X57.75 Y80.123 E7.46318
G1 X57.739 Y80.396 E7.47227
G1 X57.784 Y80.669 E7.48147
G1 X57.882 Y80.925 E7.49058
G1 X58.027 Y81.157 E7.49968
G1 X58.215 Y81.356 E7.50879
G1 X58.438 Y81.514 E7.51788
G1 X58.687 Y81.626 E7.52696
G1 X58.954 Y81.688 E7.53608
G1 X59.228 Y81.699 E7.5452
G1 X59.498 Y81.654 E7.5543
G1 X59.756 Y81.556 E7.56348
G1 X59.987 Y81.411 E7.57255
G1 X60.186 Y81.224 E7.58164
G1 X60.345 Y81 E7.59077
G1 X60.457 Y80.751 E7.59985
G1 X60.519 Y80.485 E7.60894
G1 X60.53 Y80.21 E7.61809
G1 X60.484 Y79.939 E7.62723
G1 X60.386 Y79.683 E7.63635
G1 X60.241 Y79.452 E7.64542
G1 X60.054 Y79.252 E7.65453
G1 X59.83 Y79.093 E7.66366
G1 X59.581 Y78.98 E7.67276
G1 X59.314 Y78.92 E7.68186
G1 X59.042 Y78.909 E7.69092
G1 X58.769 Y78.954 E7.70012
G0 F6000 X58.664 Y78.566
;TYPE:WALL-INNER
G1 F1200 X58.333 Y78.692 E7.7119
G1 X58.036 Y78.879 E7.72357
G1 X57.78 Y79.12 E7.73527
G1 X57.575 Y79.408 E7.74702
G1 X57.431 Y79.728 E7.75869
G1 X57.352 Y80.069 E7.77034
G1 X57.338 Y80.421 E7.78205
G1 X57.396 Y80.774 E7.79395
G1 X57.522 Y81.104 E7.8057
G1 X57.709 Y81.403 E7.81743
G1 X57.951 Y81.659 E7.82915
G1 X58.238 Y81.863 E7.84086
G1 X58.559 Y82.007 E7.85256
G1 X58.9 Y82.086 E7.8642
G1 X59.253 Y82.1 E7.87595
G1 X59.603 Y82.042 E7.88775
G1 X59.935 Y81.916 E7.89956
G1 X60.233 Y81.729 E7.91126
G1 X60.489 Y81.488 E7.92296
G1 X60.694 Y81.2 E7.93472
G1 X60.838 Y80.88 E7.94639
G1 X60.917 Y80.539 E7.95803
G1 X60.931 Y80.184 E7.96985
G1 X60.872 Y79.833 E7.98168
G1 X60.746 Y79.503 E7.99343
G1 X60.559 Y79.207 E8.00508
G1 X60.319 Y78.949 E8.0168
G1 X60.03 Y78.745 E8.02856
G1 X59.709 Y78.599 E8.04029
G1 X59.366 Y78.522 E8.05198
G1 X59.017 Y78.508 E8.0636
G1 X58.664 Y78.566 E8.0755
G1 F1500 E2.0755
G0 F6000 X58.638 Y78.47
G0 X58.012 Y78.848
G0 X57.541 Y79.389
G0 X57.313 Y80.064
G0 X57.338 Y80.472
G0 X62.404 Y112.442
G0 X62.519 Y112.928
;TYPE:WALL-OUTER
G1 F1500 E8.0755
G1 F1200 X62.03 Y113.045 E8.09222
G1 X61.567 Y113.237 E8.10889
G1 X61.138 Y113.5 E8.12563
G1 X60.756 Y113.826 E8.14233
G1 X60.43 Y114.208 E8.15904
G1 X60.168 Y114.636 E8.17573
G1 X59.975 Y115.1 E8.19244
G1 X59.858 Y115.589 E8.20916
G1 X59.82 Y116.081 E8.22558
G1 X59.82 Y118.597 E8.30926
G1 X59.858 Y119.089 E8.32567
G1 X59.975 Y119.578 E8.3424
G1 X60.168 Y120.042 E8.35911
G1 X60.43 Y120.471 E8.37583
G1 X60.756 Y120.852 E8.39251
G1 X61.138 Y121.178 E8.40921
G1 X61.567 Y121.441 E8.42595
G1 X62.03 Y121.633 E8.44262
G1 X62.519 Y121.75 E8.45934
G1 X63.012 Y121.789 E8.47579
G1 X100.128 Y121.789 E9.71027
G1 X100.62 Y121.75 E9.72669
G1 X101.109 Y121.633 E9.74341
G1 X101.573 Y121.441 E9.76011
G1 X102.001 Y121.178 E9.77682
G1 X102.383 Y120.852 E9.79352
G1 X102.709 Y120.471 E9.8102
G1 X102.972 Y120.042 E9.82694
G1 X103.164 Y119.578 E9.84364
G1 X103.281 Y119.089 E9.86036
G1 X103.32 Y118.597 E9.87678
G1 X103.32 Y116.081 E9.96046
G1 X103.281 Y115.589 E9.97688
G1 X103.164 Y115.1 E9.9936
G1 X102.972 Y114.636 E10.0103
G1 X102.709 Y114.208 E10.02701
G1 X102.383 Y113.826 E10.04371
G1 X102.001 Y113.5 E10.06042
G1 X101.573 Y113.237 E10.07712
G1 X101.109 Y113.045 E10.09383
G1 X100.62 Y112.928 E10.11055
G1 X100.128 Y112.889 E10.12696
G1 X63.012 Y112.889 E11.36145
G1 X62.519 Y112.928 E11.3779
G0 F6000 X62.456 Y112.532
;TYPE:WALL-INNER
G1 F1200 X61.906 Y112.663 E11.3967
G1 X61.385 Y112.88 E11.41547
G1 X60.902 Y113.175 E11.4343
G1 X60.472 Y113.542 E11.4531
G1 X60.105 Y113.972 E11.4719
G1 X59.811 Y114.454 E11.49068
G1 X59.593 Y114.976 E11.5095
G1 X59.462 Y115.527 E11.52833
G1 X59.42 Y116.066 E11.54631
G1 X59.42 Y118.612 E11.63099
G1 X59.462 Y119.151 E11.64898
G1 X59.593 Y119.702 E11.66781
G1 X59.811 Y120.224 E11.68663
G1 X60.105 Y120.707 E11.70543
G1 X60.472 Y121.136 E11.72421
G1 X60.902 Y121.503 E11.74301
G1 X61.385 Y121.798 E11.76184
G1 X61.906 Y122.015 E11.78061
G1 X62.456 Y122.146 E11.79942
G1 X62.996 Y122.189 E11.81743
G1 X100.144 Y122.189 E13.05298
G1 X100.683 Y122.146 E13.07096
G1 X101.233 Y122.015 E13.08977
G1 X101.755 Y121.798 E13.10857
G1 X102.237 Y121.502 E13.12738
G1 X102.667 Y121.136 E13.14617
G1 X103.033 Y120.707 E13.16492
G1 X103.33 Y120.224 E13.18378
G1 X103.546 Y119.702 E13.20257
G1 X103.677 Y119.152 E13.22137
G1 X103.72 Y118.613 E13.23936
G1 X103.72 Y116.065 E13.32411
G1 X103.677 Y115.526 E13.34209
G1 X103.546 Y114.976 E13.36089
G1 X103.329 Y114.454 E13.3797
G1 X103.033 Y113.972 E13.39851
G1 X102.667 Y113.542 E13.41729
G1 X102.237 Y113.176 E13.43607
G1 X101.755 Y112.88 E13.45488
G1 X101.233 Y112.663 E13.47369
G1 X100.683 Y112.532 E13.49249
G1 X100.144 Y112.489 E13.51048
G1 X62.996 Y112.489 E14.74602
G1 X62.456 Y112.532 E14.76404
G1 F1500 E8.76404
G0 F6000 X62.441 Y112.434
G0 X61.367 Y112.845
G0 X60.879 Y113.143
G0 X60.634 Y113.352
G0 X57.09 Y117.394
G0 X56.727 Y117.736
;TYPE:WALL-OUTER
G1 F1500 E14.76404
G1 F1200 X56.539 Y117.537 E14.77315
G1 X56.316 Y117.379 E14.78224
G1 X56.066 Y117.267 E14.79135
G1 X55.8 Y117.205 E14.80043
G1 X55.526 Y117.194 E14.80955
G1 X55.256 Y117.239 E14.81866
G1 X54.998 Y117.337 E14.82784
G1 X54.767 Y117.482 E14.83691
G1 X54.568 Y117.67 E14.84601
G1 X54.409 Y117.893 E14.85512
G1 X54.297 Y118.142 E14.8642
G1 X54.235 Y118.408 E14.87329
G1 X54.224 Y118.683 E14.88244
G1 X54.269 Y118.954 E14.89158
G1 X54.367 Y119.21 E14.90069
G1 X54.512 Y119.442 E14.90979
G1 X54.7 Y119.642 E14.91892
G1 X54.924 Y119.8 E14.92804
G1 X55.173 Y119.913 E14.93714
G1 X55.44 Y119.973 E14.94624
G1 X55.713 Y119.984 E14.95532
G1 X55.983 Y119.939 E14.96443
G1 X56.241 Y119.841 E14.97361
G1 X56.472 Y119.696 E14.98268
G1 X56.671 Y119.509 E14.99176
G1 X56.83 Y119.285 E15.0009
G1 X56.942 Y119.036 E15.00998
G1 X57.004 Y118.77 E15.01906
G1 X57.015 Y118.497 E15.02815
G1 X56.97 Y118.224 E15.03735
G1 X56.872 Y117.968 E15.04647
G1 X56.727 Y117.736 E15.05557
G0 F6000 X57.045 Y117.49
;TYPE:WALL-INNER
G1 F1200 X56.803 Y117.234 E15.06729
G1 X56.515 Y117.03 E15.07903
G1 X56.194 Y116.886 E15.09073
G1 X55.854 Y116.807 E15.10234
G1 X55.501 Y116.793 E15.11409
G1 X55.151 Y116.851 E15.12589
G1 X54.819 Y116.977 E15.1377
G1 X54.521 Y117.164 E15.1494
G1 X54.265 Y117.406 E15.16112
G1 X54.06 Y117.693 E15.17285
G1 X53.916 Y118.013 E15.18452
G1 X53.837 Y118.354 E15.19616
G1 X53.823 Y118.708 E15.20794
G1 X53.881 Y119.059 E15.21978
G1 X54.007 Y119.389 E15.23152
G1 X54.194 Y119.687 E15.24323
G1 X54.436 Y119.946 E15.25502
G1 X54.724 Y120.149 E15.26673
G1 X55.045 Y120.294 E15.27845
G1 X55.388 Y120.371 E15.29014
G1 X55.738 Y120.385 E15.30179
G1 X56.088 Y120.327 E15.31359
G1 X56.42 Y120.201 E15.3254
G1 X56.718 Y120.014 E15.3371
G1 X56.974 Y119.773 E15.3488
G1 X57.179 Y119.485 E15.36056
G1 X57.323 Y119.165 E15.37223
G1 X57.402 Y118.824 E15.38387
G1 X57.416 Y118.472 E15.39559
G1 X57.358 Y118.119 E15.40748
G1 X57.232 Y117.789 E15.41923
G1 X57.045 Y117.49 E15.43096
G1 F1500 E9.43096
G0 F6000 X57.124 Y117.429
G0 X59.813 Y120.453
G0 X80.112 Y142.001
G0 X80.518 Y142.291
;TYPE:WALL-OUTER
G1 F1500 E15.43096
G1 F1200 X80.359 Y142.515 E15.4401
G1 X80.247 Y142.764 E15.44918
G1 X80.185 Y143.03 E15.45826
G1 X80.174 Y143.303 E15.46735
G1 X80.219 Y143.576 E15.47655
G1 X80.317 Y143.832 E15.48567
G1 X80.462 Y144.064 E15.49477
G1 X80.65 Y144.263 E15.50388
G1 X80.874 Y144.421 E15.51299
G1 X81.123 Y144.533 E15.52207
G1 X81.389 Y144.595 E15.53116
G1 X81.663 Y144.606 E15.54028
G1 X81.933 Y144.561 E15.54938
G1 X82.191 Y144.463 E15.55856
G1 X82.422 Y144.318 E15.56763
G1 X82.621 Y144.13 E15.57674
G1 X82.78 Y143.907 E15.58585
G1 X82.892 Y143.658 E15.59493
G1 X82.954 Y143.392 E15.60401
G1 X82.965 Y143.117 E15.61317
G1 X82.92 Y142.846 E15.62231
G1 X82.822 Y142.59 E15.63142
G1 X82.677 Y142.358 E15.64052
G1 X82.489 Y142.159 E15.64963
G1 X82.266 Y142 E15.65874
G1 X82.016 Y141.887 E15.66786
G1 X81.749 Y141.827 E15.67696
G1 X81.476 Y141.816 E15.68605
G1 X81.206 Y141.861 E15.69515
G1 X80.948 Y141.959 E15.70433
G1 X80.717 Y142.104 E15.71341
G1 X80.518 Y142.291 E15.72249
G0 F6000 X80.215 Y142.027
;TYPE:WALL-INNER
G1 F1200 X80.01 Y142.315 E15.73425
G1 X79.866 Y142.635 E15.74592
G1 X79.787 Y142.976 E15.75756
G1 X79.773 Y143.328 E15.76928
G1 X79.831 Y143.681 E15.78117
G1 X79.957 Y144.011 E15.79292
G1 X80.144 Y144.31 E15.80465
G1 X80.387 Y144.567 E15.81642
G1 X80.675 Y144.77 E15.82814
G1 X80.994 Y144.914 E15.83978
G1 X81.335 Y144.993 E15.85142
G1 X81.688 Y145.007 E15.86317
G1 X82.038 Y144.949 E15.87497
G1 X82.37 Y144.823 E15.88678
G1 X82.668 Y144.636 E15.89848
G1 X82.924 Y144.394 E15.9102
G1 X83.129 Y144.107 E15.92193
G1 X83.273 Y143.787 E15.9336
G1 X83.352 Y143.446 E15.94524
G1 X83.366 Y143.092 E15.95702
G1 X83.308 Y142.741 E15.96886
G1 X83.182 Y142.411 E15.98061
G1 X82.995 Y142.112 E15.99234
G1 X82.753 Y141.856 E16.00405
G1 X82.466 Y141.652 E16.01576
G1 X82.144 Y141.506 E16.02752
G1 X81.801 Y141.429 E16.03922
G1 X81.451 Y141.415 E16.05087
G1 X81.101 Y141.473 E16.06267
G1 X80.769 Y141.599 E16.07448
G1 X80.471 Y141.786 E16.08618
G1 X80.215 Y142.027 E16.09787
G1 F1500 E10.09787
G0 F6000 X80.14 Y141.962
G0 X106.047 Y119.782
G0 X106.412 Y119.442
;TYPE:WALL-OUTER
G1 F1500 E16.09787
G1 F1200 X106.6 Y119.642 E16.107
G1 X106.824 Y119.8 E16.11612
G1 X107.073 Y119.913 E16.12521
G1 X107.34 Y119.973 E16.13431
G1 X107.613 Y119.984 E16.1434
G1 X107.883 Y119.939 E16.15251
G1 X108.141 Y119.841 E16.16169
G1 X108.372 Y119.696 E16.17076
G1 X108.571 Y119.509 E16.17984
G1 X108.73 Y119.285 E16.18898
G1 X108.842 Y119.036 E16.19806
G1 X108.904 Y118.77 E16.20714
G1 X108.915 Y118.497 E16.21623
G1 X108.87 Y118.224 E16.22543
G1 X108.772 Y117.968 E16.23455
G1 X108.627 Y117.736 E16.24365
G1 X108.439 Y117.537 E16.25275
G1 X108.216 Y117.379 E16.26184
G1 X107.966 Y117.267 E16.27095
G1 X107.7 Y117.205 E16.28004
G1 X107.426 Y117.194 E16.28916
G1 X107.156 Y117.239 E16.29826
G1 X106.898 Y117.337 E16.30744
G1 X106.667 Y117.482 E16.31651
G1 X106.468 Y117.67 E16.32562
G1 X106.309 Y117.893 E16.33473
G1 X106.197 Y118.142 E16.34381
G1 X106.135 Y118.408 E16.35289
G1 X106.124 Y118.683 E16.36205
G1 X106.169 Y118.954 E16.37118
G1 X106.267 Y119.21 E16.3803
G1 X106.412 Y119.442 E16.3894
G0 F6000 X106.094 Y119.687
;TYPE:WALL-INNER
G1 F1200 X106.336 Y119.946 E16.40119
G1 X106.624 Y120.149 E16.41291
G1 X106.945 Y120.294 E16.42463
G1 X107.288 Y120.371 E16.43632
G1 X107.638 Y120.385 E16.44797
G1 X107.988 Y120.327 E16.45977
G1 X108.32 Y120.201 E16.47158
G1 X108.618 Y120.014 E16.48328
G1 X108.874 Y119.773 E16.49497
G1 X109.079 Y119.485 E16.50673
G1 X109.223 Y119.165 E16.5184
G1 X109.302 Y118.824 E16.53005
G1 X109.316 Y118.472 E16.54176
G1 X109.258 Y118.119 E16.55366
G1 X109.132 Y117.789 E16.56541
G1 X108.945 Y117.49 E16.57714
G1 X108.703 Y117.234 E16.58886
G1 X108.415 Y117.03 E16.60059
G1 X108.094 Y116.886 E16.6123
G1 X107.754 Y116.807 E16.62391
G1 X107.401 Y116.793 E16.63566
G1 X107.051 Y116.851 E16.64745
G1 X106.719 Y116.977 E16.65927
G1 X106.421 Y117.164 E16.67097
G1 X106.165 Y117.406 E16.68268
G1 X105.96 Y117.693 E16.69441
G1 X105.816 Y118.013 E16.70609
G1 X105.737 Y118.354 E16.71773
G1 X105.723 Y118.708 E16.72951
G1 X105.781 Y119.059 E16.74134
G1 X105.907 Y119.389 E16.75309
G1 X106.094 Y119.687 E16.76479
G1 F1500 E10.76479
G0 F6000 X106.015 Y119.747
G0 X105.743 Y119.069
G0 X105.718 Y118.661
G0 X104.078 Y82.198
G0 X104.097 Y81.699
;TYPE:WALL-OUTER
G1 F1500 E16.76479
G1 F1200 X104.37 Y81.654 E16.774
G1 X104.626 Y81.556 E16.78311
G1 X104.858 Y81.411 E16.79221
G1 X105.057 Y81.224 E16.8013
G1 X105.215 Y81 E16.81041
G1 X105.327 Y80.751 E16.81949
G1 X105.389 Y80.485 E16.82858
G1 X105.4 Y80.21 E16.83773
G1 X105.355 Y79.939 E16.84687
G1 X105.257 Y79.683 E16.85599
G1 X105.112 Y79.451 E16.86509
G1 X104.924 Y79.252 E16.87419
G1 X104.701 Y79.093 E16.8833
G1 X104.452 Y78.98 E16.89239
G1 X104.185 Y78.92 E16.9015
G1 X103.911 Y78.909 E16.91062
