;FLAVOR:Marlin
;TIME:1574
;Filament used: 0.513316m
;Layer height: 0.13
;MINX:86.7
;MINY:87.221
;MINZ:0.2
;MAXX:119.3
;MAXY:132.779
;MAXZ:9.43
;Generated with Cura_SteamEngine 4.6.1
M140 S60
M105
M190 S60
M104 S205
M105
M109 S205
M82 ;absolute extrusion mode
; Ender 3 Custom Start G-code
G92 E0 ; Reset Extruder
G28 ; Home all axes
G1 Z2.0 F3000 ; Move Z Axis up little to prevent scratching of Heat Bed
G1 X0.1 Y20 Z0.3 F5000.0 ; Move to start position
G1 X0.1 Y200.0 Z0.3 F1500.0 E15 ; Draw the first line
G1 X0.4 Y200.0 Z0.3 F5000.0 ; Move to side a little
G1 X0.4 Y20 Z0.3 F1500.0 E30 ; Draw the second line
G92 E0 ; Reset Extruder
G1 Z2.0 F3000 ; Move Z Axis up little to prevent scratching of Heat Bed
G1 X5 Y20 Z0.3 F5000.0 ; Move over to prevent blob squish
G92 E0
G92 E0
G1 F1500 E-6
;LAYER_COUNT:72
;LAYER:0
M107
G0 F6000 X87.657 Y88.499 Z0.2
;TYPE:SKIRT
G1 F1500 E0
G1 F1200 X88.052 Y88.115 E0.01832
G1 X88.498 Y87.791 E0.03666
G1 X88.986 Y87.536 E0.05497
G1 X89.506 Y87.353 E0.07331
G1 X90.047 Y87.248 E0.09164
G1 X90.5 Y87.221 E0.10673
G1 X98.499 Y87.222 E0.37278
G1 X98.805 Y87.234 E0.38296
G1 X99.25 Y87.27 E0.39781
G1 X99.852 Y87.368 E0.4181
G1 X100.283 Y87.474 E0.43286
G1 X100.831 Y87.654 E0.45204
G1 X101.277 Y87.839 E0.4681
G1 X101.763 Y88.083 E0.48619
G1 X101.963 Y88.202 E0.49393
G1 X102.052 Y88.115 E0.49807
G1 X102.498 Y87.791 E0.51641
G1 X102.986 Y87.536 E0.53472
G1 X103.506 Y87.353 E0.55305
G1 X104.047 Y87.248 E0.57138
G1 X104.5 Y87.221 E0.58648
G1 X112.499 Y87.222 E0.85253
G1 X112.805 Y87.234 E0.86271
G1 X113.25 Y87.27 E0.87756
G1 X113.852 Y87.368 E0.89785
G1 X114.283 Y87.474 E0.91261
G1 X114.831 Y87.654 E0.93179
G1 X115.277 Y87.839 E0.94785
G1 X115.763 Y88.083 E0.96594
G1 X116.027 Y88.24 E0.97616
G1 X116.258 Y88.389 E0.9853
G1 X116.433 Y88.511 E0.99239
G1 X116.819 Y88.819 E1.00882
G1 X117.178 Y89.146 E1.02497
G1 X117.583 Y89.576 E1.04462
G1 X117.892 Y89.961 E1.06104
G1 X118.221 Y90.444 E1.08047
G1 X118.468 Y90.873 E1.09694
G1 X118.72 Y91.4 E1.11637
G1 X118.9 Y91.866 E1.13298
G1 X119.063 Y92.403 E1.15165
G1 X119.172 Y92.889 E1.16821
G1 X119.254 Y93.444 E1.18687
G1 X119.29 Y93.937 E1.20331
G1 X119.3 Y94.214 E1.21253
G1 X119.296 Y125.843 E2.26452
G1 X119.286 Y126.113 E2.2735
G1 X119.255 Y126.548 E2.28801
G1 X119.173 Y127.107 E2.3068
G1 X119.065 Y127.59 E2.32326
G1 X118.901 Y128.133 E2.34213
G1 X118.721 Y128.598 E2.35871
G1 X118.474 Y129.116 E2.3778
G1 X118.224 Y129.552 E2.39452
G1 X117.89 Y130.041 E2.41421
G1 X117.585 Y130.421 E2.43042
G1 X117.178 Y130.854 E2.45018
G1 X116.815 Y131.184 E2.4665
G1 X116.421 Y131.497 E2.48324
G1 X116.197 Y131.652 E2.4923
G1 X115.92 Y131.826 E2.50318
G1 X115.682 Y131.962 E2.51229
G1 X115.292 Y132.157 E2.5268
G1 X114.918 Y132.317 E2.54033
G1 X114.374 Y132.502 E2.55944
G1 X113.937 Y132.615 E2.57445
G1 X113.313 Y132.722 E2.59551
G1 X112.826 Y132.764 E2.61176
G1 X112.499 Y132.778 E2.62265
G1 X104.5 Y132.779 E2.8887
G1 X103.951 Y132.739 E2.90701
G1 X103.413 Y132.62 E2.92533
G1 X102.898 Y132.425 E2.94365
G1 X102.416 Y132.157 E2.96199
G1 X101.979 Y131.822 E2.98031
G1 X101.959 Y131.801 E2.98127
G1 X101.682 Y131.962 E2.99193
G1 X101.292 Y132.157 E3.00643
G1 X100.918 Y132.317 E3.01996
G1 X100.374 Y132.502 E3.03907
G1 X99.937 Y132.615 E3.05408
G1 X99.313 Y132.722 E3.07514
G1 X98.826 Y132.764 E3.0914
G1 X98.499 Y132.778 E3.10228
G1 X90.5 Y132.779 E3.36833
G1 X89.951 Y132.739 E3.38664
G1 X89.413 Y132.62 E3.40497
G1 X88.898 Y132.425 E3.42328
G1 X88.416 Y132.157 E3.44163
G1 X87.979 Y131.822 E3.45994
G1 X87.594 Y131.427 E3.47829
G1 X87.27 Y130.981 E3.49662
G1 X87.015 Y130.493 E3.51493
G1 X86.832 Y129.973 E3.53327
G1 X86.727 Y129.433 E3.55157
G1 X86.7 Y128.979 E3.56669
G1 X86.7 Y91.021 E4.82918
G1 X86.74 Y90.471 E4.84752
G1 X86.859 Y89.933 E4.86585
G1 X87.055 Y89.418 E4.88418
G1 X87.323 Y88.937 E4.90249
G1 X87.657 Y88.499 E4.92081
G0 F6000 X88.052 Y88.661
G1 F1200 X88.442 Y88.315 E4.93815
G1 X88.88 Y88.032 E4.95549
G1 X89.355 Y87.819 E4.97281
G1 X89.858 Y87.682 E4.99015
G1 X90.5 Y87.621 E5.0116
G1 X98.499 Y87.622 E5.27765
G1 X98.773 Y87.633 E5.28677
G1 X99.218 Y87.669 E5.30161
G1 X99.756 Y87.756 E5.31974
G1 X100.187 Y87.862 E5.3345
G1 X100.678 Y88.023 E5.35169
G1 X101.124 Y88.208 E5.36775
G1 X101.559 Y88.427 E5.38395
G1 X101.823 Y88.584 E5.39416
G1 X102.014 Y88.707 E5.40172
G1 X102.052 Y88.661 E5.4037
G1 X102.442 Y88.315 E5.42104
G1 X102.88 Y88.032 E5.43839
G1 X103.355 Y87.819 E5.4557
G1 X103.858 Y87.682 E5.47304
G1 X104.5 Y87.621 E5.49449
G1 X112.499 Y87.622 E5.76054
G1 X112.773 Y87.633 E5.76966
G1 X113.218 Y87.669 E5.78451
G1 X113.756 Y87.756 E5.80264
G1 X114.187 Y87.862 E5.8174
G1 X114.678 Y88.023 E5.83458
G1 X115.124 Y88.208 E5.85064
G1 X115.559 Y88.427 E5.86684
G1 X115.823 Y88.584 E5.87706
G1 X116.029 Y88.717 E5.88521
G1 X116.204 Y88.839 E5.89231
G1 X116.55 Y89.114 E5.90701
G1 X116.909 Y89.441 E5.92316
G1 X117.271 Y89.827 E5.94076
G1 X117.58 Y90.212 E5.95718
G1 X117.875 Y90.644 E5.97458
G1 X118.122 Y91.073 E5.99104
G1 X118.347 Y91.544 E6.00841
G1 X118.527 Y92.01 E6.02502
G1 X118.673 Y92.491 E6.04174
G1 X118.782 Y92.977 E6.05831
G1 X118.855 Y93.473 E6.07498
G1 X118.891 Y93.966 E6.09142
G1 X118.9 Y94.214 E6.09967
G1 X118.896 Y125.843 E7.15166
G1 X118.887 Y126.085 E7.15971
G1 X118.856 Y126.52 E7.17422
G1 X118.783 Y127.02 E7.19103
G1 X118.675 Y127.503 E7.20749
G1 X118.528 Y127.988 E7.22434
G1 X118.348 Y128.453 E7.24093
G1 X118.127 Y128.917 E7.25802
G1 X117.877 Y129.353 E7.27474
G1 X117.579 Y129.79 E7.29233
G1 X117.274 Y130.17 E7.30854
G1 X116.909 Y130.558 E7.32625
G1 X116.546 Y130.888 E7.34257
G1 X116.194 Y131.168 E7.35753
G1 X115.97 Y131.323 E7.36659
G1 X115.722 Y131.479 E7.37633
G1 X115.484 Y131.615 E7.38545
G1 X115.134 Y131.789 E7.39845
G1 X114.76 Y131.949 E7.41198
G1 X114.274 Y132.115 E7.42906
G1 X113.837 Y132.228 E7.44408
G1 X113.278 Y132.323 E7.46294
G1 X112.791 Y132.365 E7.47919
G1 X112.499 Y132.378 E7.48891
G1 X104.5 Y132.379 E7.75496
G1 X103.981 Y132.339 E7.77228
G1 X103.473 Y132.22 E7.78963
G1 X102.99 Y132.025 E7.80695
G1 X102.542 Y131.759 E7.82428
G1 X102.14 Y131.427 E7.84162
G1 X102.018 Y131.29 E7.84772
G1 X101.97 Y131.323 E7.84966
G1 X101.722 Y131.479 E7.85941
G1 X101.484 Y131.615 E7.86852
G1 X101.134 Y131.789 E7.88152
G1 X100.76 Y131.949 E7.89505
G1 X100.274 Y132.115 E7.91214
G1 X99.837 Y132.228 E7.92715
G1 X99.278 Y132.323 E7.94601
G1 X98.791 Y132.365 E7.96227
G1 X98.499 Y132.378 E7.97199
G1 X90.5 Y132.379 E8.23803
G1 X89.981 Y132.339 E8.25535
G1 X89.473 Y132.22 E8.2727
G1 X88.99 Y132.025 E8.29003
G1 X88.542 Y131.759 E8.30735
G1 X88.14 Y131.427 E8.3247
G1 X87.794 Y131.038 E8.34201
G1 X87.511 Y130.6 E8.35936
G1 X87.299 Y130.124 E8.37669
G1 X87.161 Y129.621 E8.39403
G1 X87.1 Y128.979 E8.41548
G1 X87.1 Y91.021 E9.67797
G1 X87.14 Y90.501 E9.69532
G1 X87.259 Y89.994 E9.71264
G1 X87.454 Y89.511 E9.72996
G1 X87.72 Y89.063 E9.74729
G1 X88.052 Y88.661 E9.76463
G0 F6000 X88.118 Y89.197
G1 F1200 X88.446 Y88.834 E9.78091
G1 X88.829 Y88.529 E9.79719
G1 X89.257 Y88.291 E9.81348
G1 X89.717 Y88.125 E9.82974
G1 X90.198 Y88.036 E9.84601
G1 X90.5 Y88.021 E9.85607
G1 X98.499 Y88.022 E10.12212
G1 X98.741 Y88.032 E10.13017
G1 X99.186 Y88.068 E10.14502
G1 X99.66 Y88.145 E10.161
G1 X100.091 Y88.251 E10.17576
G1 X100.524 Y88.393 E10.19091
G1 X100.97 Y88.578 E10.20697
G1 X101.354 Y88.771 E10.22127
G1 X101.618 Y88.928 E10.23148
G1 X101.801 Y89.045 E10.23871
G1 X101.976 Y89.167 E10.2458
G1 X102.083 Y89.252 E10.25035
G1 X102.118 Y89.197 E10.25252
G1 X102.446 Y88.834 E10.26879
G1 X102.829 Y88.529 E10.28507
G1 X103.257 Y88.291 E10.30136
G1 X103.717 Y88.125 E10.31763
G1 X104.198 Y88.036 E10.3339
G1 X104.5 Y88.021 E10.34395
G1 X112.499 Y88.022 E10.61
G1 X112.741 Y88.032 E10.61806
G1 X113.186 Y88.068 E10.63291
G1 X113.66 Y88.145 E10.64888
G1 X114.091 Y88.251 E10.66364
G1 X114.524 Y88.393 E10.6788
G1 X114.97 Y88.578 E10.69486
G1 X115.354 Y88.771 E10.70915
G1 X115.618 Y88.928 E10.71937
G1 X115.801 Y89.045 E10.72659
G1 X115.976 Y89.167 E10.73369
G1 X116.28 Y89.41 E10.74663
G1 X116.639 Y89.737 E10.76278
G1 X116.959 Y90.077 E10.77831
G1 X117.268 Y90.462 E10.79473
G1 X117.528 Y90.843 E10.81007
G1 X117.775 Y91.272 E10.82654
G1 X117.973 Y91.688 E10.84186
G1 X118.153 Y92.154 E10.85848
G1 X118.282 Y92.578 E10.87322
G1 X118.391 Y93.064 E10.88978
G1 X118.456 Y93.503 E10.90454
G1 X118.492 Y93.996 E10.92098
G1 X118.5 Y94.214 E10.92824
G1 X118.496 Y125.843 E11.98022
G1 X118.488 Y126.056 E11.98731
G1 X118.457 Y126.491 E12.00182
G1 X118.393 Y126.933 E12.01667
G1 X118.285 Y127.416 E12.03313
G1 X118.155 Y127.844 E12.04801
G1 X117.975 Y128.309 E12.0646
G1 X117.78 Y128.718 E12.07967
G1 X117.53 Y129.154 E12.09638
G1 X117.267 Y129.54 E12.11192
G1 X116.962 Y129.92 E12.12812
G1 X116.64 Y130.262 E12.14375
G1 X116.277 Y130.592 E12.16006
G1 X115.966 Y130.839 E12.17327
G1 X115.742 Y130.994 E12.18233
G1 X115.523 Y131.132 E12.19094
G1 X115.285 Y131.268 E12.20006
G1 X114.977 Y131.421 E12.2115
G1 X114.603 Y131.581 E12.22503
G1 X114.174 Y131.727 E12.2401
G1 X113.737 Y131.84 E12.25511
G1 X113.244 Y131.925 E12.27175
G1 X112.757 Y131.967 E12.28801
G1 X112.499 Y131.978 E12.2966
G1 X104.5 Y131.979 E12.56265
G1 X104.013 Y131.939 E12.5789
G1 X103.538 Y131.82 E12.59519
G1 X103.088 Y131.626 E12.61148
G1 X102.677 Y131.361 E12.62775
G1 X102.314 Y131.033 E12.64402
G1 X102.085 Y130.745 E12.65626
G1 X101.966 Y130.839 E12.6613
G1 X101.742 Y130.994 E12.67036
G1 X101.523 Y131.132 E12.67897
G1 X101.285 Y131.268 E12.68809
G1 X100.977 Y131.421 E12.69953
G1 X100.603 Y131.581 E12.71306
G1 X100.174 Y131.727 E12.72813
G1 X99.737 Y131.84 E12.74314
G1 X99.244 Y131.925 E12.75978
G1 X98.757 Y131.967 E12.77604
G1 X98.499 Y131.978 E12.78463
G1 X90.5 Y131.979 E13.05068
G1 X90.013 Y131.939 E13.06693
G1 X89.538 Y131.82 E13.08322
G1 X89.088 Y131.626 E13.09952
G1 X88.677 Y131.361 E13.11578
G1 X88.314 Y131.033 E13.13205
G1 X88.009 Y130.65 E13.14834
G1 X87.77 Y130.223 E13.16461
G1 X87.604 Y129.762 E13.18091
G1 X87.515 Y129.281 E13.19718
G1 X87.5 Y128.979 E13.20724
G1 X87.5 Y91.021 E14.46972
G1 X87.54 Y90.533 E14.48601
G1 X87.659 Y90.058 E14.5023
G1 X87.853 Y89.609 E14.51856
G1 X88.118 Y89.197 E14.53486
G0 F6000 X88.515 Y89.342
G1 F1200 X88.838 Y89.021 E14.55
G1 X89.213 Y88.762 E14.56516
G1 X89.627 Y88.572 E14.58031
G1 X90.068 Y88.457 E14.59547
G1 X90.5 Y88.421 E14.60989
G1 X98.499 Y88.422 E14.87594
G1 X98.709 Y88.43 E14.88293
G1 X99.154 Y88.466 E14.89777
G1 X99.565 Y88.533 E14.91163
G1 X99.996 Y88.639 E14.92639
G1 X100.371 Y88.762 E14.93951
G1 X100.817 Y88.947 E14.95557
G1 X101.15 Y89.114 E14.96796
G1 X101.414 Y89.271 E14.97818
G1 X101.572 Y89.373 E14.98443
G1 X101.747 Y89.495 E14.99153
G1 X102.011 Y89.706 E15.00277
G1 X102.183 Y89.862 E15.01049
G1 X102.252 Y89.715 E15.01589
G1 X102.515 Y89.342 E15.03107
G1 X102.838 Y89.021 E15.04622
G1 X103.213 Y88.762 E15.06138
G1 X103.627 Y88.572 E15.07653
G1 X104.068 Y88.457 E15.09169
G1 X104.5 Y88.421 E15.10611
G1 X112.499 Y88.422 E15.37215
G1 X112.709 Y88.43 E15.37914
G1 X113.154 Y88.466 E15.39399
G1 X113.565 Y88.533 E15.40784
G1 X113.996 Y88.639 E15.42261
G1 X114.371 Y88.762 E15.43573
G1 X114.817 Y88.947 E15.45179
G1 X115.15 Y89.114 E15.46418
G1 X115.414 Y89.271 E15.4744
G1 X115.572 Y89.373 E15.48065
G1 X115.747 Y89.495 E15.48775
G1 X116.011 Y89.706 E15.49899
G1 X116.37 Y90.033 E15.51514
G1 X116.647 Y90.328 E15.5286
G1 X116.956 Y90.713 E15.54502
G1 X117.181 Y91.043 E15.5583
G1 X117.428 Y91.472 E15.57477
G1 X117.6 Y91.832 E15.58804
G1 X117.78 Y92.298 E15.60465
G1 X117.892 Y92.666 E15.61745
G1 X118.001 Y93.152 E15.63401
G1 X118.057 Y93.532 E15.64679
G1 X118.093 Y94.025 E15.66323
G1 X118.1 Y94.214 E15.66952
G1 X118.096 Y125.843 E16.7215
G1 X118.089 Y126.028 E16.72766
G1 X118.058 Y126.463 E16.74217
G1 X118.002 Y126.845 E16.75501
G1 X117.894 Y127.328 E16.77147
G1 X117.782 Y127.7 E16.78439
G1 X117.602 Y128.165 E16.80097
G1 X117.433 Y128.519 E16.81402
G1 X117.183 Y128.955 E16.83074
G1 X116.955 Y129.289 E16.84419
G1 X116.65 Y129.669 E16.86039
G1 X116.371 Y129.966 E16.87395
G1 X116.008 Y130.296 E16.89026
G1 X115.738 Y130.51 E16.90172
G1 X115.514 Y130.665 E16.91078
G1 X115.325 Y130.784 E16.91821
G1 X115.087 Y130.92 E16.92733
G1 X114.82 Y131.053 E16.93725
G1 X114.446 Y131.213 E16.95078
G1 X114.074 Y131.34 E16.96385
G1 X113.637 Y131.453 E16.97887
G1 X113.209 Y131.526 E16.99331
G1 X112.722 Y131.568 E17.00957
G1 X112.499 Y131.578 E17.01699
G1 X104.5 Y131.579 E17.28304
G1 X104.046 Y131.539 E17.2982
G1 X103.606 Y131.421 E17.31335
G1 X103.194 Y131.227 E17.32849
G1 X102.822 Y130.965 E17.34363
G1 X102.501 Y130.641 E17.3588
G1 X102.241 Y130.267 E17.37395
G1 X102.182 Y130.138 E17.37867
G1 X102.008 Y130.296 E17.38648
G1 X101.738 Y130.51 E17.39794
G1 X101.514 Y130.665 E17.407
G1 X101.325 Y130.784 E17.41443
G1 X101.087 Y130.92 E17.42355
G1 X100.82 Y131.053 E17.43347
G1 X100.446 Y131.213 E17.447
G1 X100.074 Y131.34 E17.46007
G1 X99.637 Y131.453 E17.47508
G1 X99.209 Y131.526 E17.48953
G1 X98.722 Y131.568 E17.50578
G1 X98.499 Y131.578 E17.51321
G1 X90.5 Y131.579 E17.77926
G1 X90.046 Y131.539 E17.79441
G1 X89.606 Y131.421 E17.80957
G1 X89.194 Y131.227 E17.82471
G1 X88.822 Y130.965 E17.83985
G1 X88.501 Y130.641 E17.85502
G1 X88.241 Y130.267 E17.87017
G1 X88.051 Y129.853 E17.88532
G1 X87.936 Y129.412 E17.90047
G1 X87.9 Y128.979 E17.91493
G1 X87.9 Y91.021 E19.17741
G1 X87.94 Y90.567 E19.19257
G1 X88.058 Y90.127 E19.20772
G1 X88.252 Y89.715 E19.22287
G1 X88.515 Y89.342 E19.23805
G0 F6000 X88.91 Y89.501
G1 F1200 X89.227 Y89.227 E19.25199
G1 X89.59 Y89.018 E19.26592
G1 X89.987 Y88.882 E19.27988
G1 X90.5 Y88.821 E19.29706
G1 X98.499 Y88.822 E19.56311
G1 X98.676 Y88.829 E19.569
G1 X99.121 Y88.865 E19.58385
G1 X99.469 Y88.922 E19.59558
G1 X99.9 Y89.028 E19.61034
G1 X100.218 Y89.132 E19.62147
G1 X100.664 Y89.317 E19.63752
G1 X100.946 Y89.458 E19.64801
G1 X101.21 Y89.615 E19.65823
G1 X101.343 Y89.701 E19.6635
G1 X101.518 Y89.823 E19.67059
G1 X101.741 Y90.002 E19.6801
G1 X102.1 Y90.329 E19.69625
G1 X102.335 Y90.578 E19.70764
G1 X102.458 Y90.202 E19.7208
G1 X102.651 Y89.83 E19.73474
G1 X102.91 Y89.501 E19.74866
G1 X103.227 Y89.227 E19.7626
G1 X103.59 Y89.018 E19.77653
G1 X103.987 Y88.882 E19.79049
G1 X104.5 Y88.821 E19.80767
G1 X112.499 Y88.822 E20.07372
G1 X112.676 Y88.829 E20.07961
G1 X113.121 Y88.865 E20.09446
G1 X113.469 Y88.922 E20.10619
G1 X113.9 Y89.028 E20.12095
G1 X114.218 Y89.132 E20.13208
G1 X114.664 Y89.317 E20.14814
G1 X114.946 Y89.458 E20.15863
G1 X115.21 Y89.615 E20.16884
G1 X115.343 Y89.701 E20.17411
G1 X115.518 Y89.823 E20.1812
G1 X115.741 Y90.002 E20.19072
G1 X116.1 Y90.329 E20.20687
G1 X116.335 Y90.578 E20.21825
G1 X116.644 Y90.963 E20.23467
G1 X116.835 Y91.242 E20.24592
G1 X117.082 Y91.671 E20.26238
G1 X117.227 Y91.976 E20.27362
G1 X117.407 Y92.442 E20.29023
G1 X117.502 Y92.754 E20.30108
G1 X117.611 Y93.24 E20.31765
G1 X117.658 Y93.561 E20.32844
G1 X117.694 Y94.054 E20.34488
G1 X117.7 Y94.214 E20.3502
G1 X117.696 Y125.843 E21.40219
G1 X117.69 Y125.999 E21.40738
G1 X117.659 Y126.434 E21.42188
G1 X117.612 Y126.758 E21.43277
G1 X117.504 Y127.241 E21.44923
G1 X117.409 Y127.555 E21.46015
G1 X117.229 Y128.02 E21.47673
G1 X117.086 Y128.32 E21.48778
G1 X116.836 Y128.756 E21.5045
G1 X116.643 Y129.039 E21.51589
G1 X116.338 Y129.419 E21.5321
G1 X116.102 Y129.67 E21.54356
G1 X115.739 Y130 E21.55987
G1 X115.511 Y130.181 E21.56956
G1 X115.287 Y130.336 E21.57862
G1 X115.127 Y130.437 E21.58491
G1 X114.889 Y130.573 E21.59403
G1 X114.662 Y130.686 E21.60246
G1 X114.288 Y130.846 E21.61599
G1 X113.974 Y130.953 E21.62702
G1 X113.537 Y131.066 E21.64204
G1 X113.175 Y131.128 E21.65425
G1 X112.688 Y131.17 E21.67051
