;FLAVOR:Marlin
;TIME:2433
;Filament used: 0.812715m
;Layer height: 0.13
;MINX:87.486
;MINY:87.486
;MINZ:0.2
;MAXX:132.514
;MAXY:132.514
;MAXZ:5.27
;Generated with Cura_SteamEngine 4.6.1
M140 S60
M105
M190 S60
M104 S205
M105
M109 S205
M82 ;absolute extrusion mode
; Ender 3 Custom Start G-code
G92 E0 ; Reset Extruder
G28 ; Home all axes
G1 Z2.0 F3000 ; Move Z Axis up little to prevent scratching of Heat Bed
G1 X0.1 Y20 Z0.3 F5000.0 ; Move to start position
G1 X0.1 Y200.0 Z0.3 F1500.0 E15 ; Draw the first line
G1 X0.4 Y200.0 Z0.3 F5000.0 ; Move to side a little
G1 X0.4 Y20 Z0.3 F1500.0 E30 ; Draw the second line
G92 E0 ; Reset Extruder
G1 Z2.0 F3000 ; Move Z Axis up little to prevent scratching of Heat Bed
G1 X5 Y20 Z0.3 F5000.0 ; Move over to prevent blob squish
G92 E0
G92 E0
G1 F1500 E-6
;LAYER_COUNT:40
;LAYER:0
M107
G0 F6000 X93.711 Y94.453 Z0.2
;TYPE:SKIRT
G1 F1500 E0
G1 F1200 X94.563 Y93.606 E0.03996
G1 X94.748 Y93.434 E0.04836
G1 X95.654 Y92.646 E0.0883
G1 X95.835 Y92.498 E0.09607
G1 X96.788 Y91.767 E0.13602
G1 X96.988 Y91.624 E0.1442
G1 X97.988 Y90.955 E0.18421
G1 X98.197 Y90.824 E0.19242
G1 X99.237 Y90.222 E0.23239
G1 X99.453 Y90.107 E0.24053
G1 X100.53 Y89.573 E0.28051
G1 X100.746 Y89.474 E0.28841
G1 X101.853 Y89.009 E0.32835
G1 X102.086 Y88.92 E0.33664
G1 X103.223 Y88.528 E0.37664
G1 X103.451 Y88.457 E0.38459
G1 X104.607 Y88.138 E0.42447
G1 X104.851 Y88.079 E0.43282
G1 X106.03 Y87.836 E0.47286
G1 X106.266 Y87.795 E0.48083
G1 X107.456 Y87.627 E0.5208
G1 X107.702 Y87.601 E0.52903
G1 X108.898 Y87.511 E0.56892
G1 X109.139 Y87.5 E0.57694
G1 X110.34 Y87.486 E0.61689
G1 X110.583 Y87.491 E0.62497
G1 X111.784 Y87.554 E0.66497
G1 X112.028 Y87.575 E0.67312
G1 X113.22 Y87.715 E0.71304
G1 X113.463 Y87.751 E0.72121
G1 X114.646 Y87.968 E0.76121
G1 X114.884 Y88.02 E0.76931
G1 X116.049 Y88.312 E0.80926
G1 X116.283 Y88.379 E0.81736
G1 X117.427 Y88.745 E0.85731
G1 X117.656 Y88.826 E0.86538
G1 X118.776 Y89.265 E0.9054
G1 X118.998 Y89.36 E0.91343
G1 X120.085 Y89.868 E0.95333
G1 X120.309 Y89.983 E0.96171
G1 X121.362 Y90.563 E1.00169
G1 X121.566 Y90.683 E1.00956
G1 X122.58 Y91.327 E1.04952
G1 X122.781 Y91.464 E1.05761
G1 X123.75 Y92.17 E1.09748
G1 X123.945 Y92.322 E1.10571
G1 X124.869 Y93.092 E1.14571
G1 X125.051 Y93.254 E1.15382
G1 X125.923 Y94.081 E1.19379
G1 X126.097 Y94.257 E1.20202
G1 X126.914 Y95.14 E1.24203
G1 X127.069 Y95.318 E1.24988
G1 X127.828 Y96.248 E1.28981
G1 X127.979 Y96.446 E1.29809
G1 X128.676 Y97.424 E1.33803
G1 X128.811 Y97.628 E1.34617
G1 X129.443 Y98.648 E1.38608
G1 X129.563 Y98.856 E1.39407
G1 X130.131 Y99.917 E1.43409
G1 X130.241 Y100.139 E1.44233
G1 X130.737 Y101.231 E1.48222
G1 X130.83 Y101.454 E1.49026
G1 X131.257 Y102.579 E1.53028
G1 X131.336 Y102.81 E1.5384
G1 X131.689 Y103.958 E1.57835
G1 X131.753 Y104.191 E1.58639
G1 X132.032 Y105.358 E1.6263
G1 X132.081 Y105.6 E1.63451
G1 X132.284 Y106.785 E1.6745
G1 X132.318 Y107.029 E1.68269
G1 X132.444 Y108.224 E1.72266
G1 X132.462 Y108.464 E1.73066
G1 X132.512 Y109.664 E1.77061
G1 X132.514 Y109.907 E1.77869
G1 X132.487 Y111.107 E1.81861
G1 X132.474 Y111.351 E1.82674
G1 X132.37 Y112.548 E1.8667
G1 X132.341 Y112.788 E1.87474
G1 X132.161 Y113.977 E1.91474
G1 X132.116 Y114.223 E1.92306
G1 X131.858 Y115.398 E1.96307
G1 X131.798 Y115.632 E1.9711
G1 X131.467 Y116.784 E2.01097
G1 X131.394 Y117.011 E2.0189
G1 X130.99 Y118.144 E2.05891
G1 X130.899 Y118.375 E2.06716
G1 X130.423 Y119.477 E2.10709
G1 X130.324 Y119.688 E2.11484
G1 X129.815 Y120.692 E2.15228
G1 X129.703 Y120.898 E2.16008
G1 X129.134 Y121.867 E2.19746
G1 X129.008 Y122.067 E2.20532
G1 X128.293 Y123.128 E2.24787
G1 X128.144 Y123.334 E2.25633
G1 X127.408 Y124.282 E2.29625
G1 X127.252 Y124.47 E2.30437
G1 X126.456 Y125.37 E2.34433
G1 X126.289 Y125.547 E2.35243
G1 X125.437 Y126.394 E2.39238
G1 X125.252 Y126.566 E2.40079
G1 X124.346 Y127.354 E2.44072
G1 X124.165 Y127.502 E2.4485
G1 X123.212 Y128.233 E2.48845
G1 X123.012 Y128.376 E2.49662
G1 X122.012 Y129.045 E2.53664
G1 X121.803 Y129.176 E2.54485
G1 X120.763 Y129.778 E2.58481
G1 X120.547 Y129.893 E2.59295
G1 X119.47 Y130.427 E2.63293
G1 X119.254 Y130.526 E2.64084
G1 X118.147 Y130.991 E2.68077
G1 X117.914 Y131.08 E2.68907
G1 X116.777 Y131.472 E2.72907
G1 X116.549 Y131.543 E2.73701
G1 X115.393 Y131.862 E2.7769
G1 X115.149 Y131.921 E2.78525
G1 X113.97 Y132.164 E2.82529
G1 X113.734 Y132.205 E2.83325
G1 X112.544 Y132.373 E2.87322
G1 X112.298 Y132.399 E2.88145
G1 X111.102 Y132.489 E2.92134
G1 X110.861 Y132.5 E2.92937
G1 X109.66 Y132.514 E2.96932
G1 X109.417 Y132.509 E2.9774
G1 X108.216 Y132.446 E3.0174
G1 X107.972 Y132.425 E3.02555
G1 X106.78 Y132.285 E3.06546
G1 X106.537 Y132.249 E3.07363
G1 X105.354 Y132.032 E3.11364
G1 X105.116 Y131.98 E3.12174
G1 X103.951 Y131.688 E3.16169
G1 X103.717 Y131.621 E3.16978
G1 X102.573 Y131.255 E3.20973
G1 X102.344 Y131.174 E3.21781
G1 X101.224 Y130.735 E3.25782
G1 X101.002 Y130.64 E3.26585
G1 X99.915 Y130.132 E3.30576
G1 X99.691 Y130.017 E3.31413
G1 X98.638 Y129.437 E3.35412
G1 X98.434 Y129.317 E3.36199
G1 X97.42 Y128.673 E3.40194
G1 X97.219 Y128.536 E3.41003
G1 X96.249 Y127.829 E3.44996
G1 X96.055 Y127.678 E3.45813
G1 X95.132 Y126.909 E3.49809
G1 X94.949 Y126.746 E3.50624
G1 X94.076 Y125.918 E3.54626
G1 X93.902 Y125.742 E3.55449
G1 X93.086 Y124.86 E3.59446
G1 X92.931 Y124.682 E3.60231
G1 X92.171 Y123.751 E3.64228
G1 X92.02 Y123.553 E3.65056
G1 X91.323 Y122.575 E3.69051
G1 X91.187 Y122.37 E3.69869
G1 X90.555 Y121.349 E3.73863
G1 X90.436 Y121.143 E3.74654
G1 X89.869 Y120.084 E3.78649
G1 X89.759 Y119.861 E3.79476
G1 X89.263 Y118.769 E3.83465
G1 X89.17 Y118.545 E3.84272
G1 X88.743 Y117.419 E3.88277
G1 X88.664 Y117.189 E3.89086
G1 X88.311 Y116.041 E3.93081
G1 X88.247 Y115.808 E3.93885
G1 X87.968 Y114.642 E3.97872
G1 X87.918 Y114.399 E3.98697
G1 X87.715 Y113.213 E4.02699
G1 X87.682 Y112.97 E4.03515
G1 X87.556 Y111.775 E4.07512
G1 X87.538 Y111.535 E4.08312
G1 X87.488 Y110.336 E4.12303
G1 X87.486 Y110.093 E4.13112
G1 X87.513 Y108.893 E4.17104
G1 X87.526 Y108.649 E4.17917
G1 X87.63 Y107.452 E4.21913
G1 X87.659 Y107.212 E4.22717
G1 X87.839 Y106.023 E4.26717
G1 X87.884 Y105.777 E4.27548
G1 X88.142 Y104.602 E4.3155
G1 X88.202 Y104.368 E4.32353
G1 X88.533 Y103.216 E4.3634
G1 X88.606 Y102.989 E4.37133
G1 X89.01 Y101.856 E4.41133
G1 X89.101 Y101.624 E4.41962
G1 X89.577 Y100.523 E4.45952
G1 X89.674 Y100.317 E4.46709
G1 X90.182 Y99.312 E4.50455
G1 X90.299 Y99.097 E4.51269
G1 X90.909 Y98.062 E4.55265
G1 X91.038 Y97.858 E4.56067
G1 X91.713 Y96.863 E4.60066
G1 X91.856 Y96.666 E4.60876
G1 X92.592 Y95.718 E4.64868
G1 X92.748 Y95.53 E4.6568
G1 X93.544 Y94.63 E4.69677
G1 X93.711 Y94.453 E4.70486
G0 F6000 X93.993 Y94.737
G1 F1200 X94.845 Y93.89 E4.74482
G1 X95.011 Y93.736 E4.75235
G1 X95.917 Y92.948 E4.79229
G1 X96.079 Y92.815 E4.79926
G1 X97.032 Y92.084 E4.8392
G1 X97.21 Y91.956 E4.8465
G1 X98.21 Y91.287 E4.88651
G1 X98.398 Y91.17 E4.89388
G1 X99.438 Y90.568 E4.93385
G1 X99.631 Y90.465 E4.94112
G1 X100.708 Y89.931 E4.9811
G1 X100.901 Y89.842 E4.98817
G1 X102.008 Y89.377 E5.02811
G1 X102.217 Y89.298 E5.03554
G1 X103.354 Y88.906 E5.07554
G1 X103.558 Y88.843 E5.08264
G1 X104.714 Y88.524 E5.12253
G1 X104.932 Y88.471 E5.12999
G1 X106.111 Y88.228 E5.17003
G1 X106.322 Y88.191 E5.17715
G1 X107.512 Y88.023 E5.21713
G1 X107.732 Y88 E5.22448
G1 X108.928 Y87.91 E5.26437
G1 X109.143 Y87.9 E5.27153
G1 X110.344 Y87.886 E5.31148
G1 X110.562 Y87.891 E5.31873
G1 X111.763 Y87.954 E5.35873
G1 X111.982 Y87.972 E5.36604
G1 X113.174 Y88.112 E5.40596
G1 X113.39 Y88.145 E5.41323
G1 X114.573 Y88.362 E5.45323
G1 X114.787 Y88.408 E5.46051
G1 X115.952 Y88.7 E5.50046
G1 X116.161 Y88.76 E5.50769
G1 X117.305 Y89.126 E5.54764
G1 X117.51 Y89.198 E5.55487
G1 X118.63 Y89.637 E5.59488
G1 X118.829 Y89.723 E5.60209
G1 X119.916 Y90.231 E5.64199
G1 X120.116 Y90.333 E5.64946
G1 X121.169 Y90.913 E5.68945
G1 X121.352 Y91.021 E5.69651
G1 X122.366 Y91.665 E5.73647
G1 X122.545 Y91.787 E5.74367
G1 X123.514 Y92.493 E5.78355
G1 X123.689 Y92.629 E5.79092
G1 X124.613 Y93.399 E5.83092
G1 X124.776 Y93.544 E5.83818
G1 X125.648 Y94.371 E5.87815
G1 X125.804 Y94.529 E5.88554
G1 X126.621 Y95.412 E5.92555
G1 X126.759 Y95.571 E5.93255
G1 X127.518 Y96.501 E5.97248
G1 X127.653 Y96.678 E5.97988
G1 X128.35 Y97.656 E6.01982
G1 X128.471 Y97.838 E6.02709
G1 X129.103 Y98.858 E6.067
G1 X129.21 Y99.044 E6.07414
G1 X129.778 Y100.105 E6.11417
G1 X129.877 Y100.304 E6.12156
G1 X130.373 Y101.396 E6.16145
G1 X130.456 Y101.595 E6.16862
G1 X130.883 Y102.72 E6.20864
G1 X130.954 Y102.928 E6.21595
G1 X131.307 Y104.076 E6.2559
G1 X131.364 Y104.284 E6.26307
G1 X131.643 Y105.451 E6.30298
G1 X131.687 Y105.668 E6.31035
G1 X131.89 Y106.853 E6.35034
G1 X131.92 Y107.07 E6.35762
G1 X132.046 Y108.265 E6.39759
G1 X132.062 Y108.48 E6.40476
G1 X132.112 Y109.68 E6.4447
G1 X132.114 Y109.898 E6.45196
G1 X132.087 Y111.098 E6.49188
G1 X132.075 Y111.316 E6.49914
G1 X131.971 Y112.513 E6.5391
G1 X131.946 Y112.728 E6.5463
G1 X131.766 Y113.917 E6.5863
G1 X131.725 Y114.137 E6.59374
G1 X131.467 Y115.312 E6.63375
G1 X131.414 Y115.522 E6.64096
G1 X131.083 Y116.674 E6.68082
G1 X131.017 Y116.877 E6.68792
G1 X130.613 Y118.01 E6.72793
G1 X130.532 Y118.216 E6.73529
G1 X130.056 Y119.318 E6.77522
G1 X129.968 Y119.507 E6.78215
G1 X129.459 Y120.511 E6.81959
G1 X129.358 Y120.696 E6.8266
G1 X128.789 Y121.665 E6.86398
G1 X128.677 Y121.843 E6.87097
G1 X127.962 Y122.904 E6.91353
G1 X127.828 Y123.089 E6.92112
G1 X127.092 Y124.037 E6.96104
G1 X126.953 Y124.205 E6.96829
G1 X126.157 Y125.105 E7.00826
G1 X126.007 Y125.263 E7.0155
G1 X125.155 Y126.11 E7.05546
G1 X124.989 Y126.264 E7.06299
G1 X124.083 Y127.052 E7.10293
G1 X123.921 Y127.185 E7.1099
G1 X122.968 Y127.916 E7.14985
G1 X122.79 Y128.044 E7.15714
G1 X121.79 Y128.713 E7.19716
G1 X121.602 Y128.83 E7.20452
G1 X120.562 Y129.432 E7.24449
G1 X120.369 Y129.535 E7.25176
G1 X119.292 Y130.069 E7.29175
G1 X119.099 Y130.158 E7.29882
G1 X117.992 Y130.623 E7.33875
G1 X117.783 Y130.702 E7.34618
G1 X116.646 Y131.094 E7.38618
G1 X116.442 Y131.157 E7.39329
G1 X115.286 Y131.476 E7.43317
G1 X115.068 Y131.529 E7.44063
G1 X113.889 Y131.772 E7.48067
G1 X113.678 Y131.809 E7.4878
G1 X112.488 Y131.977 E7.52777
G1 X112.268 Y132 E7.53512
G1 X111.072 Y132.09 E7.57502
G1 X110.857 Y132.1 E7.58218
G1 X109.656 Y132.114 E7.62212
G1 X109.438 Y132.109 E7.62938
G1 X108.237 Y132.046 E7.66938
G1 X108.018 Y132.028 E7.67668
G1 X106.826 Y131.888 E7.7166
G1 X106.61 Y131.855 E7.72387
G1 X105.427 Y131.638 E7.76387
G1 X105.213 Y131.592 E7.77115
G1 X104.048 Y131.3 E7.8111
G1 X103.839 Y131.24 E7.81833
G1 X102.695 Y130.874 E7.85828
G1 X102.49 Y130.802 E7.86551
G1 X101.37 Y130.363 E7.90552
G1 X101.171 Y130.277 E7.91273
G1 X100.084 Y129.769 E7.95264
G1 X99.884 Y129.667 E7.9601
G1 X98.831 Y129.087 E8.00009
G1 X98.648 Y128.979 E8.00716
G1 X97.634 Y128.335 E8.04711
G1 X97.454 Y128.213 E8.05434
G1 X96.484 Y127.506 E8.09426
G1 X96.311 Y127.37 E8.10158
G1 X95.388 Y126.601 E8.14154
G1 X95.224 Y126.456 E8.14882
G1 X94.351 Y125.628 E8.18884
G1 X94.195 Y125.47 E8.19623
G1 X93.379 Y124.588 E8.23619
G1 X93.241 Y124.429 E8.24319
G1 X92.481 Y123.498 E8.28317
G1 X92.346 Y123.321 E8.29057
G1 X91.649 Y122.343 E8.33051
G1 X91.527 Y122.16 E8.33783
G1 X90.895 Y121.139 E8.37777
G1 X90.789 Y120.954 E8.38486
G1 X90.222 Y119.895 E8.42481
G1 X90.123 Y119.696 E8.4322
G1 X89.627 Y118.604 E8.47209
G1 X89.544 Y118.404 E8.4793
G1 X89.117 Y117.278 E8.51935
G1 X89.046 Y117.071 E8.52663
G1 X88.693 Y115.923 E8.56658
G1 X88.636 Y115.715 E8.57375
G1 X88.357 Y114.549 E8.61363
G1 X88.313 Y114.332 E8.62099
G1 X88.11 Y113.146 E8.66101
G1 X88.08 Y112.929 E8.6683
G1 X87.954 Y111.734 E8.70826
G1 X87.938 Y111.519 E8.71543
G1 X87.888 Y110.32 E8.75535
G1 X87.886 Y110.102 E8.7626
G1 X87.913 Y108.902 E8.80252
G1 X87.925 Y108.684 E8.80978
G1 X88.029 Y107.487 E8.84974
G1 X88.054 Y107.272 E8.85694
G1 X88.234 Y106.083 E8.89694
G1 X88.275 Y105.863 E8.90438
G1 X88.533 Y104.688 E8.94439
G1 X88.586 Y104.478 E8.9516
G1 X88.917 Y103.326 E8.99146
G1 X88.983 Y103.123 E8.99856
G1 X89.387 Y101.99 E9.03857
G1 X89.468 Y101.783 E9.04596
G1 X89.944 Y100.682 E9.08586
G1 X90.031 Y100.497 E9.09266
G1 X90.539 Y99.492 E9.13011
G1 X90.644 Y99.3 E9.13739
G1 X91.254 Y98.265 E9.17735
G1 X91.369 Y98.082 E9.18454
G1 X92.044 Y97.087 E9.22453
G1 X92.172 Y96.911 E9.23177
G1 X92.908 Y95.963 E9.27168
G1 X93.047 Y95.795 E9.27894
G1 X93.843 Y94.895 E9.3189
G1 X93.993 Y94.737 E9.32615
G0 F6000 X94.275 Y95.02
G1 F1200 X95.127 Y94.173 E9.3661
G1 X95.273 Y94.037 E9.37274
G1 X96.179 Y93.249 E9.41268
G1 X96.322 Y93.133 E9.4188
G1 X97.275 Y92.402 E9.45875
G1 X97.433 Y92.289 E9.46521
G1 X98.433 Y91.62 E9.50523
G1 X98.598 Y91.517 E9.5117
G1 X99.638 Y90.915 E9.55166
G1 X99.808 Y90.823 E9.55809
G1 X100.885 Y90.289 E9.59808
G1 X101.056 Y90.211 E9.60433
G1 X102.163 Y89.746 E9.64426
G1 X102.347 Y89.676 E9.65081
G1 X103.484 Y89.284 E9.69081
G1 X103.664 Y89.228 E9.69708
G1 X104.82 Y88.909 E9.73697
G1 X105.012 Y88.863 E9.74353
G1 X106.191 Y88.62 E9.78357
G1 X106.378 Y88.587 E9.78989
G1 X107.568 Y88.419 E9.82986
G1 X107.762 Y88.398 E9.83635
G1 X108.958 Y88.308 E9.87624
G1 X109.148 Y88.3 E9.88257
G1 X110.349 Y88.286 E9.92251
G1 X110.541 Y88.29 E9.9289
G1 X111.742 Y88.353 E9.9689
G1 X111.935 Y88.369 E9.97534
G1 X113.127 Y88.509 E10.01526
G1 X113.318 Y88.538 E10.02169
G1 X114.501 Y88.755 E10.06169
G1 X114.689 Y88.796 E10.06809
G1 X115.854 Y89.088 E10.10804
G1 X116.039 Y89.141 E10.11444
G1 X117.183 Y89.507 E10.15439
G1 X117.364 Y89.571 E10.16077
G1 X118.484 Y90.01 E10.20078
G1 X118.659 Y90.085 E10.20712
G1 X119.746 Y90.593 E10.24702
G1 X119.923 Y90.683 E10.25363
G1 X120.976 Y91.263 E10.29361
G1 X121.137 Y91.359 E10.29985
G1 X122.151 Y92.003 E10.3398
G1 X122.31 Y92.11 E10.34617
G1 X123.279 Y92.816 E10.38605
G1 X123.433 Y92.936 E10.39254
G1 X124.357 Y93.706 E10.43255
G1 X124.5 Y93.834 E10.43893
G1 X125.372 Y94.661 E10.4789
G1 X125.51 Y94.801 E10.48544
G1 X126.327 Y95.684 E10.52545
G1 X126.449 Y95.824 E10.53163
G1 X127.208 Y96.754 E10.57155
G1 X127.327 Y96.91 E10.57808
G1 X128.024 Y97.888 E10.61802
G1 X128.131 Y98.049 E10.62445
G1 X128.763 Y99.069 E10.66436
G1 X128.858 Y99.233 E10.67067
G1 X129.426 Y100.294 E10.71069
G1 X129.512 Y100.469 E10.71718
G1 X130.008 Y101.561 E10.75707
G1 X130.082 Y101.737 E10.76342
G1 X130.509 Y102.862 E10.80344
G1 X130.571 Y103.045 E10.80987
G1 X130.924 Y104.193 E10.84982
G1 X130.975 Y104.377 E10.85617
G1 X131.254 Y105.544 E10.89608
G1 X131.293 Y105.735 E10.90256
G1 X131.496 Y106.92 E10.94255
G1 X131.522 Y107.112 E10.94899
G1 X131.648 Y108.307 E10.98896
G1 X131.662 Y108.497 E10.99529
G1 X131.712 Y109.697 E11.03524
G1 X131.714 Y109.889 E11.04163
G1 X131.687 Y111.089 E11.08155
G1 X131.677 Y111.282 E11.08798
G1 X131.573 Y112.479 E11.12794
G1 X131.55 Y112.668 E11.13427
G1 X131.37 Y113.857 E11.17427
G1 X131.334 Y114.051 E11.18083
G1 X131.076 Y115.226 E11.22084
G1 X131.029 Y115.411 E11.22719
G1 X130.698 Y116.563 E11.26706
G1 X130.641 Y116.743 E11.27334
G1 X130.237 Y117.876 E11.31335
G1 X130.165 Y118.058 E11.31985
G1 X129.689 Y119.16 E11.35978
G1 X129.611 Y119.327 E11.36591
G1 X129.102 Y120.331 E11.40335
G1 X129.013 Y120.493 E11.4095
G1 X128.444 Y121.462 E11.44687
G1 X128.345 Y121.62 E11.45307
G1 X127.63 Y122.681 E11.49563
G1 X127.512 Y122.844 E11.50232
G1 X126.776 Y123.792 E11.54224
G1 X126.653 Y123.94 E11.54864
G1 X125.857 Y124.84 E11.5886
G1 X125.725 Y124.98 E11.595
G1 X124.873 Y125.827 E11.63496
G1 X124.727 Y125.963 E11.6416
G1 X123.821 Y126.751 E11.68153
G1 X123.678 Y126.867 E11.68766
G1 X122.725 Y127.598 E11.7276
G1 X122.567 Y127.711 E11.73407
G1 X121.567 Y128.38 E11.77408
G1 X121.402 Y128.483 E11.78055
