;FLAVOR:Marlin
;TIME:2312
;Filament used: 0.706366m
;Layer height: 0.13
;MINX:91.045
;MINY:89.285
;MINZ:0.2
;MAXX:128.953
;MAXY:130.713
;MAXZ:24.12
;Generated with Cura_SteamEngine 4.6.1
M140 S60
M105
M190 S60
M104 S205
M105
M109 S205
M82 ;absolute extrusion mode
; Ender 3 Custom Start G-code
G92 E0 ; Reset Extruder
G28 ; Home all axes
G1 Z2.0 F3000 ; Move Z Axis up little to prevent scratching of Heat Bed
G1 X0.1 Y20 Z0.3 F5000.0 ; Move to start position
G1 X0.1 Y200.0 Z0.3 F1500.0 E15 ; Draw the first line
G1 X0.4 Y200.0 Z0.3 F5000.0 ; Move to side a little
G1 X0.4 Y20 Z0.3 F1500.0 E30 ; Draw the second line
G92 E0 ; Reset Extruder
G1 Z2.0 F3000 ; Move Z Axis up little to prevent scratching of Heat Bed
G1 X5 Y20 Z0.3 F5000.0 ; Move over to prevent blob squish
G92 E0
G92 E0
G1 F1500 E-6
;LAYER_COUNT:185
;LAYER:0
M107
G0 F6000 X95.056 Y95.651 Z0.2
;TYPE:SKIRT
G1 F1500 E0
G1 F1200 X95.837 Y94.879 E0.03652
G1 X96.02 Y94.71 E0.04481
G1 X96.85 Y93.991 E0.08133
G1 X97.042 Y93.835 E0.08956
G1 X97.935 Y93.158 E0.12683
G1 X98.146 Y93.009 E0.13542
G1 X99.086 Y92.392 E0.17282
G1 X99.294 Y92.265 E0.18093
G1 X100.269 Y91.711 E0.21823
G1 X100.496 Y91.592 E0.22675
G1 X101.504 Y91.106 E0.26397
G1 X101.733 Y91.005 E0.27229
G1 X102.775 Y90.585 E0.30966
G1 X103.007 Y90.5 E0.31788
G1 X104.072 Y90.149 E0.35518
G1 X104.32 Y90.076 E0.36377
G1 X105.412 Y89.797 E0.40126
G1 X105.656 Y89.744 E0.40957
G1 X106.754 Y89.539 E0.44672
G1 X107.005 Y89.5 E0.45516
G1 X108.113 Y89.369 E0.49227
G1 X108.362 Y89.348 E0.50058
G1 X109.478 Y89.29 E0.53775
G1 X109.726 Y89.285 E0.546
G1 X110.841 Y89.3 E0.58309
G1 X111.093 Y89.312 E0.59148
G1 X112.206 Y89.401 E0.62862
G1 X112.454 Y89.429 E0.63692
G1 X113.559 Y89.591 E0.67407
G1 X113.815 Y89.638 E0.68272
G1 X114.938 Y89.882 E0.72095
G1 X115.18 Y89.943 E0.72925
G1 X116.256 Y90.252 E0.76648
G1 X116.495 Y90.329 E0.77483
G1 X117.55 Y90.709 E0.81213
G1 X117.786 Y90.803 E0.82058
G1 X118.814 Y91.253 E0.8579
G1 X119.043 Y91.363 E0.86635
G1 X120.039 Y91.881 E0.90369
G1 X120.251 Y92 E0.91178
G1 X121.211 Y92.58 E0.94908
G1 X121.425 Y92.719 E0.95757
G1 X122.342 Y93.361 E0.9948
G1 X122.55 Y93.518 E1.00347
G1 X123.423 Y94.223 E1.04079
G1 X123.611 Y94.384 E1.04902
G1 X124.437 Y95.145 E1.08638
G1 X124.609 Y95.314 E1.0944
G1 X125.349 Y96.088 E1.13001
G1 X125.516 Y96.275 E1.13835
G1 X126.236 Y97.135 E1.17566
G1 X126.391 Y97.333 E1.18402
G1 X127.07 Y98.263 E1.22232
G1 X127.217 Y98.479 E1.23101
G1 X127.829 Y99.451 E1.26921
G1 X127.957 Y99.672 E1.27771
G1 X128.504 Y100.686 E1.31603
G1 X128.73 Y101.188 E1.33434
G1 X128.881 Y101.718 E1.35267
G1 X128.953 Y102.265 E1.37102
G1 X128.946 Y102.816 E1.38934
G1 X128.859 Y103.36 E1.40767
G1 X128.694 Y103.886 E1.426
G1 X128.455 Y104.382 E1.44432
G1 X128.147 Y104.839 E1.46265
G1 X127.776 Y105.246 E1.48096
G1 X127.35 Y105.595 E1.49928
G1 X126.878 Y105.88 E1.51762
G1 X126.37 Y106.092 E1.53593
G1 X125.836 Y106.229 E1.55426
G1 X125.216 Y106.29 E1.57498
G1 X124.203 Y106.305 E1.60868
G1 X123.653 Y106.273 E1.627
G1 X123.113 Y106.162 E1.64534
G1 X122.596 Y105.974 E1.66364
G1 X122.11 Y105.713 E1.68198
G1 X121.952 Y105.595 E1.68854
G1 X112.424 Y103.044 E2.01661
G1 X112.368 Y103.063 E2.01857
G1 X111.876 Y103.198 E2.03554
G1 X111.319 Y103.311 E2.05445
G1 X110.819 Y103.378 E2.07122
G1 X110.256 Y103.416 E2.08999
G1 X109.756 Y103.417 E2.10662
G1 X109.196 Y103.381 E2.12529
G1 X108.688 Y103.314 E2.14233
G1 X108.133 Y103.202 E2.16116
G1 X107.576 Y103.045 E2.18041
G1 X97.772 Y105.671 E2.51799
G1 X97.231 Y105.774 E2.5363
G1 X96.789 Y105.8 E2.55103
G1 X95.09 Y105.8 E2.60754
G1 X94.54 Y105.76 E2.62588
G1 X94.002 Y105.641 E2.64421
G1 X93.487 Y105.445 E2.66253
G1 X93.006 Y105.177 E2.68085
G1 X92.568 Y104.843 E2.69917
G1 X92.184 Y104.448 E2.71749
G1 X91.86 Y104.002 E2.73583
G1 X91.605 Y103.514 E2.75414
G1 X91.422 Y102.994 E2.77247
G1 X91.317 Y102.453 E2.7908
G1 X91.291 Y101.903 E2.80912
G1 X91.345 Y101.354 E2.82746
G1 X91.478 Y100.82 E2.84577
G1 X91.813 Y100.076 E2.87291
G1 X92.43 Y99.025 E2.91344
G1 X92.569 Y98.806 E2.92207
G1 X93.217 Y97.857 E2.96029
G1 X93.36 Y97.662 E2.96833
G1 X94.004 Y96.837 E3.00314
G1 X94.156 Y96.654 E3.01105
G1 X94.884 Y95.833 E3.04755
G1 X95.056 Y95.651 E3.05588
G0 F6000 X95.337 Y95.936
G1 F1200 X96.118 Y95.164 E3.0924
G1 X96.282 Y95.012 E3.09984
G1 X97.112 Y94.293 E3.13636
G1 X97.284 Y94.154 E3.14372
G1 X98.177 Y93.477 E3.18099
G1 X98.365 Y93.344 E3.18865
G1 X99.305 Y92.727 E3.22605
G1 X99.491 Y92.613 E3.2333
G1 X100.466 Y92.059 E3.2706
G1 X100.669 Y91.952 E3.27823
G1 X101.677 Y91.466 E3.31545
G1 X101.883 Y91.376 E3.32293
G1 X102.925 Y90.956 E3.3603
G1 X103.132 Y90.88 E3.36763
G1 X104.197 Y90.529 E3.40493
G1 X104.419 Y90.464 E3.41262
G1 X105.511 Y90.185 E3.45011
G1 X105.729 Y90.137 E3.45753
G1 X106.827 Y89.932 E3.49468
G1 X107.052 Y89.898 E3.50225
G1 X108.16 Y89.767 E3.53936
G1 X108.383 Y89.748 E3.5468
G1 X109.499 Y89.69 E3.58397
G1 X109.721 Y89.685 E3.59136
G1 X110.836 Y89.7 E3.62845
G1 X111.061 Y89.711 E3.63594
G1 X112.174 Y89.8 E3.67308
G1 X112.396 Y89.825 E3.68051
G1 X113.501 Y89.987 E3.71765
G1 X113.73 Y90.029 E3.7254
G1 X114.853 Y90.273 E3.76362
G1 X115.069 Y90.327 E3.77102
G1 X116.145 Y90.636 E3.80826
G1 X116.359 Y90.705 E3.81574
G1 X117.414 Y91.085 E3.85303
G1 X117.625 Y91.169 E3.86059
G1 X118.653 Y91.619 E3.89791
G1 X118.859 Y91.718 E3.90551
G1 X119.855 Y92.236 E3.94285
G1 X120.044 Y92.342 E3.95006
G1 X121.004 Y92.922 E3.98736
G1 X121.196 Y93.047 E3.99498
G1 X122.113 Y93.689 E4.03221
G1 X122.299 Y93.829 E4.03996
G1 X123.172 Y94.534 E4.07728
G1 X123.34 Y94.678 E4.08464
G1 X124.166 Y95.439 E4.12199
G1 X124.32 Y95.59 E4.12917
G1 X125.06 Y96.364 E4.16478
G1 X125.209 Y96.531 E4.17223
G1 X125.929 Y97.391 E4.20953
G1 X126.068 Y97.569 E4.21704
G1 X126.747 Y98.499 E4.25534
G1 X126.878 Y98.692 E4.2631
G1 X127.49 Y99.664 E4.3013
G1 X127.605 Y99.862 E4.30892
G1 X128.152 Y100.876 E4.34724
G1 X128.364 Y101.352 E4.36457
G1 X128.5 Y101.855 E4.3819
G1 X128.558 Y102.373 E4.39924
G1 X128.536 Y102.894 E4.41658
G1 X128.435 Y103.405 E4.43391
G1 X128.256 Y103.895 E4.45126
G1 X128.005 Y104.351 E4.46857
G1 X127.687 Y104.764 E4.48591
G1 X127.31 Y105.124 E4.50324
G1 X126.882 Y105.421 E4.52057
G1 X126.414 Y105.65 E4.5379
G1 X125.916 Y105.805 E4.55525
G1 X125.21 Y105.89 E4.5789
G1 X124.197 Y105.905 E4.6126
G1 X123.677 Y105.872 E4.62993
G1 X123.168 Y105.761 E4.64725
G1 X122.682 Y105.573 E4.66458
G1 X122.23 Y105.313 E4.68193
G1 X122.122 Y105.227 E4.68652
G1 X112.409 Y102.625 E5.02097
G1 X112.237 Y102.685 E5.02703
G1 X111.796 Y102.806 E5.04223
G1 X111.239 Y102.919 E5.06114
G1 X110.792 Y102.979 E5.07614
G1 X110.229 Y103.017 E5.09491
G1 X109.782 Y103.018 E5.10977
G1 X109.222 Y102.982 E5.12844
G1 X108.767 Y102.922 E5.1437
G1 X108.212 Y102.81 E5.16253
G1 X107.768 Y102.688 E5.17785
G1 X107.591 Y102.626 E5.18409
G1 X97.669 Y105.284 E5.52573
G1 X97.156 Y105.38 E5.54309
G1 X96.789 Y105.4 E5.55531
G1 X95.09 Y105.4 E5.61182
G1 X94.57 Y105.36 E5.62917
G1 X94.063 Y105.241 E5.64649
G1 X93.58 Y105.046 E5.66381
G1 X93.132 Y104.78 E5.68114
G1 X92.73 Y104.448 E5.69848
G1 X92.384 Y104.058 E5.71582
G1 X92.101 Y103.62 E5.73317
G1 X91.888 Y103.145 E5.75048
G1 X91.751 Y102.642 E5.76782
G1 X91.692 Y102.124 E5.78516
G1 X91.713 Y101.603 E5.80251
G1 X91.814 Y101.092 E5.81983
G1 X91.991 Y100.602 E5.83716
G1 X92.158 Y100.279 E5.84925
G1 X92.775 Y99.228 E5.88979
G1 X92.899 Y99.032 E5.8975
G1 X93.547 Y98.083 E5.93572
G1 X93.675 Y97.908 E5.94293
G1 X94.319 Y97.083 E5.97774
G1 X94.455 Y96.919 E5.98483
G1 X95.183 Y96.098 E6.02132
G1 X95.337 Y95.936 E6.02876
G0 F6000 X95.618 Y96.22
G1 F1200 X96.399 Y95.448 E6.06528
G1 X96.544 Y95.314 E6.07185
G1 X97.374 Y94.595 E6.10837
G1 X97.526 Y94.472 E6.11488
G1 X98.419 Y93.795 E6.15215
G1 X98.585 Y93.678 E6.1589
G1 X99.525 Y93.061 E6.1963
G1 X99.689 Y92.961 E6.20269
G1 X100.664 Y92.407 E6.23999
G1 X100.843 Y92.313 E6.24671
G1 X101.851 Y91.827 E6.28393
G1 X102.032 Y91.747 E6.29051
G1 X103.074 Y91.327 E6.32788
G1 X103.257 Y91.26 E6.33436
G1 X104.322 Y90.909 E6.37166
G1 X104.518 Y90.851 E6.37846
G1 X105.61 Y90.572 E6.41594
G1 X105.802 Y90.53 E6.42248
G1 X106.9 Y90.325 E6.45963
G1 X107.099 Y90.295 E6.46633
G1 X108.207 Y90.164 E6.50343
G1 X108.403 Y90.147 E6.50998
G1 X109.519 Y90.089 E6.54715
G1 X109.715 Y90.085 E6.55367
G1 X110.83 Y90.1 E6.59075
G1 X111.029 Y90.11 E6.59738
G1 X112.142 Y90.199 E6.63452
G1 X112.338 Y90.221 E6.64108
G1 X113.443 Y90.383 E6.67822
G1 X113.645 Y90.419 E6.68505
G1 X114.768 Y90.663 E6.72327
G1 X114.959 Y90.712 E6.72983
G1 X116.035 Y91.021 E6.76706
G1 X116.224 Y91.082 E6.77367
G1 X117.279 Y91.462 E6.81097
G1 X117.465 Y91.536 E6.81762
G1 X118.493 Y91.986 E6.85495
G1 X118.674 Y92.072 E6.86161
G1 X119.67 Y92.59 E6.89895
G1 X119.837 Y92.684 E6.90533
G1 X120.797 Y93.264 E6.94263
G1 X120.967 Y93.374 E6.94936
G1 X121.884 Y94.016 E6.9866
G1 X122.048 Y94.14 E6.99343
G1 X122.921 Y94.845 E7.03076
G1 X123.069 Y94.973 E7.03726
G1 X123.895 Y95.734 E7.07462
G1 X124.03 Y95.867 E7.08092
G1 X124.77 Y96.641 E7.11654
G1 X124.902 Y96.788 E7.12311
G1 X125.622 Y97.648 E7.16041
G1 X125.745 Y97.805 E7.16705
G1 X126.424 Y98.735 E7.20535
G1 X126.54 Y98.906 E7.21222
G1 X127.152 Y99.878 E7.25042
G1 X127.253 Y100.052 E7.25711
G1 X127.8 Y101.066 E7.29543
G1 X127.997 Y101.514 E7.31171
G1 X128.118 Y101.988 E7.32798
G1 X128.16 Y102.476 E7.34427
G1 X128.122 Y102.964 E7.36055
G1 X128.006 Y103.439 E7.37682
G1 X127.814 Y103.89 E7.39312
G1 X127.551 Y104.302 E7.40938
G1 X127.224 Y104.667 E7.42568
G1 X126.843 Y104.974 E7.44195
G1 X126.416 Y105.214 E7.45824
G1 X125.956 Y105.382 E7.47453
G1 X125.476 Y105.473 E7.49078
G1 X125.204 Y105.49 E7.49984
G1 X124.191 Y105.505 E7.53354
G1 X123.703 Y105.472 E7.54981
G1 X123.226 Y105.36 E7.5661
G1 X122.774 Y105.173 E7.58237
G1 X122.359 Y104.914 E7.59864
G1 X122.297 Y104.859 E7.6014
G1 X112.394 Y102.207 E7.94238
G1 X112.105 Y102.308 E7.95256
G1 X111.716 Y102.414 E7.96597
G1 X111.159 Y102.527 E7.98488
G1 X110.765 Y102.58 E7.9981
G1 X110.202 Y102.618 E8.01687
G1 X109.808 Y102.619 E8.02997
G1 X109.248 Y102.583 E8.04864
G1 X108.847 Y102.53 E8.06209
G1 X108.292 Y102.418 E8.08092
G1 X107.9 Y102.311 E8.09444
G1 X107.606 Y102.209 E8.10479
G1 X97.565 Y104.898 E8.45052
G1 X97.084 Y104.986 E8.46678
G1 X96.789 Y105 E8.47661
G1 X95.09 Y105 E8.53312
G1 X94.602 Y104.96 E8.5494
G1 X94.127 Y104.841 E8.56569
G1 X93.678 Y104.647 E8.58196
G1 X93.266 Y104.382 E8.59825
G1 X92.903 Y104.054 E8.61452
G1 X92.598 Y103.671 E8.63081
G1 X92.36 Y103.243 E8.64709
G1 X92.194 Y102.783 E8.66336
G1 X92.105 Y102.302 E8.67963
G1 X92.096 Y101.812 E8.69593
G1 X92.166 Y101.328 E8.71219
G1 X92.315 Y100.861 E8.7285
G1 X92.503 Y100.481 E8.7426
G1 X93.12 Y99.43 E8.78313
G1 X93.229 Y99.257 E8.78994
G1 X93.877 Y98.308 E8.82816
G1 X93.99 Y98.154 E8.83451
G1 X94.634 Y97.329 E8.86932
G1 X94.754 Y97.185 E8.87555
G1 X95.482 Y96.364 E8.91205
G1 X95.618 Y96.22 E8.91864
G0 F6000 X95.899 Y96.505
G1 F1200 X96.68 Y95.733 E8.95516
G1 X96.806 Y95.617 E8.96086
G1 X97.767 Y94.791 E9.003
G1 X98.66 Y94.114 E9.04028
G1 X98.804 Y94.012 E9.04615
G1 X99.744 Y93.395 E9.08354
G1 X99.887 Y93.308 E9.08911
G1 X100.862 Y92.754 E9.12641
G1 X101.017 Y92.673 E9.13223
G1 X102.025 Y92.187 E9.16945
G1 X102.182 Y92.118 E9.17515
G1 X103.224 Y91.698 E9.21252
G1 X103.382 Y91.64 E9.21811
G1 X104.447 Y91.289 E9.25541
G1 X104.617 Y91.239 E9.2613
G1 X105.709 Y90.96 E9.29879
G1 X105.876 Y90.923 E9.30448
G1 X106.974 Y90.718 E9.34163
G1 X107.146 Y90.692 E9.34742
G1 X108.254 Y90.561 E9.38453
G1 X108.424 Y90.547 E9.3902
G1 X109.71 Y90.485 E9.43302
G1 X110.825 Y90.5 E9.47011
G1 X112.11 Y90.597 E9.51297
G1 X112.28 Y90.616 E9.51866
G1 X113.385 Y90.778 E9.5558
G1 X113.56 Y90.81 E9.56172
G1 X114.683 Y91.054 E9.59994
G1 X114.849 Y91.096 E9.60564
G1 X115.925 Y91.405 E9.64287
G1 X116.088 Y91.458 E9.64857
G1 X117.143 Y91.838 E9.68587
G1 X117.305 Y91.902 E9.69166
G1 X118.333 Y92.352 E9.72899
G1 X118.49 Y92.427 E9.73478
G1 X119.486 Y92.945 E9.77211
G1 X119.631 Y93.027 E9.77766
G1 X120.591 Y93.607 E9.81496
G1 X120.737 Y93.702 E9.82075
G1 X121.654 Y94.344 E9.85798
G1 X121.797 Y94.451 E9.86392
G1 X122.67 Y95.156 E9.90125
G1 X122.798 Y95.267 E9.90688
G1 X123.624 Y96.028 E9.94424
G1 X123.741 Y96.143 E9.94969
G1 X124.481 Y96.917 E9.98531
G1 X124.596 Y97.045 E9.99103
G1 X125.316 Y97.905 E10.02834
G1 X125.422 Y98.041 E10.03407
G1 X126.101 Y98.971 E10.07237
G1 X126.201 Y99.119 E10.07831
G1 X126.813 Y100.091 E10.11652
G1 X126.901 Y100.242 E10.12233
G1 X127.448 Y101.256 E10.16065
G1 X127.629 Y101.674 E10.1758
G1 X127.733 Y102.117 E10.19093
G1 X127.759 Y102.572 E10.20609
G1 X127.704 Y103.025 E10.22127
G1 X127.572 Y103.461 E10.23642
G1 X127.365 Y103.867 E10.25158
G1 X127.091 Y104.231 E10.26673
G1 X126.758 Y104.541 E10.28186
G1 X126.375 Y104.789 E10.29704
G1 X125.955 Y104.965 E10.31219
G1 X125.511 Y105.066 E10.32733
G1 X125.198 Y105.09 E10.33777
G1 X124.185 Y105.105 E10.37147
G1 X123.731 Y105.072 E10.38661
G1 X123.289 Y104.959 E10.40178
G1 X122.874 Y104.772 E10.41692
G1 X122.498 Y104.515 E10.43207
G1 X122.475 Y104.493 E10.43313
G1 X112.38 Y101.789 E10.78072
G1 X111.974 Y101.93 E10.79502
G1 X111.637 Y102.022 E10.80664
G1 X111.08 Y102.135 E10.82554
G1 X110.738 Y102.181 E10.83702
G1 X110.175 Y102.219 E10.85579
G1 X109.833 Y102.22 E10.86716
G1 X109.273 Y102.184 E10.88583
G1 X108.926 Y102.138 E10.89747
G1 X108.371 Y102.026 E10.9163
G1 X108.031 Y101.933 E10.92802
G1 X107.62 Y101.79 E10.9425
G1 X97.462 Y104.511 E11.29226
G1 X96.789 Y104.6 E11.31484
G1 X95.09 Y104.6 E11.37135
G1 X94.636 Y104.56 E11.38651
G1 X94.196 Y104.442 E11.40166
G1 X93.784 Y104.248 E11.41681
G1 X93.411 Y103.985 E11.43199
G1 X93.09 Y103.662 E11.44713
G1 X92.831 Y103.287 E11.46229
G1 X92.641 Y102.873 E11.47744
G1 X92.526 Y102.432 E11.4926
G1 X92.49 Y101.978 E11.50775
G1 X92.534 Y101.525 E11.52289
G1 X92.656 Y101.086 E11.53804
G1 X92.848 Y100.684 E11.55286
G1 X93.465 Y99.633 E11.59339
G1 X93.56 Y99.483 E11.5993
G1 X94.305 Y98.4 E11.64302
G1 X94.949 Y97.575 E11.67783
G1 X95.054 Y97.45 E11.68326
G1 X95.782 Y96.629 E11.71976
G1 X95.899 Y96.505 E11.72543
G0 F6000 X96.18 Y96.789
G1 F1200 X96.961 Y96.017 E11.76195
G1 X97.068 Y95.919 E11.76678
G1 X98.009 Y95.11 E11.80805
G1 X98.902 Y94.433 E11.84532
G1 X99.024 Y94.347 E11.85029
G1 X100.084 Y93.656 E11.89237
G1 X101.059 Y93.102 E11.92967
G1 X101.191 Y93.033 E11.93462
G1 X102.199 Y92.547 E11.97184
G1 X102.332 Y92.489 E11.97667
G1 X103.507 Y92.02 E12.01875
G1 X104.716 Y91.626 E12.06104
G1 X105.949 Y91.316 E12.10333
G1 X107.047 Y91.111 E12.14048
G1 X107.193 Y91.089 E12.14539
G1 X108.445 Y90.946 E12.1873
G1 X109.705 Y90.885 E12.22926
G1 X110.82 Y90.9 E12.26635
G1 X112.222 Y91.012 E12.31313
G1 X113.327 Y91.174 E12.35027
G1 X113.475 Y91.201 E12.35527
G1 X114.738 Y91.48 E12.3983
G1 X115.953 Y91.834 E12.44039
G1 X117.008 Y92.214 E12.47768
G1 X117.144 Y92.269 E12.48256
G1 X118.305 Y92.782 E12.52478
G1 X119.424 Y93.369 E12.56681
G1 X120.384 Y93.949 E12.60411
G1 X120.508 Y94.03 E12.60904
G1 X121.545 Y94.762 E12.65126
G1 X122.527 Y95.561 E12.69336
G1 X123.452 Y96.42 E12.73535
G1 X124.289 Y97.302 E12.77579
G1 X125.099 Y98.277 E12.81795
G1 X125.778 Y99.207 E12.85625
G1 X125.863 Y99.332 E12.86128
G1 X126.475 Y100.304 E12.89948
G1 X126.549 Y100.432 E12.9044
G1 X127.096 Y101.446 E12.94272
G1 X127.259 Y101.832 E12.95665
G1 X127.346 Y102.242 E12.97059
G1 X127.353 Y102.661 E12.98453
G1 X127.281 Y103.073 E12.99844
G1 X127.132 Y103.465 E13.01239
G1 X126.912 Y103.821 E13.02631
G1 X126.627 Y104.129 E13.04027
G1 X126.29 Y104.378 E13.0542
G1 X125.912 Y104.558 E13.06813
G1 X125.506 Y104.663 E13.08208
G1 X125.193 Y104.69 E13.09253
G1 X124.18 Y104.705 E13.12622
