;FLAVOR:Marlin
;TIME:2789
;Filament used: 1.10751m
;Layer height: 0.13
;MINX:88.037
;MINY:88.037
;MINZ:0.2
;MAXX:131.963
;MAXY:131.963
;MAXZ:10.47
;Generated with Cura_SteamEngine 4.6.1
M140 S60
M105
M190 S60
M104 S205
M105
M109 S205
M82 ;absolute extrusion mode
; Ender 3 Custom Start G-code
G92 E0 ; Reset Extruder
G28 ; Home all axes
G1 Z2.0 F3000 ; Move Z Axis up little to prevent scratching of Heat Bed
G1 X0.1 Y20 Z0.3 F5000.0 ; Move to start position
G1 X0.1 Y200.0 Z0.3 F1500.0 E15 ; Draw the first line
G1 X0.4 Y200.0 Z0.3 F5000.0 ; Move to side a little
G1 X0.4 Y20 Z0.3 F1500.0 E30 ; Draw the second line
G92 E0 ; Reset Extruder
G1 Z2.0 F3000 ; Move Z Axis up little to prevent scratching of Heat Bed
G1 X5 Y20 Z0.3 F5000.0 ; Move over to prevent blob squish
G92 E0
G92 E0
G1 F1500 E-6
;LAYER_COUNT:80
;LAYER:0
M107
G0 F6000 X94.834 Y94.112 Z0.2
;TYPE:SKIRT
G1 F1500 E0
G1 F1200 X95.01 Y93.946 E0.00805
G1 X95.864 Y93.19 E0.04598
G1 X96.046 Y93.039 E0.05385
G1 X96.946 Y92.337 E0.09181
G1 X97.138 Y92.197 E0.09971
G1 X98.081 Y91.552 E0.13771
G1 X98.283 Y91.422 E0.1457
G1 X99.263 Y90.839 E0.18363
G1 X99.475 Y90.722 E0.19168
G1 X100.491 Y90.202 E0.22964
G1 X100.701 Y90.103 E0.23737
G1 X101.747 Y89.646 E0.27533
G1 X101.974 Y89.555 E0.28347
G1 X103.048 Y89.166 E0.32146
G1 X103.274 Y89.092 E0.32937
G1 X104.367 Y88.772 E0.36725
G1 X104.593 Y88.713 E0.37502
G1 X105.707 Y88.46 E0.41301
G1 X105.943 Y88.415 E0.421
G1 X107.069 Y88.233 E0.45894
G1 X107.309 Y88.202 E0.46699
G1 X108.446 Y88.092 E0.50498
G1 X108.682 Y88.076 E0.51285
G1 X109.821 Y88.037 E0.55075
G1 X110.061 Y88.037 E0.55874
G1 X111.202 Y88.07 E0.5967
G1 X111.438 Y88.084 E0.60456
G1 X112.574 Y88.188 E0.64251
G1 X112.813 Y88.217 E0.65051
G1 X113.942 Y88.393 E0.68852
G1 X114.179 Y88.438 E0.69654
G1 X115.294 Y88.685 E0.73453
G1 X115.519 Y88.742 E0.74225
G1 X116.614 Y89.056 E0.78013
G1 X116.845 Y89.13 E0.7882
G1 X117.92 Y89.514 E0.82617
G1 X118.141 Y89.601 E0.83407
G1 X119.189 Y90.051 E0.872
G1 X119.405 Y90.152 E0.87993
G1 X120.425 Y90.668 E0.91795
G1 X120.638 Y90.784 E0.92602
G1 X121.62 Y91.362 E0.96392
G1 X121.819 Y91.488 E0.97175
G1 X122.765 Y92.127 E1.00972
G1 X122.96 Y92.268 E1.01773
G1 X123.863 Y92.965 E1.05567
G1 X124.044 Y93.114 E1.06346
G1 X124.902 Y93.865 E1.10139
G1 X125.078 Y94.029 E1.10939
G1 X125.888 Y94.834 E1.14737
G1 X126.054 Y95.01 E1.15542
G1 X126.81 Y95.864 E1.19335
G1 X126.961 Y96.046 E1.20122
G1 X127.663 Y96.946 E1.23918
G1 X127.803 Y97.138 E1.24708
G1 X128.448 Y98.081 E1.28508
G1 X128.578 Y98.283 E1.29307
G1 X129.161 Y99.263 E1.331
G1 X129.278 Y99.475 E1.33905
G1 X129.798 Y100.491 E1.37702
G1 X129.897 Y100.701 E1.38474
G1 X130.354 Y101.747 E1.4227
G1 X130.444 Y101.973 E1.43079
G1 X130.833 Y103.046 E1.46875
G1 X130.908 Y103.274 E1.47674
G1 X131.228 Y104.368 E1.51465
G1 X131.286 Y104.593 E1.52238
G1 X131.539 Y105.706 E1.56034
G1 X131.585 Y105.942 E1.56834
G1 X131.767 Y107.068 E1.60627
G1 X131.798 Y107.308 E1.61432
G1 X131.908 Y108.445 E1.65232
G1 X131.924 Y108.681 E1.66018
G1 X131.963 Y109.82 E1.69809
G1 X131.963 Y110.06 E1.70607
G1 X131.93 Y111.202 E1.74407
G1 X131.916 Y111.438 E1.75193
G1 X131.812 Y112.574 E1.78988
G1 X131.783 Y112.813 E1.79788
G1 X131.607 Y113.942 E1.83589
G1 X131.562 Y114.179 E1.84391
G1 X131.315 Y115.294 E1.88189
G1 X131.258 Y115.519 E1.88961
G1 X130.944 Y116.614 E1.9275
G1 X130.87 Y116.845 E1.93557
G1 X130.486 Y117.92 E1.97354
G1 X130.399 Y118.141 E1.98144
G1 X129.949 Y119.189 E2.01937
G1 X129.848 Y119.404 E2.02727
G1 X129.333 Y120.423 E2.06525
G1 X129.216 Y120.638 E2.07339
G1 X128.637 Y121.621 E2.11133
G1 X128.512 Y121.819 E2.11912
G1 X127.873 Y122.765 E2.15709
G1 X127.732 Y122.96 E2.16509
G1 X127.035 Y123.863 E2.20303
G1 X126.886 Y124.044 E2.21083
G1 X126.135 Y124.902 E2.24876
G1 X125.971 Y125.078 E2.25676
G1 X125.166 Y125.888 E2.29474
G1 X124.99 Y126.054 E2.30279
G1 X124.136 Y126.81 E2.34072
G1 X123.954 Y126.961 E2.34859
G1 X123.054 Y127.663 E2.38655
G1 X122.862 Y127.803 E2.39445
G1 X121.919 Y128.448 E2.43245
G1 X121.717 Y128.578 E2.44044
G1 X120.737 Y129.161 E2.47837
G1 X120.525 Y129.278 E2.48642
G1 X119.509 Y129.798 E2.52438
G1 X119.299 Y129.897 E2.53211
G1 X118.253 Y130.354 E2.57007
G1 X118.026 Y130.445 E2.5782
G1 X116.952 Y130.834 E2.6162
G1 X116.726 Y130.908 E2.62411
G1 X115.633 Y131.228 E2.66199
G1 X115.407 Y131.287 E2.66975
G1 X114.293 Y131.54 E2.70775
G1 X114.057 Y131.585 E2.71574
G1 X112.931 Y131.767 E2.75368
G1 X112.691 Y131.798 E2.76173
G1 X111.554 Y131.908 E2.79972
G1 X111.318 Y131.924 E2.80759
G1 X110.179 Y131.963 E2.84549
G1 X109.939 Y131.963 E2.85348
G1 X108.798 Y131.93 E2.89144
G1 X108.562 Y131.916 E2.8993
G1 X107.426 Y131.812 E2.93725
G1 X107.187 Y131.783 E2.94525
G1 X106.058 Y131.607 E2.98326
G1 X105.821 Y131.562 E2.99128
G1 X104.706 Y131.315 E3.02926
G1 X104.481 Y131.258 E3.03698
G1 X103.386 Y130.944 E3.07487
G1 X103.155 Y130.87 E3.08294
G1 X102.08 Y130.486 E3.12091
G1 X101.859 Y130.399 E3.12881
G1 X100.811 Y129.949 E3.16674
G1 X100.595 Y129.848 E3.17467
G1 X99.575 Y129.332 E3.21269
G1 X99.362 Y129.216 E3.22076
G1 X98.38 Y128.638 E3.25866
G1 X98.18 Y128.511 E3.26654
G1 X97.233 Y127.871 E3.30455
G1 X97.039 Y127.731 E3.31251
G1 X96.136 Y127.034 E3.35045
G1 X95.955 Y126.885 E3.35825
G1 X95.097 Y126.134 E3.39617
G1 X94.921 Y125.97 E3.40417
G1 X94.111 Y125.165 E3.44216
G1 X93.945 Y124.989 E3.4502
G1 X93.189 Y124.135 E3.48814
G1 X93.038 Y123.953 E3.496
G1 X92.336 Y123.053 E3.53397
G1 X92.195 Y122.861 E3.54189
G1 X91.551 Y121.919 E3.57984
G1 X91.423 Y121.718 E3.58777
G1 X90.839 Y120.737 E3.62574
G1 X90.721 Y120.523 E3.63387
G1 X90.202 Y119.508 E3.67178
G1 X90.103 Y119.299 E3.67948
G1 X89.646 Y118.253 E3.71744
G1 X89.555 Y118.026 E3.72558
G1 X89.166 Y116.952 E3.76357
G1 X89.092 Y116.726 E3.77148
G1 X88.772 Y115.633 E3.80936
G1 X88.713 Y115.407 E3.81713
G1 X88.46 Y114.293 E3.85512
G1 X88.415 Y114.057 E3.86311
G1 X88.233 Y112.931 E3.90105
G1 X88.202 Y112.691 E3.9091
G1 X88.092 Y111.554 E3.94709
G1 X88.076 Y111.318 E3.95496
G1 X88.037 Y110.18 E3.99283
G1 X88.037 Y109.94 E4.00081
G1 X88.07 Y108.798 E4.03881
G1 X88.084 Y108.562 E4.04668
G1 X88.188 Y107.426 E4.08462
G1 X88.217 Y107.187 E4.09262
G1 X88.393 Y106.058 E4.13063
G1 X88.438 Y105.821 E4.13865
G1 X88.685 Y104.706 E4.17664
G1 X88.742 Y104.481 E4.18436
G1 X89.056 Y103.386 E4.22224
G1 X89.13 Y103.155 E4.23031
G1 X89.514 Y102.08 E4.26828
G1 X89.601 Y101.859 E4.27618
G1 X90.051 Y100.811 E4.31411
G1 X90.152 Y100.596 E4.32201
G1 X90.667 Y99.577 E4.35999
G1 X90.784 Y99.362 E4.36813
G1 X91.363 Y98.379 E4.40607
G1 X91.488 Y98.181 E4.41386
G1 X92.127 Y97.235 E4.45183
G1 X92.268 Y97.04 E4.45984
G1 X92.965 Y96.137 E4.49778
G1 X93.114 Y95.956 E4.50557
G1 X93.865 Y95.098 E4.5435
G1 X94.029 Y94.922 E4.5515
G1 X94.834 Y94.112 E4.58948
G0 F6000 X95.117 Y94.394
G1 F1200 X95.275 Y94.245 E4.5967
G1 X96.129 Y93.489 E4.63464
G1 X96.292 Y93.354 E4.64168
G1 X97.192 Y92.652 E4.67964
G1 X97.364 Y92.527 E4.68671
G1 X98.307 Y91.882 E4.72471
G1 X98.488 Y91.766 E4.73186
G1 X99.468 Y91.183 E4.76979
G1 X99.657 Y91.078 E4.77698
G1 X100.673 Y90.558 E4.81494
G1 X100.861 Y90.469 E4.82186
G1 X101.907 Y90.012 E4.85983
G1 X102.11 Y89.931 E4.8671
G1 X103.184 Y89.542 E4.90509
G1 X103.387 Y89.476 E4.91219
G1 X104.48 Y89.156 E4.95007
G1 X104.682 Y89.103 E4.95701
G1 X105.796 Y88.85 E4.99501
G1 X106.006 Y88.81 E5.00212
G1 X107.132 Y88.628 E5.04006
G1 X107.348 Y88.6 E5.0473
G1 X108.485 Y88.49 E5.08529
G1 X108.696 Y88.476 E5.09233
G1 X109.835 Y88.437 E5.13023
G1 X110.049 Y88.436 E5.13735
G1 X111.19 Y88.469 E5.17532
G1 X111.402 Y88.482 E5.18238
G1 X112.538 Y88.586 E5.22032
G1 X112.752 Y88.613 E5.2275
G1 X113.881 Y88.789 E5.2655
G1 X114.092 Y88.828 E5.27264
G1 X115.207 Y89.075 E5.31062
G1 X115.409 Y89.127 E5.31756
G1 X116.504 Y89.441 E5.35545
G1 X116.711 Y89.507 E5.36267
G1 X117.786 Y89.891 E5.40064
G1 X117.983 Y89.969 E5.40769
G1 X119.031 Y90.419 E5.44562
G1 X119.225 Y90.509 E5.45273
G1 X120.245 Y91.025 E5.49075
G1 X120.435 Y91.129 E5.49796
G1 X121.417 Y91.707 E5.53586
G1 X121.595 Y91.82 E5.54287
G1 X122.541 Y92.459 E5.58084
G1 X122.715 Y92.585 E5.58798
G1 X123.618 Y93.282 E5.62592
G1 X123.78 Y93.415 E5.6329
G1 X124.638 Y94.166 E5.67082
G1 X124.796 Y94.312 E5.67798
G1 X125.606 Y95.117 E5.71596
G1 X125.755 Y95.275 E5.72318
G1 X126.511 Y96.129 E5.76112
G1 X126.646 Y96.292 E5.76816
G1 X127.348 Y97.192 E5.80612
G1 X127.473 Y97.364 E5.81319
G1 X128.118 Y98.307 E5.85119
G1 X128.234 Y98.488 E5.85834
G1 X128.817 Y99.468 E5.89627
G1 X128.922 Y99.657 E5.90346
G1 X129.442 Y100.673 E5.94142
G1 X129.531 Y100.861 E5.94834
G1 X129.988 Y101.907 E5.9863
G1 X130.068 Y102.109 E5.99353
G1 X130.457 Y103.182 E6.03149
G1 X130.524 Y103.386 E6.03863
G1 X130.844 Y104.48 E6.07654
G1 X130.896 Y104.681 E6.08345
G1 X131.149 Y105.794 E6.12141
G1 X131.19 Y106.005 E6.12856
G1 X131.372 Y107.131 E6.1665
G1 X131.4 Y107.347 E6.17374
G1 X131.51 Y108.484 E6.21173
G1 X131.524 Y108.695 E6.21877
G1 X131.563 Y109.834 E6.25667
G1 X131.564 Y110.048 E6.26379
G1 X131.531 Y111.19 E6.30179
G1 X131.518 Y111.402 E6.30885
G1 X131.414 Y112.538 E6.3468
G1 X131.387 Y112.752 E6.35397
G1 X131.211 Y113.881 E6.39197
G1 X131.172 Y114.092 E6.39911
G1 X130.925 Y115.207 E6.4371
G1 X130.873 Y115.409 E6.44403
G1 X130.559 Y116.504 E6.48192
G1 X130.493 Y116.711 E6.48915
G1 X130.109 Y117.786 E6.52711
G1 X130.031 Y117.983 E6.53416
G1 X129.581 Y119.031 E6.5721
G1 X129.491 Y119.224 E6.57918
G1 X128.976 Y120.243 E6.61715
G1 X128.872 Y120.435 E6.62442
G1 X128.293 Y121.418 E6.66236
G1 X128.18 Y121.595 E6.66934
G1 X127.541 Y122.541 E6.70731
G1 X127.415 Y122.715 E6.71446
G1 X126.718 Y123.618 E6.7524
G1 X126.585 Y123.78 E6.75937
G1 X125.834 Y124.638 E6.7973
G1 X125.688 Y124.796 E6.80445
G1 X124.883 Y125.606 E6.84243
G1 X124.725 Y125.755 E6.84966
G1 X123.871 Y126.511 E6.88759
G1 X123.708 Y126.646 E6.89463
G1 X122.808 Y127.348 E6.93259
G1 X122.636 Y127.473 E6.93967
G1 X121.693 Y128.118 E6.97767
G1 X121.512 Y128.234 E6.98482
G1 X120.532 Y128.817 E7.02274
G1 X120.343 Y128.922 E7.02993
G1 X119.327 Y129.442 E7.06789
G1 X119.139 Y129.531 E7.07481
G1 X118.093 Y129.988 E7.11278
G1 X117.89 Y130.069 E7.12005
G1 X116.816 Y130.458 E7.15804
G1 X116.613 Y130.524 E7.16514
G1 X115.52 Y130.844 E7.20302
G1 X115.318 Y130.897 E7.20997
G1 X114.204 Y131.15 E7.24796
G1 X113.994 Y131.19 E7.25507
G1 X112.868 Y131.372 E7.29301
G1 X112.652 Y131.4 E7.30025
G1 X111.515 Y131.51 E7.33825
G1 X111.304 Y131.524 E7.34528
G1 X110.165 Y131.563 E7.38318
G1 X109.951 Y131.564 E7.3903
G1 X108.81 Y131.531 E7.42827
G1 X108.598 Y131.518 E7.43533
G1 X107.462 Y131.414 E7.47327
G1 X107.248 Y131.387 E7.48045
G1 X106.119 Y131.211 E7.51845
G1 X105.908 Y131.172 E7.52559
G1 X104.793 Y130.925 E7.56357
G1 X104.591 Y130.873 E7.57051
G1 X103.496 Y130.559 E7.6084
G1 X103.289 Y130.493 E7.61562
G1 X102.214 Y130.109 E7.65359
G1 X102.017 Y130.031 E7.66064
G1 X100.969 Y129.581 E7.69857
G1 X100.775 Y129.491 E7.70569
G1 X99.755 Y128.975 E7.7437
G1 X99.565 Y128.871 E7.75091
G1 X98.583 Y128.293 E7.78881
G1 X98.404 Y128.18 E7.79585
G1 X97.457 Y127.54 E7.83386
G1 X97.284 Y127.414 E7.84098
G1 X96.381 Y126.717 E7.87892
G1 X96.219 Y126.584 E7.88589
G1 X95.361 Y125.833 E7.92382
G1 X95.203 Y125.687 E7.93097
G1 X94.393 Y124.882 E7.96896
G1 X94.244 Y124.724 E7.97618
G1 X93.488 Y123.87 E8.01412
G1 X93.353 Y123.707 E8.02115
G1 X92.651 Y122.807 E8.05912
G1 X92.525 Y122.635 E8.06621
G1 X91.881 Y121.693 E8.10416
G1 X91.766 Y121.513 E8.11127
G1 X91.182 Y120.532 E8.14924
G1 X91.077 Y120.341 E8.15649
G1 X90.558 Y119.326 E8.1944
G1 X90.469 Y119.139 E8.20129
G1 X90.012 Y118.093 E8.23926
G1 X89.931 Y117.89 E8.24653
G1 X89.542 Y116.816 E8.28452
G1 X89.476 Y116.613 E8.29162
G1 X89.156 Y115.52 E8.3295
G1 X89.103 Y115.318 E8.33645
G1 X88.85 Y114.204 E8.37444
G1 X88.81 Y113.994 E8.38155
G1 X88.628 Y112.868 E8.41949
G1 X88.6 Y112.652 E8.42673
G1 X88.49 Y111.515 E8.46473
G1 X88.476 Y111.304 E8.47176
G1 X88.437 Y110.166 E8.50963
G1 X88.436 Y109.952 E8.51675
G1 X88.469 Y108.81 E8.55475
G1 X88.482 Y108.598 E8.56181
G1 X88.586 Y107.462 E8.59975
G1 X88.613 Y107.248 E8.60693
G1 X88.789 Y106.119 E8.64493
G1 X88.828 Y105.908 E8.65207
G1 X89.075 Y104.793 E8.69005
G1 X89.127 Y104.591 E8.69699
G1 X89.441 Y103.496 E8.73488
G1 X89.507 Y103.289 E8.7421
G1 X89.891 Y102.214 E8.78007
G1 X89.969 Y102.017 E8.78712
G1 X90.419 Y100.969 E8.82505
G1 X90.509 Y100.776 E8.83214
G1 X91.024 Y99.757 E8.87011
G1 X91.128 Y99.565 E8.87737
G1 X91.707 Y98.582 E8.91532
G1 X91.82 Y98.405 E8.9223
G1 X92.459 Y97.459 E8.96027
G1 X92.585 Y97.285 E8.96742
G1 X93.282 Y96.382 E9.00536
G1 X93.415 Y96.22 E9.01233
G1 X94.166 Y95.362 E9.05025
G1 X94.312 Y95.204 E9.05741
G1 X95.117 Y94.394 E9.09539
G0 F6000 X95.401 Y94.676
G1 F1200 X95.54 Y94.545 E9.10174
G1 X96.394 Y93.789 E9.13968
G1 X96.538 Y93.669 E9.14591
G1 X97.438 Y92.967 E9.18388
G1 X97.589 Y92.857 E9.19009
G1 X98.532 Y92.212 E9.22809
G1 X98.692 Y92.11 E9.2344
G1 X99.672 Y91.527 E9.27233
G1 X99.839 Y91.434 E9.27868
G1 X100.855 Y90.914 E9.31665
G1 X101.021 Y90.836 E9.32275
G1 X102.067 Y90.379 E9.36071
G1 X102.246 Y90.307 E9.36713
G1 X103.32 Y89.918 E9.40512
G1 X103.499 Y89.86 E9.41138
G1 X104.592 Y89.54 E9.44926
G1 X104.771 Y89.493 E9.45541
G1 X105.885 Y89.24 E9.49341
G1 X106.07 Y89.204 E9.49968
G1 X107.196 Y89.022 E9.53761
G1 X107.386 Y88.998 E9.54398
G1 X108.523 Y88.888 E9.58198
G1 X108.709 Y88.876 E9.58818
G1 X109.848 Y88.837 E9.62608
G1 X110.038 Y88.836 E9.6324
G1 X111.179 Y88.869 E9.67037
G1 X111.366 Y88.88 E9.6766
G1 X112.502 Y88.984 E9.71454
G1 X112.69 Y89.008 E9.72084
G1 X113.819 Y89.184 E9.75885
G1 X114.006 Y89.219 E9.76517
G1 X115.121 Y89.466 E9.80316
G1 X115.299 Y89.511 E9.80927
G1 X116.394 Y89.825 E9.84715
G1 X116.576 Y89.884 E9.85352
G1 X117.651 Y90.268 E9.89148
G1 X117.826 Y90.336 E9.89773
G1 X118.874 Y90.786 E9.93566
G1 X119.044 Y90.866 E9.94191
G1 X120.064 Y91.382 E9.97993
G1 X120.232 Y91.474 E9.9863
G1 X121.214 Y92.052 E10.0242
G1 X121.371 Y92.151 E10.03037
G1 X122.317 Y92.79 E10.06834
G1 X122.471 Y92.901 E10.07466
G1 X123.374 Y93.598 E10.1126
G1 X123.517 Y93.716 E10.11876
G1 X124.375 Y94.467 E10.15669
G1 X124.514 Y94.596 E10.163
G1 X125.324 Y95.401 E10.20098
G1 X125.455 Y95.54 E10.20733
G1 X126.211 Y96.394 E10.24527
G1 X126.331 Y96.538 E10.2515
G1 X127.033 Y97.438 E10.28946
G1 X127.143 Y97.589 E10.29568
G1 X127.788 Y98.532 E10.33368
G1 X127.89 Y98.692 E10.33999
G1 X128.473 Y99.672 E10.37791
G1 X128.566 Y99.839 E10.38427
G1 X129.086 Y100.855 E10.42223
G1 X129.164 Y101.021 E10.42833
G1 X129.621 Y102.067 E10.4663
G1 X129.692 Y102.246 E10.4727
G1 X130.081 Y103.319 E10.51067
G1 X130.14 Y103.499 E10.51697
G1 X130.46 Y104.593 E10.55488
G1 X130.506 Y104.77 E10.56096
G1 X130.759 Y105.883 E10.59892
G1 X130.796 Y106.069 E10.60523
G1 X130.978 Y107.195 E10.64317
G1 X131.002 Y107.385 E10.64954
G1 X131.112 Y108.522 E10.68753
G1 X131.124 Y108.708 E10.69373
G1 X131.163 Y109.847 E10.73163
G1 X131.164 Y110.037 E10.73795
G1 X131.131 Y111.179 E10.77595
G1 X131.12 Y111.366 E10.78218
G1 X131.016 Y112.502 E10.82012
G1 X130.992 Y112.69 E10.82643
G1 X130.816 Y113.819 E10.86443
G1 X130.781 Y114.006 E10.87076
G1 X130.534 Y115.121 E10.90874
G1 X130.489 Y115.299 E10.91485
G1 X130.175 Y116.394 E10.95274
G1 X130.116 Y116.576 E10.9591
G1 X129.732 Y117.651 E10.99707
G1 X129.664 Y117.826 E11.00331
G1 X129.214 Y118.874 E11.04125
G1 X129.134 Y119.043 E11.04747
G1 X128.619 Y120.062 E11.08544
G1 X128.527 Y120.232 E11.09187
G1 X127.948 Y121.215 E11.12982
G1 X127.849 Y121.371 E11.13596
G1 X127.21 Y122.317 E11.17393
G1 X127.099 Y122.471 E11.18024
G1 X126.402 Y123.374 E11.21818
G1 X126.284 Y123.517 E11.22435
G1 X125.533 Y124.375 E11.26228
