;FLAVOR:Marlin
;TIME:3512
;Filament used: 2.21208m
;Layer height: 0.2
;MINX:99.084
;MINY:71.382
;MINZ:0.2
;MAXX:120.917
;MAXY:148.588
;MAXZ:134.4
;Generated with Cura_SteamEngine 4.6.1
M140 S60
M105
M190 S60
M104 S220
M105
M109 S220
M82 ;absolute extrusion mode
; Ender 3 Custom Start G-code
G92 E0 ; Reset Extruder
G28 ; Home all axes
G1 Z2.0 F3000 ; Move Z Axis up little to prevent scratching of Heat Bed
G1 X0.1 Y20 Z0.3 F5000.0 ; Move to start position
G1 X0.1 Y200.0 Z0.3 F1500.0 E15 ; Draw the first line
G1 X0.4 Y200.0 Z0.3 F5000.0 ; Move to side a little
G1 X0.4 Y20 Z0.3 F1500.0 E30 ; Draw the second line
G92 E0 ; Reset Extruder
G1 Z2.0 F3000 ; Move Z Axis up little to prevent scratching of Heat Bed
G1 X5 Y20 Z0.3 F5000.0 ; Move over to prevent blob squish
G92 E0
G92 E0
G1 F1500 E-6
;LAYER_COUNT:672
;LAYER:0
M107
G0 F6000 X101.83 Y73.624 Z0.2
;TYPE:SKIRT
G1 F1500 E0.04158
G1 F1200 X102.278 Y73.112 E0.0642
G1 X102.784 Y72.655 E0.08688
G1 X103.339 Y72.262 E0.1095
G1 X103.937 Y71.936 E0.13215
G1 X104.569 Y71.682 E0.15481
G1 X105.226 Y71.504 E0.17745
G1 X105.9 Y71.404 E0.20011
G1 X106.41 Y71.382 E0.21709
G1 X113.59 Y71.382 E0.4559
G1 X114.27 Y71.422 E0.47855
G1 X114.94 Y71.541 E0.50118
G1 X115.592 Y71.738 E0.52384
G1 X116.216 Y72.01 E0.54648
G1 X116.804 Y72.354 E0.56914
G1 X117.348 Y72.764 E0.59179
G1 X117.839 Y73.235 E0.61442
G1 X118.273 Y73.76 E0.63708
G1 X118.642 Y74.332 E0.65972
G1 X118.941 Y74.944 E0.68237
G1 X119.166 Y75.586 E0.705
G1 X119.315 Y76.251 E0.72767
G1 X119.374 Y76.754 E0.74451
G1 X119.506 Y78.54 E0.80408
G1 X119.857 Y83.691 E0.9758
G1 X120.175 Y88.906 E1.14957
G1 X120.447 Y94.135 E1.32372
G1 X120.637 Y98.537 E1.47027
G1 X120.785 Y102.949 E1.6171
G1 X120.876 Y106.991 E1.75157
G1 X120.917 Y110.985 E1.88441
G1 X120.908 Y114.294 E1.99447
G1 X120.859 Y117.609 E2.10474
G1 X120.766 Y120.753 E2.20936
G1 X120.617 Y123.885 E2.31365
G1 X120.476 Y126.092 E2.3872
G1 X120.302 Y128.345 E2.46236
G1 X120.094 Y130.528 E2.5353
G1 X119.963 Y131.681 E2.57389
G1 X119.699 Y133.617 E2.63888
G1 X119.345 Y135.822 E2.71316
G1 X119.08 Y137.258 E2.76172
G1 X118.899 Y138.106 E2.79056
G1 X118.625 Y139.211 E2.82843
G1 X118.567 Y139.424 E2.83577
G1 X118.25 Y140.514 E2.87353
G1 X117.83 Y141.798 E2.91846
G1 X117.617 Y142.379 E2.93904
G1 X117.496 Y142.683 E2.94992
G1 X117.29 Y143.16 E2.96721
G1 X117.121 Y143.515 E2.98028
G1 X116.88 Y143.983 E2.99779
G1 X116.668 Y144.361 E3.01221
G1 X116.449 Y144.718 E3.02614
G1 X116.175 Y145.125 E3.04245
G1 X115.926 Y145.463 E3.05642
G1 X115.575 Y145.894 E3.07491
G1 X115.359 Y146.135 E3.08567
G1 X114.908 Y146.586 E3.10688
G1 X114.67 Y146.799 E3.11751
G1 X114.058 Y147.277 E3.14333
G1 X113.831 Y147.431 E3.15246
G1 X113.246 Y147.779 E3.1751
G1 X112.917 Y147.937 E3.18724
G1 X112.67 Y148.046 E3.19622
G1 X112.032 Y148.284 E3.21886
G1 X111.27 Y148.463 E3.2449
G1 X110.942 Y148.517 E3.25595
G1 X110.265 Y148.588 E3.2786
G1 X109.584 Y148.579 E3.30125
G1 X108.721 Y148.451 E3.33026
G1 X108.27 Y148.349 E3.34564
G1 X107.615 Y148.16 E3.36832
G1 X106.988 Y147.896 E3.39095
G1 X106.525 Y147.641 E3.40853
G1 X106.178 Y147.429 E3.42205
G1 X105.363 Y146.828 E3.45573
G1 X105.115 Y146.609 E3.46674
G1 X104.605 Y146.098 E3.49075
G1 X104.395 Y145.86 E3.5013
G1 X104.074 Y145.463 E3.51829
G1 X103.825 Y145.125 E3.53225
G1 X103.552 Y144.718 E3.54855
G1 X103.336 Y144.366 E3.56228
G1 X103.124 Y143.992 E3.57658
G1 X102.88 Y143.519 E3.59429
G1 X102.706 Y143.15 E3.60785
G1 X102.504 Y142.68 E3.62487
G1 X102.392 Y142.398 E3.63496
G1 X102.1 Y141.594 E3.66341
G1 X101.714 Y140.391 E3.70543
G1 X101.389 Y139.254 E3.74476
G1 X101.071 Y137.958 E3.78915
G1 X100.897 Y137.139 E3.817
G1 X100.637 Y135.717 E3.86508
G1 X100.276 Y133.446 E3.94156
G1 X100.032 Y131.622 E4.00276
G1 X99.899 Y130.456 E4.0418
G1 X99.692 Y128.272 E4.11476
G1 X99.521 Y126.046 E4.18902
G1 X99.373 Y123.734 E4.26607
G1 X99.226 Y120.589 E4.37079
G1 X99.136 Y117.415 E4.4764
G1 X99.09 Y114.164 E4.58454
G1 X99.084 Y110.799 E4.69646
G1 X99.128 Y106.863 E4.82738
G1 X99.221 Y102.776 E4.96335
G1 X99.369 Y98.372 E5.10991
G1 X99.563 Y93.919 E5.25816
G1 X99.834 Y88.743 E5.43055
G1 X100.148 Y83.621 E5.60123
G1 X100.498 Y78.505 E5.77178
G1 X100.626 Y76.758 E5.83004
G1 X100.715 Y76.083 E5.85269
G1 X100.883 Y75.423 E5.87534
G1 X101.127 Y74.788 E5.89797
G1 X101.444 Y74.185 E5.92063
G1 X101.83 Y73.624 E5.94327
G0 F6000 X102.217 Y73.779
G1 F1200 X102.662 Y73.295 E5.96514
G1 X103.161 Y72.868 E5.98699
G1 X103.709 Y72.506 E6.00883
G1 X104.297 Y72.213 E6.03068
G1 X104.916 Y71.993 E6.05253
G1 X105.557 Y71.85 E6.07437
G1 X106.41 Y71.782 E6.10284
G1 X113.59 Y71.782 E6.34164
G1 X114.246 Y71.822 E6.3635
G1 X114.892 Y71.941 E6.38535
G1 X115.519 Y72.138 E6.40721
G1 X116.117 Y72.41 E6.42906
G1 X116.678 Y72.752 E6.45091
G1 X117.193 Y73.16 E6.47277
G1 X117.655 Y73.627 E6.49461
G1 X118.056 Y74.147 E6.51645
G1 X118.392 Y74.711 E6.53829
G1 X118.656 Y75.313 E6.56015
G1 X118.846 Y75.942 E6.58201
G1 X118.975 Y76.784 E6.61034
G1 X119.107 Y78.57 E6.6699
G1 X119.458 Y83.719 E6.84156
G1 X119.773 Y88.878 E7.01347
G1 X120.045 Y94.106 E7.18759
G1 X120.237 Y98.551 E7.33556
G1 X120.385 Y102.958 E7.48222
G1 X120.476 Y106.996 E7.61656
G1 X120.517 Y110.984 E7.74921
G1 X120.508 Y114.288 E7.8591
G1 X120.459 Y117.597 E7.96917
G1 X120.367 Y120.734 E8.07356
G1 X120.218 Y123.86 E8.17764
G1 X120.077 Y126.061 E8.251
G1 X119.904 Y128.307 E8.32592
G1 X119.697 Y130.483 E8.39862
G1 X119.566 Y131.627 E8.43692
G1 X119.304 Y133.554 E8.5016
G1 X118.952 Y135.749 E8.57554
G1 X118.688 Y137.177 E8.62384
G1 X118.51 Y138.01 E8.65218
G1 X118.183 Y139.313 E8.69686
G1 X117.869 Y140.391 E8.7342
G1 X117.454 Y141.661 E8.77864
G1 X117.241 Y142.242 E8.79922
G1 X117.128 Y142.524 E8.80933
G1 X116.922 Y143.001 E8.82661
G1 X116.766 Y143.332 E8.83878
G1 X116.525 Y143.8 E8.85629
G1 X116.327 Y144.152 E8.86972
G1 X116.108 Y144.509 E8.88365
G1 X115.853 Y144.888 E8.89884
G1 X115.604 Y145.226 E8.91281
G1 X115.277 Y145.627 E8.93001
G1 X115.061 Y145.868 E8.94078
G1 X114.641 Y146.288 E8.96053
G1 X114.403 Y146.501 E8.97116
G1 X113.834 Y146.946 E8.99518
G1 X113.607 Y147.1 E9.00431
G1 X112.755 Y147.571 E9.03669
G1 X112.508 Y147.68 E9.04567
G1 X111.892 Y147.909 E9.06752
G1 X111.205 Y148.068 E9.09098
G1 X110.877 Y148.122 E9.10203
G1 X110.224 Y148.189 E9.12387
G1 X109.567 Y148.177 E9.14572
G1 X108.809 Y148.061 E9.17123
G1 X108.358 Y147.959 E9.18661
G1 X107.727 Y147.775 E9.20847
G1 X107.123 Y147.516 E9.23033
G1 X106.734 Y147.3 E9.24512
G1 X106.387 Y147.088 E9.25865
G1 X105.628 Y146.528 E9.29002
G1 X105.38 Y146.309 E9.30103
G1 X104.905 Y145.834 E9.32337
G1 X104.695 Y145.596 E9.33392
G1 X104.396 Y145.226 E9.34975
G1 X104.147 Y144.888 E9.36371
G1 X103.892 Y144.509 E9.3789
G1 X103.676 Y144.157 E9.39264
G1 X103.48 Y143.809 E9.40592
G1 X103.236 Y143.336 E9.42363
G1 X103.074 Y142.992 E9.43627
G1 X102.872 Y142.522 E9.45329
G1 X102.767 Y142.259 E9.46271
G1 X102.481 Y141.471 E9.49059
G1 X102.098 Y140.28 E9.5322
G1 X101.777 Y139.158 E9.57101
G1 X101.462 Y137.874 E9.61499
G1 X101.291 Y137.066 E9.64246
G1 X101.032 Y135.654 E9.6902
G1 X100.672 Y133.393 E9.76635
G1 X100.429 Y131.576 E9.82732
G1 X100.297 Y130.418 E9.86609
G1 X100.091 Y128.242 E9.93878
G1 X99.92 Y126.021 E10.01287
G1 X99.773 Y123.715 E10.08973
G1 X99.626 Y120.578 E10.19418
G1 X99.536 Y117.409 E10.29962
G1 X99.49 Y114.163 E10.4076
G1 X99.484 Y110.803 E10.51935
G1 X99.527 Y106.873 E10.65007
G1 X99.621 Y102.79 E10.78591
G1 X99.769 Y98.389 E10.93237
G1 X99.96 Y93.988 E11.07888
G1 X100.23 Y88.816 E11.25114
G1 X100.547 Y83.646 E11.42342
G1 X100.897 Y78.533 E11.59387
G1 X101.024 Y76.787 E11.6521
G1 X101.112 Y76.136 E11.67395
G1 X101.278 Y75.501 E11.69578
G1 X101.521 Y74.89 E11.71765
G1 X101.835 Y74.313 E11.7395
G1 X102.217 Y73.779 E11.76134
G0 F6000 X102.604 Y73.939
G1 F1200 X103.044 Y73.485 E11.78236
G1 X103.537 Y73.09 E11.80337
G1 X104.077 Y72.76 E11.82442
G1 X104.653 Y72.501 E11.84543
G1 X105.258 Y72.317 E11.86646
G1 X105.881 Y72.21 E11.88749
G1 X106.41 Y72.182 E11.9051
G1 X113.59 Y72.182 E12.14391
G1 X114.221 Y72.222 E12.16494
G1 X114.842 Y72.341 E12.18597
G1 X115.442 Y72.538 E12.20698
G1 X116.014 Y72.809 E12.22803
G1 X116.546 Y73.149 E12.24903
G1 X117.031 Y73.555 E12.27007
G1 X117.461 Y74.018 E12.29108
G1 X117.83 Y74.532 E12.31213
G1 X118.13 Y75.088 E12.33314
G1 X118.358 Y75.677 E12.35415
G1 X118.51 Y76.291 E12.37518
G1 X118.576 Y76.813 E12.39268
G1 X118.708 Y78.599 E12.45225
G1 X119.058 Y83.746 E12.62383
G1 X119.374 Y88.902 E12.79565
G1 X119.645 Y94.127 E12.96966
G1 X119.835 Y98.516 E13.11578
G1 X119.985 Y102.967 E13.2639
G1 X120.076 Y107 E13.39808
G1 X120.117 Y110.983 E13.53056
G1 X120.108 Y114.282 E13.64028
G1 X120.059 Y117.586 E13.75019
G1 X119.967 Y120.715 E13.8543
G1 X119.819 Y123.834 E13.95816
G1 X119.678 Y126.031 E14.03138
G1 X119.506 Y128.27 E14.10607
G1 X119.299 Y130.438 E14.17851
G1 X119.17 Y131.574 E14.21653
G1 X118.909 Y133.491 E14.28088
G1 X118.559 Y135.677 E14.35451
G1 X118.296 Y137.095 E14.40248
G1 X118.122 Y137.913 E14.4303
G1 X117.799 Y139.202 E14.47449
G1 X117.488 Y140.268 E14.51143
G1 X117.078 Y141.523 E14.55534
G1 X116.865 Y142.104 E14.57592
G1 X116.761 Y142.365 E14.58527
G1 X116.555 Y142.842 E14.60255
G1 X116.41 Y143.149 E14.61384
G1 X116.169 Y143.617 E14.63135
G1 X115.986 Y143.942 E14.64375
G1 X115.767 Y144.299 E14.65768
G1 X115.531 Y144.651 E14.67178
G1 X115.282 Y144.989 E14.68574
G1 X114.979 Y145.36 E14.70167
G1 X114.763 Y145.601 E14.71244
G1 X114.374 Y145.99 E14.73073
G1 X114.136 Y146.203 E14.74136
G1 X113.609 Y146.615 E14.76361
G1 X113.382 Y146.769 E14.77273
G1 X112.594 Y147.205 E14.80268
G1 X112.347 Y147.314 E14.81166
G1 X111.753 Y147.533 E14.83272
G1 X111.14 Y147.674 E14.85364
G1 X110.812 Y147.728 E14.8647
G1 X110.183 Y147.791 E14.88572
G1 X109.551 Y147.774 E14.90675
G1 X108.897 Y147.671 E14.92877
G1 X108.446 Y147.569 E14.94415
G1 X107.84 Y147.391 E14.96516
G1 X107.26 Y147.137 E14.98622
G1 X106.942 Y146.959 E14.99834
G1 X106.595 Y146.747 E15.01186
G1 X105.892 Y146.228 E15.04093
G1 X105.644 Y146.009 E15.05193
G1 X105.205 Y145.569 E15.0726
G1 X104.995 Y145.331 E15.08316
G1 X104.718 Y144.989 E15.0978
G1 X104.469 Y144.651 E15.11176
G1 X104.233 Y144.3 E15.12583
G1 X104.017 Y143.948 E15.13956
G1 X103.835 Y143.625 E15.1519
G1 X103.591 Y143.152 E15.1696
G1 X103.441 Y142.834 E15.18129
G1 X103.239 Y142.364 E15.19831
G1 X103.142 Y142.121 E15.20701
G1 X102.861 Y141.348 E15.23436
G1 X102.483 Y140.169 E15.27554
G1 X102.166 Y139.061 E15.31388
G1 X101.853 Y137.79 E15.35741
G1 X101.684 Y136.994 E15.38448
G1 X101.427 Y135.591 E15.43192
G1 X101.068 Y133.339 E15.50777
G1 X100.827 Y131.531 E15.56843
G1 X100.696 Y130.38 E15.60696
G1 X100.49 Y128.211 E15.67943
G1 X100.319 Y125.995 E15.75335
G1 X100.173 Y123.696 E15.82997
G1 X100.026 Y120.566 E15.93419
G1 X99.936 Y117.404 E16.0394
G1 X99.89 Y114.162 E16.14724
G1 X99.884 Y110.808 E16.25879
G1 X99.927 Y106.882 E16.38938
G1 X100.021 Y102.803 E16.52509
G1 X100.167 Y98.455 E16.66978
G1 X100.36 Y94.005 E16.81793
G1 X100.63 Y88.837 E16.99005
G1 X100.946 Y83.67 E17.16223
G1 X101.296 Y78.56 E17.33259
G1 X101.423 Y76.816 E17.39074
G1 X101.509 Y76.19 E17.41176
G1 X101.674 Y75.58 E17.43278
G1 X101.914 Y74.995 E17.45381
G1 X102.226 Y74.445 E17.47484
G1 X102.604 Y73.939 E17.49585
G0 F6000 X102.615 Y74.582
G1 F1200 X102.99 Y74.105 E17.51603
G1 X103.425 Y73.682 E17.53621
G1 X103.911 Y73.32 E17.55637
G1 X104.441 Y73.025 E17.57654
G1 X105.004 Y72.802 E17.59668
G1 X105.593 Y72.655 E17.61687
G1 X106.41 Y72.582 E17.64415
G1 X113.59 Y72.582 E17.88296
G1 X114.195 Y72.622 E17.90313
G1 X114.789 Y72.741 E17.92328
G1 X115.363 Y72.937 E17.94345
G1 X115.906 Y73.208 E17.96364
G1 X116.409 Y73.547 E17.98381
G1 X116.862 Y73.949 E18.00395
G1 X117.259 Y74.407 E18.02411
G1 X117.592 Y74.914 E18.04429
G1 X117.856 Y75.46 E18.06446
G1 X118.045 Y76.036 E18.08462
G1 X118.177 Y76.843 E18.11182
G1 X118.309 Y78.629 E18.17139
G1 X118.659 Y83.773 E18.34287
G1 X118.974 Y88.926 E18.51458
G1 X119.246 Y94.147 E18.68847
G1 X119.436 Y98.533 E18.83448
G1 X119.585 Y102.976 E18.98234
G1 X119.676 Y107.004 E19.11635
G1 X119.717 Y110.982 E19.24866
G1 X119.708 Y114.276 E19.35822
G1 X119.659 Y117.574 E19.46793
G1 X119.568 Y120.696 E19.57181
G1 X119.42 Y123.809 E19.67546
G1 X119.28 Y126 E19.74849
G1 X119.107 Y128.232 E19.82294
G1 X118.902 Y130.393 E19.89514
G1 X118.774 Y131.52 E19.93287
G1 X118.514 Y133.428 E19.99691
G1 X118.165 Y135.605 E20.07025
G1 X117.905 Y137.013 E20.11787
G1 X117.734 Y137.817 E20.14521
G1 X117.414 Y139.091 E20.1889
G1 X117.108 Y140.144 E20.22537
G1 X116.703 Y141.385 E20.26879
G1 X116.49 Y141.966 E20.28937
G1 X116.394 Y142.207 E20.298
G1 X116.188 Y142.684 E20.31528
G1 X116.055 Y142.966 E20.32565
G1 X115.814 Y143.434 E20.34316
G1 X115.645 Y143.733 E20.35458
G1 X115.426 Y144.09 E20.36851
G1 X115.209 Y144.413 E20.38145
G1 X114.96 Y144.751 E20.39542
G1 X114.682 Y145.093 E20.41007
G1 X114.466 Y145.334 E20.42084
G1 X114.108 Y145.692 E20.43768
G1 X113.87 Y145.905 E20.4483
G1 X113.384 Y146.284 E20.4688
G1 X113.157 Y146.438 E20.47792
G1 X112.432 Y146.839 E20.50548
G1 X112.185 Y146.948 E20.51446
G1 X111.616 Y147.156 E20.53461
G1 X111.075 Y147.279 E20.55306
G1 X110.747 Y147.333 E20.56412
G1 X110.144 Y147.392 E20.58427
G1 X109.538 Y147.371 E20.60444
G1 X108.985 Y147.281 E20.62307
G1 X108.534 Y147.179 E20.63845
G1 X107.953 Y147.006 E20.65861
G1 X107.151 Y146.617 E20.68826
G1 X106.804 Y146.405 E20.70179
G1 X106.157 Y145.928 E20.72852
G1 X105.909 Y145.709 E20.73953
G1 X105.505 Y145.304 E20.75855
G1 X105.295 Y145.066 E20.76911
G1 X105.04 Y144.751 E20.78259
G1 X104.791 Y144.413 E20.79655
G1 X104.574 Y144.091 E20.80947
G1 X104.358 Y143.739 E20.8232
G1 X104.191 Y143.442 E20.83454
G1 X103.947 Y142.969 E20.85224
G1 X103.809 Y142.676 E20.86301
G1 X103.607 Y142.206 E20.88002
G1 X103.517 Y141.982 E20.88805
G1 X103.242 Y141.225 E20.91484
G1 X102.867 Y140.057 E20.95564
G1 X102.554 Y138.965 E20.99342
G1 X102.244 Y137.706 E21.03655
G1 X102.077 Y136.921 E21.06324
G1 X101.822 Y135.528 E21.11034
G1 X101.465 Y133.286 E21.18585
G1 X101.224 Y131.485 E21.24629
G1 X101.094 Y130.342 E21.28455
G1 X100.889 Y128.18 E21.35678
G1 X100.718 Y125.969 E21.43054
G1 X100.572 Y123.677 E21.50693
G1 X100.426 Y120.554 E21.61091
G1 X100.335 Y117.398 E21.71592
G1 X100.29 Y114.161 E21.8236
G1 X100.284 Y110.812 E21.93498
G1 X100.327 Y106.891 E22.06541
G1 X100.419 Y102.866 E22.19931
G1 X100.567 Y98.469 E22.34564
G1 X100.759 Y94.023 E22.49365
G1 X101.029 Y88.858 E22.66568
G1 X101.346 Y83.695 E22.83772
G1 X101.695 Y78.587 E23.00801
G1 X101.822 Y76.846 E23.06607
G1 X101.906 Y76.245 E23.08625
G1 X102.069 Y75.661 E23.10642
G1 X102.306 Y75.103 E23.12658
G1 X102.615 Y74.582 E23.14673
G0 F6000 X103.005 Y74.723
G1 F1200 X103.375 Y74.278 E23.16598
G1 X103.804 Y73.888 E23.18526
G1 X104.282 Y73.561 E23.20453
G1 X104.8 Y73.303 E23.22377
G1 X105.349 Y73.118 E23.24304
G1 X105.919 Y73.011 E23.26233
G1 X106.41 Y72.982 E23.27869
G1 X113.59 Y72.982 E23.5175
G1 X114.168 Y73.022 E23.53677
G1 X114.735 Y73.141 E23.55604
G1 X115.28 Y73.337 E23.5753
G1 X115.793 Y73.606 E23.59457
G1 X116.264 Y73.943 E23.61383
G1 X116.684 Y74.342 E23.6331
G1 X117.046 Y74.795 E23.65238
G1 X117.341 Y75.293 E23.67164
G1 X117.566 Y75.827 E23.69091
G1 X117.714 Y76.387 E23.71017
G1 X117.779 Y76.872 E23.72645
G1 X117.911 Y78.658 E23.78601
G1 X118.26 Y83.8 E23.95743
G1 X118.575 Y88.951 E24.12907
G1 X118.846 Y94.168 E24.30283
G1 X119.036 Y98.55 E24.44871
G1 X119.184 Y102.939 E24.59477
G1 X119.276 Y107.008 E24.73014
G1 X119.317 Y110.981 E24.86229
G1 X119.309 Y114.27 E24.97168
G1 X119.259 Y117.563 E25.08122
G1 X119.168 Y120.677 E25.18484
G1 X119.02 Y123.783 E25.28826
