;FLAVOR:Marlin
;TIME:3628
;Filament used: 1.60917m
;Layer height: 0.13
;MINX:87.608
;MINY:87.608
;MINZ:0.2
;MAXX:132.392
;MAXY:132.392
;MAXZ:10.47
;Generated with Cura_SteamEngine 4.6.1
M140 S60
M105
M190 S60
M104 S205
M105
M109 S205
M82 ;absolute extrusion mode
; Ender 3 Custom Start G-code
G92 E0 ; Reset Extruder
G28 ; Home all axes
G1 Z2.0 F3000 ; Move Z Axis up little to prevent scratching of Heat Bed
G1 X0.1 Y20 Z0.3 F5000.0 ; Move to start position
G1 X0.1 Y200.0 Z0.3 F1500.0 E15 ; Draw the first line
G1 X0.4 Y200.0 Z0.3 F5000.0 ; Move to side a little
G1 X0.4 Y20 Z0.3 F1500.0 E30 ; Draw the second line
G92 E0 ; Reset Extruder
G1 Z2.0 F3000 ; Move Z Axis up little to prevent scratching of Heat Bed
G1 X5 Y20 Z0.3 F5000.0 ; Move over to prevent blob squish
G92 E0
G92 E0
G1 F1500 E-6
;LAYER_COUNT:80
;LAYER:0
M107
G0 F6000 X94.541 Y93.8 Z0.2
;TYPE:SKIRT
G1 F1500 E0
G1 F1200 X94.712 Y93.638 E0.00783
G1 X95.585 Y92.863 E0.04666
G1 X95.773 Y92.707 E0.05479
G1 X96.695 Y91.989 E0.09365
G1 X96.885 Y91.85 E0.10148
G1 X97.85 Y91.19 E0.14037
G1 X98.051 Y91.062 E0.14829
G1 X99.054 Y90.465 E0.18712
G1 X99.265 Y90.348 E0.19514
G1 X100.305 Y89.815 E0.23401
G1 X100.519 Y89.714 E0.24188
G1 X101.59 Y89.247 E0.28074
G1 X101.812 Y89.158 E0.2887
G1 X102.911 Y88.759 E0.32758
G1 X103.141 Y88.684 E0.33563
G1 X104.262 Y88.356 E0.37448
G1 X104.482 Y88.299 E0.38204
G1 X105.619 Y88.039 E0.42083
G1 X105.868 Y87.99 E0.42927
G1 X107.023 Y87.806 E0.46817
G1 X107.254 Y87.777 E0.47591
G1 X108.417 Y87.664 E0.51478
G1 X108.654 Y87.648 E0.52268
G1 X109.82 Y87.608 E0.56148
G1 X110.061 Y87.608 E0.5695
G1 X111.229 Y87.642 E0.60836
G1 X111.463 Y87.656 E0.61616
G1 X112.625 Y87.762 E0.65497
G1 X112.865 Y87.791 E0.66301
G1 X114.021 Y87.971 E0.70192
G1 X114.259 Y88.016 E0.70998
G1 X115.4 Y88.269 E0.74885
G1 X115.626 Y88.327 E0.75661
G1 X116.747 Y88.649 E0.7954
G1 X116.973 Y88.721 E0.80329
G1 X118.074 Y89.113 E0.84216
G1 X118.3 Y89.202 E0.85024
G1 X119.372 Y89.663 E0.88905
G1 X119.585 Y89.762 E0.89686
G1 X120.63 Y90.29 E0.93581
G1 X120.843 Y90.407 E0.94389
G1 X121.849 Y90.999 E0.98271
G1 X122.049 Y91.125 E0.99057
G1 X123.017 Y91.779 E1.02943
G1 X123.211 Y91.92 E1.03741
G1 X124.135 Y92.633 E1.07622
G1 X124.32 Y92.784 E1.08417
G1 X125.198 Y93.554 E1.12301
G1 X125.372 Y93.717 E1.13094
G1 X126.2 Y94.541 E1.16979
G1 X126.362 Y94.712 E1.17762
G1 X127.137 Y95.585 E1.21645
G1 X127.293 Y95.773 E1.22458
G1 X128.011 Y96.695 E1.26344
G1 X128.15 Y96.885 E1.27127
G1 X128.81 Y97.85 E1.31016
G1 X128.938 Y98.051 E1.31808
G1 X129.535 Y99.054 E1.35691
G1 X129.652 Y99.265 E1.36493
G1 X130.185 Y100.305 E1.4038
G1 X130.286 Y100.519 E1.41167
G1 X130.753 Y101.59 E1.45053
G1 X130.841 Y101.811 E1.45844
G1 X131.24 Y102.909 E1.4973
G1 X131.316 Y103.141 E1.50542
G1 X131.644 Y104.263 E1.5443
G1 X131.701 Y104.482 E1.55183
G1 X131.961 Y105.619 E1.59062
G1 X132.01 Y105.868 E1.59906
G1 X132.194 Y107.022 E1.63793
G1 X132.223 Y107.253 E1.64567
G1 X132.336 Y108.416 E1.68453
G1 X132.352 Y108.653 E1.69243
G1 X132.392 Y109.819 E1.73124
G1 X132.392 Y110.059 E1.73922
G1 X132.358 Y111.228 E1.77812
G1 X132.344 Y111.463 E1.78595
G1 X132.238 Y112.625 E1.82476
G1 X132.209 Y112.865 E1.8328
G1 X132.029 Y114.021 E1.87171
G1 X131.984 Y114.259 E1.87977
G1 X131.731 Y115.4 E1.91864
G1 X131.673 Y115.626 E1.9264
G1 X131.351 Y116.747 E1.96519
G1 X131.279 Y116.973 E1.97308
G1 X130.887 Y118.074 E2.01195
G1 X130.798 Y118.3 E2.02003
G1 X130.337 Y119.372 E2.05884
G1 X130.238 Y119.583 E2.06659
G1 X129.711 Y120.627 E2.10549
G1 X129.593 Y120.843 E2.11368
G1 X129 Y121.85 E2.15254
G1 X128.875 Y122.049 E2.16036
G1 X128.221 Y123.017 E2.19922
G1 X128.08 Y123.211 E2.20719
G1 X127.367 Y124.135 E2.24601
G1 X127.216 Y124.32 E2.25395
G1 X126.446 Y125.198 E2.29279
G1 X126.283 Y125.372 E2.30072
G1 X125.459 Y126.2 E2.33958
G1 X125.288 Y126.362 E2.34741
G1 X124.415 Y127.137 E2.38624
G1 X124.227 Y127.293 E2.39436
G1 X123.305 Y128.011 E2.43323
G1 X123.115 Y128.15 E2.44106
G1 X122.15 Y128.81 E2.47995
G1 X121.949 Y128.938 E2.48787
G1 X120.946 Y129.535 E2.52669
G1 X120.735 Y129.652 E2.53472
G1 X119.695 Y130.185 E2.57359
G1 X119.481 Y130.286 E2.58146
G1 X118.41 Y130.753 E2.62032
G1 X118.188 Y130.842 E2.62827
G1 X117.089 Y131.241 E2.66716
G1 X116.859 Y131.316 E2.67521
G1 X115.738 Y131.644 E2.71406
G1 X115.518 Y131.701 E2.72161
G1 X114.381 Y131.961 E2.76041
G1 X114.132 Y132.01 E2.76885
G1 X112.977 Y132.194 E2.80775
G1 X112.746 Y132.223 E2.81549
G1 X111.583 Y132.336 E2.85435
G1 X111.346 Y132.352 E2.86226
G1 X110.18 Y132.392 E2.90106
G1 X109.939 Y132.392 E2.90908
G1 X108.771 Y132.358 E2.94794
G1 X108.537 Y132.344 E2.95574
G1 X107.375 Y132.238 E2.99455
G1 X107.135 Y132.209 E3.00259
G1 X105.979 Y132.029 E3.0415
G1 X105.741 Y131.984 E3.04955
G1 X104.6 Y131.731 E3.08843
G1 X104.374 Y131.673 E3.09619
G1 X103.253 Y131.351 E3.13498
G1 X103.027 Y131.279 E3.14287
G1 X101.926 Y130.887 E3.18174
G1 X101.7 Y130.798 E3.18982
G1 X100.628 Y130.337 E3.22863
G1 X100.415 Y130.238 E3.23644
G1 X99.37 Y129.71 E3.27538
G1 X99.157 Y129.593 E3.28347
G1 X98.151 Y129.001 E3.32229
G1 X97.95 Y128.874 E3.3302
G1 X96.981 Y128.219 E3.3691
G1 X96.788 Y128.079 E3.37703
G1 X95.864 Y127.366 E3.41585
G1 X95.679 Y127.215 E3.42379
G1 X94.801 Y126.445 E3.46263
G1 X94.627 Y126.282 E3.47056
G1 X93.799 Y125.458 E3.50941
G1 X93.637 Y125.287 E3.51725
G1 X92.862 Y124.414 E3.55607
G1 X92.706 Y124.226 E3.5642
G1 X91.988 Y123.304 E3.60307
G1 X91.849 Y123.114 E3.6109
G1 X91.19 Y122.15 E3.64974
G1 X91.062 Y121.95 E3.65763
G1 X90.464 Y120.946 E3.6965
G1 X90.347 Y120.733 E3.70458
G1 X89.815 Y119.694 E3.74341
G1 X89.714 Y119.481 E3.75125
G1 X89.247 Y118.41 E3.79011
G1 X89.158 Y118.188 E3.79806
G1 X88.759 Y117.089 E3.83695
G1 X88.684 Y116.859 E3.845
G1 X88.356 Y115.738 E3.88385
G1 X88.299 Y115.518 E3.8914
G1 X88.039 Y114.381 E3.9302
G1 X87.99 Y114.132 E3.93864
G1 X87.806 Y112.977 E3.97754
G1 X87.777 Y112.746 E3.98528
G1 X87.664 Y111.583 E4.02415
G1 X87.648 Y111.346 E4.03205
G1 X87.608 Y110.181 E4.07082
G1 X87.608 Y109.941 E4.0788
G1 X87.642 Y108.772 E4.1177
G1 X87.656 Y108.537 E4.12553
G1 X87.762 Y107.375 E4.16434
G1 X87.791 Y107.135 E4.17238
G1 X87.971 Y105.979 E4.21129
G1 X88.016 Y105.741 E4.21934
G1 X88.269 Y104.6 E4.25822
G1 X88.327 Y104.374 E4.26598
G1 X88.649 Y103.253 E4.30477
G1 X88.721 Y103.027 E4.31266
G1 X89.113 Y101.926 E4.35153
G1 X89.202 Y101.7 E4.35961
G1 X89.663 Y100.628 E4.39842
G1 X89.762 Y100.417 E4.40617
G1 X90.289 Y99.373 E4.44507
G1 X90.407 Y99.157 E4.45325
G1 X91 Y98.15 E4.49212
G1 X91.125 Y97.951 E4.49994
G1 X91.779 Y96.983 E4.53879
G1 X91.92 Y96.789 E4.54677
G1 X92.633 Y95.865 E4.58559
G1 X92.784 Y95.68 E4.59353
G1 X93.554 Y94.802 E4.63237
G1 X93.717 Y94.628 E4.6403
G1 X94.541 Y93.8 E4.67916
G0 F6000 X94.825 Y94.082
G1 F1200 X94.978 Y93.937 E4.68617
G1 X95.851 Y93.162 E4.72499
G1 X96.019 Y93.022 E4.73227
G1 X96.941 Y92.304 E4.77114
G1 X97.111 Y92.181 E4.77811
G1 X98.076 Y91.521 E4.817
G1 X98.256 Y91.405 E4.82412
G1 X99.259 Y90.808 E4.86294
G1 X99.447 Y90.704 E4.87009
G1 X100.487 Y90.171 E4.90896
G1 X100.679 Y90.08 E4.91602
G1 X101.75 Y89.613 E4.95489
G1 X101.949 Y89.534 E4.96201
G1 X103.048 Y89.135 E5.00089
G1 X103.253 Y89.068 E5.00807
G1 X104.374 Y88.74 E5.04692
G1 X104.571 Y88.689 E5.05368
G1 X105.708 Y88.429 E5.09248
G1 X105.931 Y88.385 E5.10004
G1 X107.086 Y88.201 E5.13894
G1 X107.292 Y88.175 E5.14584
G1 X108.455 Y88.062 E5.18471
G1 X108.667 Y88.048 E5.19177
G1 X109.833 Y88.008 E5.23058
G1 X110.049 Y88.007 E5.23776
G1 X111.217 Y88.041 E5.27663
G1 X111.427 Y88.054 E5.28362
G1 X112.589 Y88.16 E5.32243
G1 X112.803 Y88.186 E5.3296
G1 X113.959 Y88.366 E5.36851
G1 X114.172 Y88.407 E5.37573
G1 X115.313 Y88.66 E5.4146
G1 X115.516 Y88.711 E5.42156
G1 X116.637 Y89.033 E5.46035
G1 X116.838 Y89.098 E5.46738
G1 X117.939 Y89.49 E5.50625
G1 X118.142 Y89.57 E5.51351
G1 X119.214 Y90.031 E5.55232
G1 X119.404 Y90.119 E5.55928
G1 X120.449 Y90.647 E5.59823
G1 X120.64 Y90.752 E5.60548
G1 X121.646 Y91.344 E5.6443
G1 X121.825 Y91.457 E5.65134
G1 X122.793 Y92.111 E5.69019
G1 X122.967 Y92.236 E5.69732
G1 X123.891 Y92.949 E5.73614
G1 X124.056 Y93.085 E5.74325
G1 X124.934 Y93.855 E5.78209
G1 X125.09 Y94.001 E5.7892
G1 X125.918 Y94.825 E5.82805
G1 X126.063 Y94.978 E5.83506
G1 X126.838 Y95.851 E5.87389
G1 X126.978 Y96.019 E5.88116
G1 X127.696 Y96.941 E5.92003
G1 X127.819 Y97.111 E5.92701
G1 X128.479 Y98.076 E5.96589
G1 X128.595 Y98.256 E5.97302
G1 X129.192 Y99.259 E6.01184
G1 X129.296 Y99.447 E6.01898
G1 X129.829 Y100.487 E6.05785
G1 X129.92 Y100.679 E6.06492
G1 X130.387 Y101.75 E6.10378
G1 X130.466 Y101.948 E6.11087
G1 X130.865 Y103.046 E6.14973
G1 X130.932 Y103.253 E6.15696
G1 X131.26 Y104.375 E6.19584
G1 X131.311 Y104.571 E6.20258
G1 X131.571 Y105.708 E6.24137
G1 X131.615 Y105.931 E6.24893
G1 X131.799 Y107.085 E6.2878
G1 X131.825 Y107.291 E6.29471
G1 X131.938 Y108.454 E6.33357
G1 X131.952 Y108.666 E6.34064
G1 X131.992 Y109.832 E6.37944
G1 X131.993 Y110.048 E6.38662
G1 X131.959 Y111.217 E6.42552
G1 X131.946 Y111.427 E6.43252
G1 X131.84 Y112.589 E6.47133
G1 X131.814 Y112.803 E6.4785
G1 X131.634 Y113.959 E6.51741
G1 X131.593 Y114.172 E6.52462
G1 X131.34 Y115.313 E6.5635
G1 X131.289 Y115.516 E6.57046
G1 X130.967 Y116.637 E6.60925
G1 X130.902 Y116.838 E6.61628
G1 X130.51 Y117.939 E6.65515
G1 X130.43 Y118.142 E6.6624
G1 X129.969 Y119.214 E6.70122
G1 X129.881 Y119.403 E6.70815
G1 X129.354 Y120.447 E6.74705
G1 X129.249 Y120.64 E6.75436
G1 X128.656 Y121.647 E6.79322
G1 X128.543 Y121.825 E6.80024
G1 X127.889 Y122.793 E6.83909
G1 X127.764 Y122.967 E6.84622
G1 X127.051 Y123.891 E6.88504
G1 X126.915 Y124.056 E6.89215
G1 X126.145 Y124.934 E6.93099
G1 X125.999 Y125.09 E6.9381
G1 X125.175 Y125.918 E6.97695
G1 X125.022 Y126.063 E6.98396
G1 X124.149 Y126.838 E7.02279
G1 X123.981 Y126.978 E7.03006
G1 X123.059 Y127.696 E7.06893
G1 X122.889 Y127.819 E7.07591
G1 X121.924 Y128.479 E7.11479
G1 X121.744 Y128.595 E7.12191
G1 X120.741 Y129.192 E7.16074
G1 X120.553 Y129.296 E7.16788
G1 X119.513 Y129.829 E7.20675
G1 X119.321 Y129.92 E7.21382
G1 X118.25 Y130.387 E7.25268
G1 X118.051 Y130.466 E7.2598
G1 X116.952 Y130.865 E7.29869
G1 X116.747 Y130.932 E7.30586
G1 X115.626 Y131.26 E7.34471
G1 X115.429 Y131.311 E7.35148
G1 X114.292 Y131.571 E7.39027
G1 X114.069 Y131.615 E7.39783
G1 X112.914 Y131.799 E7.43673
G1 X112.708 Y131.825 E7.44363
G1 X111.545 Y131.938 E7.4825
G1 X111.333 Y131.952 E7.48956
G1 X110.167 Y131.992 E7.52837
G1 X109.951 Y131.993 E7.53555
G1 X108.783 Y131.959 E7.57442
G1 X108.573 Y131.946 E7.58142
G1 X107.411 Y131.84 E7.62022
G1 X107.197 Y131.814 E7.62739
G1 X106.041 Y131.634 E7.66631
G1 X105.828 Y131.593 E7.67352
G1 X104.687 Y131.34 E7.71239
G1 X104.484 Y131.289 E7.71935
G1 X103.363 Y130.967 E7.75815
G1 X103.162 Y130.902 E7.76517
G1 X102.061 Y130.51 E7.80404
G1 X101.858 Y130.43 E7.8113
G1 X100.786 Y129.969 E7.85011
G1 X100.596 Y129.881 E7.85708
G1 X99.551 Y129.353 E7.89602
G1 X99.36 Y129.248 E7.90327
G1 X98.354 Y128.656 E7.94209
G1 X98.174 Y128.543 E7.94916
G1 X97.205 Y127.888 E7.98806
G1 X97.032 Y127.763 E7.99516
G1 X96.108 Y127.05 E8.03398
G1 X95.943 Y126.914 E8.04109
G1 X95.065 Y126.144 E8.07993
G1 X94.909 Y125.998 E8.08704
G1 X94.081 Y125.174 E8.12589
G1 X93.936 Y125.021 E8.1329
G1 X93.161 Y124.148 E8.17173
G1 X93.021 Y123.98 E8.179
G1 X92.303 Y123.058 E8.21787
G1 X92.179 Y122.888 E8.22487
G1 X91.52 Y121.924 E8.26371
G1 X91.406 Y121.745 E8.27077
G1 X90.808 Y120.741 E8.30963
G1 X90.703 Y120.551 E8.31685
G1 X90.171 Y119.512 E8.35568
G1 X90.08 Y119.321 E8.36271
G1 X89.613 Y118.25 E8.40158
G1 X89.534 Y118.051 E8.4087
G1 X89.135 Y116.952 E8.44758
G1 X89.068 Y116.747 E8.45476
G1 X88.74 Y115.626 E8.4936
G1 X88.689 Y115.429 E8.50037
G1 X88.429 Y114.292 E8.53917
G1 X88.385 Y114.069 E8.54673
G1 X88.201 Y112.914 E8.58563
G1 X88.175 Y112.708 E8.59253
G1 X88.062 Y111.545 E8.6314
G1 X88.048 Y111.333 E8.63846
G1 X88.008 Y110.168 E8.67723
G1 X88.007 Y109.952 E8.68442
G1 X88.041 Y108.783 E8.72331
G1 X88.054 Y108.573 E8.73031
G1 X88.16 Y107.411 E8.76912
G1 X88.186 Y107.197 E8.77629
G1 X88.366 Y106.041 E8.8152
G1 X88.407 Y105.828 E8.82242
G1 X88.66 Y104.687 E8.86129
G1 X88.711 Y104.484 E8.86825
G1 X89.033 Y103.363 E8.90704
G1 X89.098 Y103.162 E8.91407
G1 X89.49 Y102.061 E8.95294
G1 X89.57 Y101.858 E8.9602
G1 X90.031 Y100.786 E8.99901
G1 X90.119 Y100.597 E9.00594
G1 X90.646 Y99.553 E9.04484
G1 X90.751 Y99.36 E9.05215
G1 X91.344 Y98.353 E9.09102
G1 X91.457 Y98.175 E9.09803
G1 X92.111 Y97.207 E9.13689
G1 X92.236 Y97.033 E9.14401
G1 X92.949 Y96.109 E9.18283
G1 X93.085 Y95.944 E9.18994
G1 X93.855 Y95.066 E9.22878
G1 X94.001 Y94.91 E9.23589
G1 X94.825 Y94.082 E9.27474
G0 F6000 X95.243 Y94.236
G1 F1200 X96.116 Y93.461 E9.31357
G1 X96.265 Y93.338 E9.31999
G1 X97.187 Y92.62 E9.35886
G1 X97.336 Y92.511 E9.365
G1 X98.301 Y91.851 E9.40389
G1 X98.461 Y91.749 E9.4102
G1 X99.464 Y91.152 E9.44902
G1 X99.63 Y91.06 E9.45533
G1 X100.67 Y90.527 E9.4942
G1 X100.839 Y90.447 E9.50042
G1 X101.91 Y89.98 E9.53928
G1 X102.085 Y89.91 E9.54555
G1 X103.184 Y89.511 E9.58444
G1 X103.366 Y89.452 E9.5908
G1 X104.66 Y89.078 E9.6356
G1 X105.797 Y88.818 E9.67439
G1 X105.994 Y88.78 E9.68107
G1 X107.149 Y88.596 E9.71997
G1 X107.331 Y88.573 E9.72607
G1 X108.494 Y88.46 E9.76493
G1 X108.681 Y88.448 E9.77116
G1 X109.847 Y88.408 E9.80997
G1 X110.037 Y88.407 E9.81629
G1 X111.205 Y88.441 E9.85515
G1 X111.391 Y88.452 E9.86135
G1 X112.553 Y88.558 E9.90016
G1 X112.742 Y88.582 E9.9065
G1 X113.898 Y88.762 E9.94541
G1 X114.085 Y88.797 E9.95173
G1 X115.226 Y89.05 E9.99061
G1 X115.405 Y89.096 E9.99675
G1 X116.526 Y89.418 E10.03555
G1 X116.704 Y89.475 E10.04176
G1 X117.805 Y89.867 E10.08063
G1 X117.984 Y89.937 E10.08703
G1 X119.056 Y90.398 E10.12584
G1 X119.224 Y90.476 E10.132
G1 X120.269 Y91.004 E10.17094
G1 X120.438 Y91.096 E10.17734
G1 X121.444 Y91.688 E10.21616
G1 X121.601 Y91.788 E10.22235
G1 X122.569 Y92.442 E10.26121
G1 X122.723 Y92.553 E10.26752
G1 X123.647 Y93.266 E10.30634
G1 X123.792 Y93.385 E10.31258
G1 X124.67 Y94.155 E10.35142
G1 X124.808 Y94.285 E10.35773
G1 X125.764 Y95.243 E10.40274
G1 X126.539 Y96.116 E10.44157
G1 X126.662 Y96.265 E10.448
G1 X127.38 Y97.187 E10.48686
G1 X127.489 Y97.336 E10.493
G1 X128.149 Y98.301 E10.53189
G1 X128.251 Y98.461 E10.5382
G1 X128.848 Y99.464 E10.57702
G1 X128.94 Y99.63 E10.58333
G1 X129.473 Y100.67 E10.6222
G1 X129.553 Y100.839 E10.62842
G1 X130.02 Y101.91 E10.66728
G1 X130.09 Y102.084 E10.67352
G1 X130.489 Y103.182 E10.71238
G1 X130.548 Y103.365 E10.71877
G1 X130.922 Y104.66 E10.7636
G1 X131.182 Y105.797 E10.8024
G1 X131.22 Y105.994 E10.80907
G1 X131.404 Y107.148 E10.84794
G1 X131.427 Y107.33 E10.85404
G1 X131.54 Y108.493 E10.8929
G1 X131.552 Y108.68 E10.89913
G1 X131.592 Y109.846 E10.93794
G1 X131.593 Y110.036 E10.94426
G1 X131.559 Y111.205 E10.98315
G1 X131.548 Y111.391 E10.98935
G1 X131.442 Y112.553 E11.02816
G1 X131.418 Y112.742 E11.0345
G1 X131.238 Y113.898 E11.07341
G1 X131.203 Y114.085 E11.07974
G1 X130.95 Y115.226 E11.11861
G1 X130.904 Y115.405 E11.12476
G1 X130.582 Y116.526 E11.16355
G1 X130.525 Y116.704 E11.16976
G1 X130.133 Y117.805 E11.20864
G1 X130.063 Y117.984 E11.21503
G1 X129.602 Y119.056 E11.25384
G1 X129.524 Y119.223 E11.25997
G1 X128.997 Y120.267 E11.29887
G1 X128.904 Y120.437 E11.30531
G1 X128.311 Y121.444 E11.34418
G1 X128.212 Y121.601 E11.35035
G1 X127.558 Y122.569 E11.38921
G1 X127.447 Y122.723 E11.39552
G1 X126.734 Y123.647 E11.43434
G1 X126.615 Y123.792 E11.44058
G1 X125.845 Y124.67 E11.47942
G1 X125.715 Y124.808 E11.48573
G1 X124.757 Y125.764 E11.53074
G1 X123.884 Y126.539 E11.56957
G1 X123.735 Y126.662 E11.576
G1 X122.813 Y127.38 E11.61486
