;FLAVOR:Marlin
;TIME:8141
;Filament used: 9.89675m
;Layer height: 0.2
;MINX:94.523
;MINY:19.74
;MINZ:0.2
;MAXX:130.926
;MAXY:200.259
;MAXZ:94
;Generated with Cura_SteamEngine 4.6.1
M140 S60
M105
M190 S60
M104 S220
M105
M109 S220
M82 ;absolute extrusion mode
; Ender 3 Custom Start G-code
G92 E0 ; Reset Extruder
G28 ; Home all axes
G1 Z2.0 F3000 ; Move Z Axis up little to prevent scratching of Heat Bed
G1 X0.1 Y20 Z0.3 F5000.0 ; Move to start position
G1 X0.1 Y200.0 Z0.3 F1500.0 E15 ; Draw the first line
G1 X0.4 Y200.0 Z0.3 F5000.0 ; Move to side a little
G1 X0.4 Y20 Z0.3 F1500.0 E30 ; Draw the second line
G92 E0 ; Reset Extruder
G1 Z2.0 F3000 ; Move Z Axis up little to prevent scratching of Heat Bed
G1 X5 Y20 Z0.3 F5000.0 ; Move over to prevent blob squish
G92 E0
G92 E0
G1 F1500 E-6
;LAYER_COUNT:470
;LAYER:0
M107
G0 F6000 X109.147 Y109.592 Z0.2
;TYPE:SKIRT
G1 F1500 E0.04158
G1 F1200 X109.218 Y111.525 E0.10591
G1 X109.526 Y118.869 E0.35039
G1 X109.529 Y118.935 E0.35258
G1 X109.75 Y123.574 E0.50705
G1 X109.99 Y128.216 E0.66165
G1 X110.42 Y135.781 E0.91367
G1 X110.923 Y143.849 E1.18254
G1 X118.018 Y143.601 E1.41866
G1 X117.887 Y141.609 E1.48506
G1 X117.607 Y138.107 E1.60191
G1 X117.303 Y134.846 E1.71084
G1 X116.942 Y131.439 E1.82479
G1 X116.551 Y128.109 E1.93631
G1 X116.109 Y124.657 E2.05206
G1 X115.643 Y121.258 E2.16617
G1 X115.148 Y117.861 E2.28035
G1 X114.633 Y114.495 E2.3936
G1 X114.1 Y111.16 E2.50593
G1 X113.813 Y109.428 E2.56432
G1 X109.147 Y109.592 E2.71961
G0 F6000 X108.732 Y109.207
G1 F1200 X108.818 Y111.542 E2.79733
G1 X109.126 Y118.886 E3.0418
G1 X109.13 Y118.954 E3.04407
G1 X109.351 Y123.595 E3.1986
G1 X109.593 Y128.266 E3.35417
G1 X110.02 Y135.806 E3.60535
G1 X110.55 Y144.262 E3.88715
G1 X118.444 Y143.986 E4.14987
G1 X118.286 Y141.577 E4.23017
G1 X118.012 Y138.146 E4.34464
G1 X117.694 Y134.736 E4.45855
G1 X117.34 Y131.397 E4.57023
G1 X116.941 Y128.002 E4.68393
G1 X116.506 Y124.606 E4.7978
G1 X116.045 Y121.249 E4.9105
G1 X115.543 Y117.804 E5.02629
G1 X115.022 Y114.398 E5.1409
G1 X114.495 Y111.097 E5.25208
G1 X114.15 Y109.017 E5.3222
G1 X108.732 Y109.207 E5.50252
G0 F6000 X108.319 Y108.821
G1 F1200 X108.419 Y111.558 E5.59361
G1 X108.727 Y118.902 E5.83809
G1 X108.73 Y118.973 E5.84045
G1 X108.951 Y123.615 E5.99502
G1 X109.192 Y128.262 E6.14979
G1 X109.621 Y135.831 E6.40194
G1 X110.092 Y143.403 E6.65427
G1 X110.177 Y144.675 E6.69667
G1 X118.871 Y144.371 E6.98601
G1 X118.685 Y141.545 E7.08021
G1 X118.405 Y138.043 E7.19706
G1 X118.099 Y134.762 E7.30666
G1 X117.744 Y131.411 E7.41874
G1 X117.344 Y128.007 E7.53273
G1 X116.902 Y124.555 E7.64848
G1 X116.435 Y121.149 E7.76283
G1 X115.939 Y117.746 E7.87721
G1 X115.423 Y114.369 E7.99083
G1 X114.89 Y111.034 E8.10316
G1 X114.487 Y108.605 E8.18506
G1 X108.319 Y108.821 E8.39033
G0 F6000 X107.904 Y108.435
G1 F1200 X108.019 Y111.575 E8.49484
G1 X108.327 Y118.919 E8.73931
G1 X108.331 Y118.992 E8.74175
G1 X108.552 Y123.636 E8.89638
G1 X108.793 Y128.284 E9.05118
G1 X109.224 Y135.88 E9.30423
G1 X109.693 Y143.43 E9.55583
G1 X109.804 Y145.089 E9.61113
G1 X119.297 Y144.757 E9.92706
G1 X119.079 Y141.449 E10.03733
G1 X118.809 Y138.072 E10.15
G1 X118.491 Y134.662 E10.26391
G1 X118.142 Y131.365 E10.37418
G1 X117.735 Y127.909 E10.48993
G1 X117.299 Y124.504 E10.6041
G1 X116.837 Y121.133 E10.71727
G1 X116.335 Y117.688 E10.83306
G1 X115.817 Y114.306 E10.94686
G1 X115.285 Y110.971 E11.05918
G1 X114.824 Y108.193 E11.15284
G1 X107.904 Y108.435 E11.38314
G0 F6000 X107.489 Y108.049
G1 F1200 X107.619 Y111.592 E11.50106
G1 X107.927 Y118.936 E11.74554
G1 X107.931 Y119.011 E11.74804
G1 X108.152 Y123.657 E11.90274
G1 X108.393 Y128.307 E12.05761
G1 X108.823 Y135.881 E12.30993
G1 X109.294 Y143.456 E12.56236
G1 X109.431 Y145.502 E12.63056
G1 X119.719 Y145.143 E12.97295
G1 X119.701 Y144.807 E12.98414
G1 X119.482 Y141.482 E13.09497
G1 X119.202 Y137.98 E13.21182
G1 X118.894 Y134.678 E13.32212
G1 X118.533 Y131.271 E13.43607
G1 X118.138 Y127.905 E13.54879
G1 X117.696 Y124.453 E13.66455
G1 X117.228 Y121.04 E13.77912
G1 X116.731 Y117.631 E13.89371
G1 X116.208 Y114.216 E14.00861
G1 X115.68 Y110.908 E14.12003
G1 X115.162 Y107.78 E14.22549
G1 X107.489 Y108.049 E14.48085
G1 F1500 E8.48085
G0 F6000 X107.219 Y111.609
G1 F1500 E14.52242
G1 F1200 X107.528 Y118.953 E14.7669
G1 X107.532 Y119.03 E14.76947
G1 X107.753 Y123.677 E14.9242
G1 X107.994 Y128.33 E15.07917
G1 X108.424 Y135.905 E15.33152
G1 X108.895 Y143.483 E15.58405
G1 X109.058 Y145.915 E15.66512
G1 X120.14 Y145.527 E16.03394
G1 X120.1 Y144.785 E16.05865
G1 X119.877 Y141.396 E16.17161
G1 X119.605 Y137.998 E16.28499
G1 X119.287 Y134.588 E16.3989
G1 X118.931 Y131.228 E16.51128
G1 X118.53 Y127.815 E16.62558
G1 X118.097 Y124.436 E16.73888
G1 X117.624 Y120.986 E16.8547
G1 X117.127 Y117.573 E16.96942
G1 X116.608 Y114.18 E17.08358
G1 X116.075 Y110.845 E17.19591
G1 X115.503 Y107.397 E17.31216
G1 X115.498 Y107.369 E17.31311
G1 X107.075 Y107.664 E17.59343
G1 X107.219 Y111.609 E17.72473
G0 F6000 X106.82 Y111.626
G1 F1200 X107.128 Y118.97 E17.9692
G1 X107.132 Y119.049 E17.97184
G1 X107.353 Y123.698 E18.12664
G1 X107.594 Y128.352 E18.28164
G1 X108.026 Y135.948 E18.53469
G1 X108.495 Y143.51 E18.78669
G1 X108.684 Y146.328 E18.88062
G1 X120.561 Y145.913 E19.27589
G1 X120.502 Y144.806 E19.31277
G1 X120.276 Y141.37 E19.42729
G1 X120 Y137.916 E19.54254
G1 X119.686 Y134.551 E19.65495
G1 X119.333 Y131.225 E19.76619
G1 X118.927 Y127.769 E19.88193
G1 X118.49 Y124.352 E19.99651
G1 X118.021 Y120.932 E20.11132
G1 X117.526 Y117.539 E20.22537
G1 X117.002 Y114.117 E20.34051
G1 X116.47 Y110.782 E20.45283
G1 X115.833 Y106.957 E20.58181
G1 X106.661 Y107.278 E20.88705
G1 X106.82 Y111.626 E21.03177
G0 F6000 X106.42 Y111.642
G1 F1200 X106.728 Y118.986 E21.27624
G1 X106.733 Y119.068 E21.27898
G1 X106.954 Y123.719 E21.43384
G1 X107.195 Y128.375 E21.58891
G1 X107.625 Y135.955 E21.84143
G1 X108.096 Y143.537 E22.09409
G1 X108.311 Y146.742 E22.20093
G1 X120.982 Y146.299 E22.62263
G1 X120.899 Y144.743 E22.67445
G1 X120.675 Y141.344 E22.78775
G1 X120.402 Y137.924 E22.90186
G1 X120.084 Y134.514 E23.01577
G1 X119.731 Y131.178 E23.12734
G1 X119.324 Y127.722 E23.24309
G1 X118.886 Y124.301 E23.3578
G1 X118.421 Y120.903 E23.47187
G1 X117.918 Y117.458 E23.58767
G1 X117.398 Y114.054 E23.7022
G1 X116.865 Y110.719 E23.81453
G1 X116.168 Y106.545 E23.95528
G1 X106.246 Y106.892 E24.28549
G1 X106.42 Y111.642 E24.44358
G0 F6000 X106.02 Y111.659
G1 F1200 X106.329 Y119.003 E24.68806
G1 X106.554 Y123.739 E24.84575
G1 X106.796 Y128.398 E25.00092
G1 X107.226 Y135.98 E25.2535
G1 X107.697 Y143.563 E25.5062
G1 X107.939 Y147.155 E25.62594
G1 X121.404 Y146.685 E26.07406
G1 X121.299 Y144.721 E26.13948
G1 X121.077 Y141.354 E26.25171
G1 X120.797 Y137.852 E26.36856
G1 X120.482 Y134.476 E26.48133
G1 X120.124 Y131.102 E26.59418
G1 X119.722 Y127.675 E26.70895
G1 X119.283 Y124.25 E26.82379
G1 X118.813 Y120.823 E26.93884
G1 X118.314 Y117.4 E27.0539
G1 X117.793 Y113.991 E27.1686
G1 X117.26 Y110.656 E27.28093
G1 X116.687 Y107.201 E27.39741
G1 X116.504 Y106.132 E27.43348
G1 X105.831 Y106.506 E27.78869
G1 X106.02 Y111.659 E27.96019
G0 F6000 X105.622 Y111.687
G1 F1200 X105.929 Y119.02 E28.2043
G1 X105.934 Y119.106 E28.20717
G1 X106.156 Y123.769 E28.36243
G1 X106.396 Y128.42 E28.51733
G1 X106.826 Y136.005 E28.77002
G1 X107.298 Y143.59 E29.02278
G1 X107.567 Y147.568 E29.15539
G1 X121.824 Y147.07 E29.62987
G1 X121.821 Y147.004 E29.63207
G1 X121.698 Y144.7 E29.70881
G1 X121.474 Y141.291 E29.82244
G1 X121.196 Y137.82 E29.93825
G1 X120.884 Y134.467 E30.05026
G1 X120.522 Y131.06 E30.16421
G1 X120.119 Y127.629 E30.27911
G1 X119.683 Y124.219 E30.39345
G1 X119.209 Y120.769 E30.50928
G1 X118.71 Y117.342 E30.62446
G1 X118.185 Y113.914 E30.73981
G1 X117.655 Y110.593 E30.85166
G1 X117.082 Y107.135 E30.96824
G1 X116.839 Y105.721 E31.01596
G1 X105.418 Y106.121 E31.39606
G1 X105.622 Y111.687 E31.58131
G0 F6000 X105.222 Y111.702
G1 F1200 X105.529 Y119.037 E31.82549
G1 X105.534 Y119.125 E31.82842
G1 X105.756 Y123.781 E31.98345
G1 X105.998 Y128.452 E32.13902
G1 X106.427 Y136.029 E32.39144
G1 X106.9 Y143.625 E32.64457
G1 X107.195 Y147.981 E32.78978
G1 X122.242 Y147.455 E33.29055
G1 X122.221 Y146.987 E33.30613
G1 X122.098 Y144.679 E33.38301
G1 X121.873 Y141.265 E33.4968
G1 X121.595 Y137.788 E33.61282
G1 X121.279 Y134.402 E33.72593
G1 X120.92 Y131.018 E33.83911
G1 X120.516 Y127.582 E33.95418
G1 X120.077 Y124.149 E34.06929
G1 X119.606 Y120.714 E34.18461
G1 X119.106 Y117.285 E34.29986
G1 X118.583 Y113.865 E34.41494
G1 X118.05 Y110.53 E34.52727
G1 X117.476 Y107.07 E34.64392
G1 X117.173 Y105.309 E34.70335
G1 X105.003 Y105.735 E35.10838
G1 X105.222 Y111.702 E35.30697
G0 F6000 X104.822 Y111.709
G1 F1200 X105.13 Y119.053 E35.55145
G1 X105.134 Y119.144 E35.55448
G1 X105.356 Y123.802 E35.70958
G1 X105.598 Y128.466 E35.86491
G1 X106.029 Y136.062 E36.11796
G1 X106.5 Y143.643 E36.3706
G1 X106.823 Y148.395 E36.52901
G1 X122.658 Y147.841 E37.05601
G1 X122.62 Y146.969 E37.08504
G1 X122.497 Y144.658 E37.16201
G1 X122.273 Y141.259 E37.27531
G1 X121.993 Y137.757 E37.39216
G1 X121.677 Y134.365 E37.50546
G1 X121.318 Y130.976 E37.61881
G1 X120.916 Y127.55 E37.73354
G1 X120.473 Y124.098 E37.8493
G1 X120.002 Y120.66 E37.96472
G1 X119.503 Y117.237 E38.07977
G1 X118.976 Y113.793 E38.19565
G1 X118.445 Y110.467 E38.30767
G1 X117.871 Y107.004 E38.42443
G1 X117.508 Y104.897 E38.49554
G1 X104.588 Y105.349 E38.92552
G1 X104.822 Y111.709 E39.1372
G0 F6000 X104.422 Y111.726
G1 F1200 X104.73 Y119.07 E39.38168
G1 X104.735 Y119.163 E39.38477
G1 X104.957 Y123.822 E39.53991
G1 X105.199 Y128.493 E39.69548
G1 X105.629 Y136.079 E39.94819
G1 X106.101 Y143.67 E40.20116
G1 X106.311 Y146.804 E40.30563
G1 X106.452 Y148.808 E40.37245
G1 X123.076 Y148.227 E40.9257
G1 X123.02 Y146.952 E40.96815
G1 X122.896 Y144.636 E41.04529
G1 X122.671 Y141.213 E41.15938
G1 X122.392 Y137.725 E41.27577
G1 X122.075 Y134.328 E41.38924
G1 X121.716 Y130.933 E41.50279
G1 X121.311 Y127.489 E41.61813
G1 X120.87 Y124.047 E41.73354
G1 X120.398 Y120.606 E41.84906
G1 X119.897 Y117.169 E41.96459
G1 X119.373 Y113.739 E42.07999
G1 X118.84 Y110.404 E42.19232
G1 X118.265 Y106.939 E42.30914
G1 X117.843 Y104.485 E42.39196
G1 X104.174 Y104.963 E42.84687
G1 X104.422 Y111.726 E43.07196
G0 F6000 X104.023 Y111.746
G1 F1200 X104.33 Y119.087 E43.31634
G1 X104.322 Y119.142 E43.31819
G1 X104.557 Y123.843 E43.47474
G1 X104.799 Y128.511 E43.63021
G1 X105.23 Y136.104 E43.88316
G1 X105.702 Y143.697 E44.13619
G1 X105.912 Y146.832 E44.24069
G1 X106.079 Y149.221 E44.32034
G1 X123.494 Y148.612 E44.89992
G1 X123.42 Y146.934 E44.95579
G1 X123.296 Y144.615 E45.03303
G1 X123.07 Y141.186 E45.14733
G1 X122.791 Y137.693 E45.26387
G1 X122.475 Y134.298 E45.37728
G1 X122.113 Y130.891 E45.49123
G1 X121.708 Y127.442 E45.60674
G1 X121.267 Y123.996 E45.72229
G1 X120.796 Y120.557 E45.83774
G1 X120.293 Y117.112 E45.95353
G1 X119.768 Y113.676 E46.06914
G1 X119.235 Y110.341 E46.18147
G1 X118.66 Y106.873 E46.29839
G1 X118.179 Y104.073 E46.39288
G1 X103.76 Y104.578 E46.87276
G1 X104.023 Y111.746 E47.11132
G0 F6000 X103.623 Y111.76
G1 F1200 X103.936 Y119.201 E47.35903
G1 X104.158 Y123.864 E47.5143
G1 X104.4 Y128.534 E47.66983
G1 X104.831 Y136.129 E47.92285
G1 X105.303 Y143.725 E48.17598
G1 X105.513 Y146.86 E48.28049
G1 X105.707 Y149.634 E48.37297
G1 X123.91 Y148.998 E48.97878
G1 X123.819 Y146.917 E49.04806
G1 X123.695 Y144.594 E49.12543
G1 X123.469 Y141.16 E49.23989
G1 X123.19 Y137.661 E49.35664
G1 X122.872 Y134.254 E49.47045
G1 X122.511 Y130.849 E49.58434
G1 X122.105 Y127.395 E49.70001
G1 X121.664 Y123.945 E49.81569
G1 X121.191 Y120.497 E49.93144
G1 X120.689 Y117.054 E50.04717
G1 X120.162 Y113.611 E50.16302
G1 X119.63 Y110.278 E50.27528
G1 X119.055 Y106.808 E50.39226
G1 X118.514 Y103.662 E50.49844
G1 X118.259 Y103.67 E50.50692
G1 X103.345 Y104.192 E51.00327
G1 X103.623 Y111.76 E51.25515
G1 F1500 E45.25515
G0 F6000 X102.31 Y110.174
G1 F1500 E51.29672
G1 F1200 X102.059 Y103.186 E51.5293
G1 X102.078 Y103.122 E51.53152
G1 X102.057 Y103.084 E51.53296
G1 X101.828 Y95.88 E51.77269
G1 X101.038 Y68.905 E52.67026
G1 X101.068 Y68.804 E52.67377
G1 X101.034 Y68.742 E52.67612
G1 X100.999 Y67.462 E52.71871
G1 X101.019 Y67.395 E52.72103
G1 X101.001 Y67.361 E52.72231
G1 X100.715 Y55.966 E53.10143
G1 X100.266 Y37.084 E53.72963
G1 X100.291 Y37.002 E53.73248
G1 X100.263 Y36.951 E53.73441
G1 X100.24 Y35.927 E53.76848
G1 X100.263 Y35.852 E53.77109
G1 X100.249 Y35.826 E53.77207
G1 X100.154 Y30.819 E53.93864
G1 X100.132 Y28.23 E54.02475
G1 X100.123 Y25.787 E54.10601
G1 X100.131 Y25.728 E54.10799
G1 X100.173 Y25.588 E54.11285
G1 X100.236 Y25.492 E54.11667
G1 X100.348 Y25.398 E54.12153
G1 X100.459 Y25.352 E54.12553
G1 X100.603 Y25.339 E54.13033
G1 X100.712 Y25.36 E54.13403
G1 X100.842 Y25.426 E54.13888
G1 X100.926 Y25.508 E54.14278
G1 X100.993 Y25.63 E54.14741
G1 X101.719 Y28.075 E54.23224
G1 X103.214 Y33.017 E54.40397
G1 X103.939 Y35.46 E54.48872
G1 X104.658 Y37.967 E54.57547
G1 X105.778 Y42.019 E54.71529
G1 X106.672 Y45.341 E54.82971
G1 X107.977 Y50.265 E54.99914
G1 X108.954 Y54.009 E55.12784
G1 X109.905 Y57.721 E55.25529
G1 X110.835 Y61.438 E55.38272
G1 X112.161 Y66.928 E55.57057
G1 X112.772 Y69.528 E55.65941
G1 X114.114 Y75.406 E55.85994
G1 X115.431 Y81.405 E56.06422
G1 X116.32 Y85.586 E56.20639
G1 X117.176 Y89.763 E56.3482
G1 X118 Y93.944 E56.48994
G1 X118.773 Y98.036 E56.62845
G1 X119.291 Y100.865 E56.7241
G1 X119.79 Y103.697 E56.81975
G1 X120.731 Y109.259 E57.00737
G1 X121.34 Y113.047 E57.13498
G1 X121.922 Y116.839 E57.26258
G1 X122.473 Y120.635 E57.39015
G1 X122.99 Y124.437 E57.51777
G1 X123.269 Y126.627 E57.5912
G1 X123.55 Y128.928 E57.6683
G1 X123.807 Y131.176 E57.74356
G1 X124.045 Y133.427 E57.81884
G1 X124.269 Y135.696 E57.89468
G1 X124.464 Y137.897 E57.96817
G1 X124.65 Y140.173 E58.04412
G1 X124.813 Y142.448 E58.11998
G1 X124.972 Y145.015 E58.20552
G1 X125.105 Y147.635 E58.29278
G1 X125.206 Y150.151 E58.37653
G1 X125.277 Y152.668 E58.46028
G1 X125.317 Y155.1 E58.54118
G1 X125.326 Y157.534 E58.62213
G1 X125.305 Y159.782 E58.6969
G1 X125.255 Y162.031 E58.77173
G1 X125.182 Y164.199 E58.84387
G1 X125.081 Y166.365 E58.91599
G1 X124.947 Y168.591 E58.99017
G1 X124.782 Y170.761 E59.06255
G1 X124.607 Y172.624 E59.12478
G1 X124.389 Y174.545 E59.18909
G1 X124.228 Y175.76 E59.22985
G1 X124.058 Y176.919 E59.26881
G1 X123.867 Y178.132 E59.30965
G1 X123.523 Y180.098 E59.37604
G1 X123.23 Y181.611 E59.42729
G1 X123.066 Y182.394 E59.4539
G1 X122.733 Y183.852 E59.50364
G1 X122.35 Y185.313 E59.55388
G1 X122.031 Y186.398 E59.59149
G1 X121.683 Y187.472 E59.62904
G1 X121.332 Y188.465 E59.66407
G1 X120.949 Y189.433 E59.6987
G1 X120.608 Y190.201 E59.72665
G1 X120.221 Y190.972 E59.75534
G1 X119.876 Y191.575 E59.77845
G1 X119.493 Y192.17 E59.80198
G1 X119.15 Y192.644 E59.82144
G1 X118.772 Y193.103 E59.84122
G1 X118.453 Y193.444 E59.85675
G1 X118.104 Y193.768 E59.87259
G1 X117.736 Y194.052 E59.88805
G1 X117.342 Y194.297 E59.90348
G1 X117.004 Y194.457 E59.91592
G1 X116.658 Y194.573 E59.92806
G1 X116.29 Y194.645 E59.94053
G1 X115.926 Y194.667 E59.95266
G1 X115.65 Y194.65 E59.96185
G1 X115.381 Y194.605 E59.97092
G1 X115.118 Y194.534 E59.97998
G1 X114.86 Y194.438 E59.98914
G1 X114.56 Y194.299 E60.00014
G1 X114.269 Y194.131 E60.01131
G1 X113.983 Y193.933 E60.02288
G1 X113.711 Y193.717 E60.03444
G1 X113.458 Y193.491 E60.04572
G1 X113.211 Y193.244 E60.05734
G1 X112.988 Y193.001 E60.06831
G1 X112.776 Y192.747 E60.07931
G1 X112.415 Y192.261 E60.09945
G1 X112.087 Y191.759 E60.11939
G1 X111.808 Y191.276 E60.13794
G1 X111.552 Y190.786 E60.15633
G1 X111.327 Y190.316 E60.17366
