;FLAVOR:Marlin
;TIME:7869
;Filament used: 10.7427m
;Layer height: 0.2
;MINX:95.588
;MINY:40.793
;MINZ:0.2
;MAXX:127.491
;MAXY:179.201
;MAXZ:187
;Generated with Cura_SteamEngine 4.6.1
M140 S60
M105
M190 S60
M104 S220
M105
M109 S220
M82 ;absolute extrusion mode
; Ender 3 Custom Start G-code
G92 E0 ; Reset Extruder
G28 ; Home all axes
G1 Z2.0 F3000 ; Move Z Axis up little to prevent scratching of Heat Bed
G1 X0.1 Y20 Z0.3 F5000.0 ; Move to start position
G1 X0.1 Y200.0 Z0.3 F1500.0 E15 ; Draw the first line
G1 X0.4 Y200.0 Z0.3 F5000.0 ; Move to side a little
G1 X0.4 Y20 Z0.3 F1500.0 E30 ; Draw the second line
G92 E0 ; Reset Extruder
G1 Z2.0 F3000 ; Move Z Axis up little to prevent scratching of Heat Bed
G1 X5 Y20 Z0.3 F5000.0 ; Move over to prevent blob squish
G92 E0
G92 E0
G1 F1500 E-6
;LAYER_COUNT:935
;LAYER:0
M107
G0 F6000 X109.541 Y97.142 Z0.2
;TYPE:SKIRT
G1 F1500 E0.04158
G1 F1200 X109.222 Y100.643 E0.1585
G1 X108.943 Y104.014 E0.271
G1 X108.683 Y107.571 E0.38963
G1 X115.038 Y107.572 E0.60099
G1 X115.039 Y105.747 E0.66169
G1 X114.998 Y98.538 E0.90147
G1 X115.004 Y98.427 E0.90517
G1 X114.995 Y98.255 E0.9109
G1 X114.981 Y97.143 E0.94788
G1 X109.541 Y97.142 E1.12882
G0 F6000 X109.139 Y97.138
G1 F1200 X108.824 Y100.607 E1.24467
G1 X108.54 Y104.037 E1.35915
G1 X108.256 Y107.971 E1.49033
G1 X115.438 Y107.972 E1.72921
G1 X115.439 Y105.747 E1.80321
G1 X115.398 Y98.536 E2.04305
G1 X115.404 Y98.424 E2.04678
G1 X115.395 Y98.25 E2.05258
G1 X115.376 Y96.743 E2.10271
G1 X109.179 Y96.742 E2.30882
G1 X109.139 Y97.138 E2.32206
G0 F6000 X108.741 Y97.098
G1 F1200 X108.429 Y100.531 E2.43671
G1 X108.141 Y104.004 E2.55262
G1 X107.883 Y107.535 E2.67037
G1 X107.83 Y108.371 E2.69823
G1 X115.837 Y108.372 E2.96455
G1 X115.839 Y105.748 E3.05182
G1 X115.798 Y98.533 E3.2918
G1 X115.804 Y98.424 E3.29543
G1 X115.795 Y98.245 E3.30139
G1 X115.771 Y96.343 E3.36466
G1 X108.817 Y96.342 E3.59595
G1 X108.741 Y97.098 E3.62122
G0 F6000 X108.343 Y97.058
G1 F1200 X108.027 Y100.535 E3.73734
G1 X107.746 Y103.927 E3.85055
G1 X107.484 Y107.506 E3.9699
G1 X107.404 Y108.771 E4.01206
G1 X116.237 Y108.772 E4.30585
G1 X116.239 Y105.748 E4.40643
G1 X116.198 Y98.531 E4.64647
G1 X116.205 Y98.422 E4.6501
G1 X116.195 Y98.24 E4.65616
G1 X116.166 Y95.943 E4.73257
G1 X108.455 Y95.942 E4.98904
G1 X108.343 Y97.058 E5.02634
G0 F6000 X107.945 Y97.018
G1 F1200 X107.629 Y100.498 E5.14256
G1 X107.344 Y103.938 E5.25737
G1 X107.085 Y107.477 E5.37539
G1 X106.978 Y109.171 E5.43185
G1 X116.637 Y109.172 E5.75311
G1 X116.639 Y105.748 E5.86699
G1 X116.598 Y98.529 E6.1071
G1 X116.605 Y98.423 E6.11063
G1 X116.595 Y98.235 E6.11689
G1 X116.562 Y95.543 E6.20644
G1 X108.093 Y95.542 E6.48812
G1 X107.945 Y97.018 E6.53745
G0 F6000 X107.547 Y96.978
G1 F1200 X107.233 Y100.432 E6.65281
G1 X106.945 Y103.905 E6.76872
G1 X106.686 Y107.447 E6.88684
G1 X106.551 Y109.571 E6.95763
G1 X117.036 Y109.572 E7.30636
G1 X117.039 Y105.749 E7.43351
G1 X116.998 Y98.527 E7.67372
G1 X117.005 Y98.424 E7.67716
G1 X116.995 Y98.23 E7.68362
G1 X116.957 Y95.143 E7.7863
G1 X107.731 Y95.142 E8.09316
G1 X107.547 Y96.978 E8.15453
G0 F6000 X107.149 Y96.938
G1 F1200 X106.832 Y100.426 E8.27102
G1 X106.549 Y103.839 E8.38492
G1 X106.287 Y107.418 E8.50428
G1 X106.125 Y109.971 E8.58936
G1 X117.436 Y109.972 E8.96557
G1 X117.439 Y105.749 E9.10603
G1 X117.398 Y98.524 E9.34634
G1 X117.405 Y98.42 E9.3498
G1 X117.395 Y98.225 E9.3563
G1 X117.352 Y94.743 E9.47212
G1 X107.369 Y94.742 E9.80415
G1 X107.149 Y96.938 E9.87756
G0 F6000 X106.754 Y96.871
G1 F1200 X106.434 Y100.39 E9.99508
G1 X106.148 Y103.839 E10.11019
G1 X105.888 Y107.389 E10.22858
G1 X105.699 Y110.371 E10.32796
G1 X117.836 Y110.372 E10.73164
G1 X117.839 Y105.749 E10.8854
G1 X117.798 Y98.522 E11.12578
G1 X117.806 Y98.423 E11.12908
G1 X117.795 Y98.22 E11.13584
G1 X117.747 Y94.343 E11.2648
G1 X107.007 Y94.342 E11.62201
G1 X106.754 Y96.871 E11.70655
G0 F6000 X106.353 Y96.858
G1 F1200 X106.035 Y100.353 E11.82327
G1 X105.749 Y103.806 E11.93851
G1 X105.489 Y107.36 E12.05704
G1 X105.273 Y110.771 E12.17071
G1 X118.236 Y110.772 E12.60187
G1 X118.239 Y105.749 E12.76893
G1 X118.198 Y98.52 E13.00937
G1 X118.206 Y98.425 E13.01254
G1 X118.195 Y98.215 E13.01954
G1 X118.142 Y93.943 E13.16164
G1 X106.645 Y93.942 E13.54403
G1 X106.353 Y96.858 E13.6415
G0 F6000 X105.955 Y96.818
G1 F1200 X105.637 Y100.317 E13.75836
G1 X105.35 Y103.773 E13.8737
G1 X105.092 Y107.309 E13.99162
G1 X104.851 Y111.171 E14.12032
G1 X118.635 Y111.172 E14.57878
G1 X118.639 Y105.75 E14.75911
G1 X118.598 Y98.517 E14.99969
G1 X118.607 Y98.416 E15.00306
G1 X118.595 Y98.21 E15.00992
G1 X118.537 Y93.543 E15.16516
G1 X106.283 Y93.542 E15.57273
G1 X105.955 Y96.818 E15.68224
G0 F6000 X105.557 Y96.779
G1 F1200 X105.239 Y100.281 E15.79919
G1 X104.952 Y103.74 E15.91463
G1 X104.691 Y107.301 E16.03339
G1 X104.472 Y110.752 E16.1484
G1 X104.429 Y111.571 E16.17568
G1 X119.035 Y111.572 E16.66148
G1 X119.039 Y105.75 E16.85512
G1 X118.998 Y98.515 E17.09576
G1 X119.008 Y98.414 E17.09914
G1 X119.002 Y98.345 E17.10144
G1 X118.995 Y98.205 E17.1061
G1 X118.932 Y93.143 E17.27448
G1 X105.922 Y93.142 E17.70719
G1 X105.557 Y96.779 E17.82877
G0 F6000 X105.159 Y96.739
G1 F1200 X104.84 Y100.245 E17.94586
G1 X104.553 Y103.707 E18.0614
G1 X104.292 Y107.272 E18.18029
G1 X104.073 Y110.727 E18.29543
G1 X104.007 Y111.971 E18.33687
G1 X119.435 Y111.972 E18.85
G1 X119.439 Y105.75 E19.05695
G1 X119.398 Y98.513 E19.29766
G1 X119.41 Y98.408 E19.30117
G1 X119.395 Y98.2 E19.30811
G1 X119.327 Y92.743 E19.48962
G1 X105.56 Y92.742 E19.94751
G1 X105.159 Y96.739 E20.08112
G0 F6000 X104.761 Y96.699
G1 F1200 X104.442 Y100.209 E20.19835
G1 X104.155 Y103.674 E20.31399
G1 X103.893 Y107.243 E20.43301
G1 X103.674 Y110.701 E20.54826
G1 X103.586 Y112.371 E20.60388
G1 X119.835 Y112.372 E21.14432
G1 X119.839 Y105.75 E21.36457
G1 X119.798 Y98.511 E21.60534
G1 X119.811 Y98.412 E21.60867
G1 X119.795 Y98.195 E21.6159
G1 X119.722 Y92.343 E21.81056
G1 X105.198 Y92.342 E22.29363
G1 X104.761 Y96.699 E22.43927
G0 F6000 X104.363 Y96.659
G1 F1200 X104.044 Y100.172 E22.55659
G1 X103.756 Y103.641 E22.67237
G1 X103.494 Y107.208 E22.79133
G1 X103.275 Y110.676 E22.9069
G1 X103.164 Y112.771 E22.97668
G1 X120.234 Y112.772 E23.54443
G1 X120.239 Y105.751 E23.77795
G1 X120.198 Y98.508 E24.01886
G1 X120.214 Y98.421 E24.0218
G1 X120.197 Y98.237 E24.02795
G1 X120.117 Y91.943 E24.2373
G1 X104.836 Y91.942 E24.74555
G1 X104.363 Y96.659 E24.90322
G0 F6000 X103.965 Y96.619
G1 F1200 X103.645 Y100.136 E25.02068
G1 X103.357 Y103.608 E25.13656
G1 X103.095 Y107.183 E25.25578
G1 X102.876 Y110.651 E25.37136
G1 X102.742 Y113.171 E25.45529
G1 X120.634 Y113.172 E26.05038
G1 X120.639 Y105.751 E26.29721
G1 X120.598 Y98.506 E26.53818
G1 X120.621 Y98.433 E26.54073
G1 X120.596 Y98.201 E26.54849
G1 X120.512 Y91.543 E26.76995
G1 X104.474 Y91.542 E27.30338
G1 X103.965 Y96.619 E27.47308
G1 F1500 E21.47308
G0 F6000 X102.555 Y98.294
G1 F1500 E27.51466
G1 F1200 X102.919 Y94.47 E27.64242
G1 X103.31 Y90.65 E27.77014
G1 X103.729 Y86.832 E27.89789
G1 X104.397 Y81.173 E28.08741
G1 X105.125 Y75.522 E28.27692
G1 X105.712 Y71.271 E28.41965
G1 X106.333 Y67.028 E28.56228
G1 X106.983 Y62.79 E28.70488
G1 X107.672 Y58.497 E28.8495
G1 X108.674 Y52.508 E29.05146
G1 X109.719 Y46.558 E29.25239
G1 X109.778 Y46.448 E29.25654
G1 X109.916 Y46.393 E29.26148
G1 X120.505 Y46.393 E29.61367
G1 X120.624 Y46.432 E29.61784
G1 X120.705 Y46.588 E29.62368
G1 X120.874 Y53.059 E29.83898
G1 X121.451 Y75.862 E30.59765
G1 X121.427 Y75.941 E30.6004
G1 X121.454 Y75.993 E30.60235
G1 X121.659 Y85.326 E30.91284
G1 X121.77 Y91.865 E31.13036
G1 X121.847 Y98.403 E31.34783
G1 X121.828 Y98.464 E31.34996
G1 X121.848 Y98.504 E31.35144
G1 X121.887 Y104.668 E31.55646
G1 X121.891 Y111.147 E31.77196
G1 X121.864 Y117.57 E31.98559
G1 X121.806 Y124.049 E32.20109
G1 X121.719 Y129.624 E32.38654
G1 X121.702 Y129.672 E32.38823
G1 X121.717 Y129.744 E32.39068
G1 X121.649 Y132.611 E32.48606
G1 X121.525 Y136.66 E32.62079
G1 X121.356 Y140.616 E32.75249
G1 X121.191 Y143.661 E32.85392
G1 X120.99 Y146.701 E32.95525
G1 X120.78 Y149.36 E33.04396
G1 X120.539 Y151.931 E33.12985
G1 X120.3 Y154.133 E33.20352
G1 X120.025 Y156.331 E33.27719
G1 X119.755 Y158.269 E33.34227
G1 X119.456 Y160.198 E33.4072
G1 X119.25 Y161.401 E33.44779
G1 X119.029 Y162.573 E33.48746
G1 X118.741 Y163.886 E33.53217
G1 X118.414 Y165.182 E33.57663
G1 X118.129 Y166.171 E33.61086
G1 X117.822 Y167.151 E33.64501
G1 X117.484 Y168.138 E33.67971
G1 X117.12 Y169.105 E33.71408
G1 X116.889 Y169.652 E33.73383
G1 X116.639 Y170.188 E33.7535
G1 X116.33 Y170.764 E33.77524
G1 X115.985 Y171.32 E33.797
G1 X115.678 Y171.746 E33.81447
G1 X115.342 Y172.153 E33.83202
G1 X115.048 Y172.463 E33.84623
G1 X114.725 Y172.755 E33.86071
G1 X114.38 Y173.018 E33.87514
G1 X114.01 Y173.244 E33.88956
G1 X113.739 Y173.374 E33.89956
G1 X113.452 Y173.48 E33.90974
G1 X113.159 Y173.555 E33.9198
G1 X112.858 Y173.596 E33.9299
G1 X112.541 Y173.602 E33.94045
G1 X112.208 Y173.568 E33.95158
G1 X111.882 Y173.491 E33.96272
G1 X111.565 Y173.381 E33.97388
G1 X111.262 Y173.239 E33.98501
G1 X110.85 Y172.99 E34.00102
G1 X110.454 Y172.693 E34.01748
G1 X110.087 Y172.367 E34.03381
G1 X109.745 Y172.019 E34.05004
G1 X109.346 Y171.557 E34.07034
G1 X108.977 Y171.077 E34.09048
G1 X108.552 Y170.458 E34.11545
G1 X108.169 Y169.827 E34.14
G1 X107.746 Y169.039 E34.16975
G1 X107.358 Y168.234 E34.19947
G1 X106.935 Y167.265 E34.23464
G1 X106.536 Y166.275 E34.27014
G1 X106.119 Y165.142 E34.3103
G1 X105.735 Y163.998 E34.35043
G1 X105.275 Y162.479 E34.40322
G1 X104.861 Y160.954 E34.45578
G1 X104.316 Y158.731 E34.5319
G1 X103.82 Y156.483 E34.60847
G1 X103.459 Y154.671 E34.66992
G1 X103.14 Y152.854 E34.73128
G1 X102.854 Y151.035 E34.79252
G1 X102.604 Y149.213 E34.85369
G1 X102.341 Y147.053 E34.92606
G1 X102.114 Y144.916 E34.99754
G1 X101.911 Y142.763 E35.06947
G1 X101.733 Y140.607 E35.14142
G1 X101.573 Y138.318 E35.21774
G1 X101.439 Y135.97 E35.29596
G1 X101.333 Y133.537 E35.37696
G1 X101.258 Y131.074 E35.45892
G1 X101.209 Y128.515 E35.54405
G1 X101.188 Y125.957 E35.62913
G1 X101.196 Y123.339 E35.7162
G1 X101.231 Y120.809 E35.80036
G1 X101.298 Y118.043 E35.89238
G1 X101.396 Y115.278 E35.98441
G1 X101.553 Y111.927 E36.09598
G1 X101.741 Y108.693 E36.20373
G1 X101.967 Y105.405 E36.31335
G1 X102.223 Y102.12 E36.42294
G1 X102.555 Y98.294 E36.55067
G0 F6000 X102.156 Y98.259
G1 F1200 X102.521 Y94.432 E36.67853
G1 X102.912 Y90.609 E36.80635
G1 X103.332 Y86.789 E36.93417
G1 X104 Y81.126 E37.12383
G1 X104.728 Y75.471 E37.31346
G1 X105.316 Y71.216 E37.45633
G1 X105.937 Y66.97 E37.59906
G1 X106.588 Y62.729 E37.74176
G1 X107.277 Y58.434 E37.88644
G1 X108.279 Y52.442 E38.0885
G1 X109.325 Y46.489 E38.28954
G1 X109.401 Y46.285 E38.29678
G1 X109.545 Y46.121 E38.30404
G1 X109.739 Y46.02 E38.31131
G1 X109.916 Y45.993 E38.31726
G1 X120.505 Y45.993 E38.66946
G1 X120.72 Y46.033 E38.67673
G1 X120.906 Y46.146 E38.68397
G1 X121.039 Y46.319 E38.69123
G1 X121.105 Y46.577 E38.70008
G1 X121.274 Y53.048 E38.91538
G1 X121.851 Y75.851 E39.67406
G1 X121.839 Y75.926 E39.67658
G1 X121.854 Y75.984 E39.67858
G1 X122.059 Y85.317 E39.98907
G1 X122.17 Y91.859 E40.20669
G1 X122.247 Y98.398 E40.42419
G1 X122.237 Y98.456 E40.42615
G1 X122.287 Y104.665 E40.63267
G1 X122.291 Y111.147 E40.84826
G1 X122.264 Y117.573 E41.06199
G1 X122.206 Y124.052 E41.27749
G1 X122.119 Y129.63 E41.46304
G1 X122.105 Y129.7 E41.46541
G1 X122.117 Y129.753 E41.46722
G1 X122.049 Y132.62 E41.5626
G1 X121.925 Y136.672 E41.69744
G1 X121.755 Y140.633 E41.8293
G1 X121.59 Y143.682 E41.93086
G1 X121.389 Y146.728 E42.03239
G1 X121.179 Y149.391 E42.12124
G1 X120.937 Y151.968 E42.20733
G1 X120.697 Y154.176 E42.2812
G1 X120.422 Y156.38 E42.35507
G1 X120.151 Y158.324 E42.42035
G1 X119.851 Y160.259 E42.48548
G1 X119.644 Y161.468 E42.52628
G1 X119.422 Y162.647 E42.56618
G1 X119.132 Y163.971 E42.61126
G1 X118.802 Y165.28 E42.65616
G1 X118.514 Y166.282 E42.69084
G1 X118.203 Y167.271 E42.72532
G1 X117.863 Y168.267 E42.76032
G1 X117.494 Y169.246 E42.79512
G1 X117.258 Y169.807 E42.81536
G1 X117.002 Y170.357 E42.83554
G1 X116.683 Y170.953 E42.85803
G1 X116.324 Y171.531 E42.88066
G1 X116.003 Y171.98 E42.89901
G1 X115.651 Y172.408 E42.91744
G1 X115.337 Y172.739 E42.93262
G1 X114.953 Y173.086 E42.94983
G1 X114.571 Y173.37 E42.96567
G1 X114.165 Y173.614 E42.98142
G1 X113.858 Y173.758 E42.9927
G1 X113.531 Y173.874 E43.00424
G1 X113.189 Y173.956 E43.01594
G1 X112.84 Y173.998 E43.02763
G1 X112.474 Y173.999 E43.0398
G1 X112.165 Y173.966 E43.05014
G1 X112.089 Y173.952 E43.05271
G1 X111.73 Y173.863 E43.06501
G1 X111.374 Y173.734 E43.0776
G1 X111.037 Y173.571 E43.09005
G1 X110.593 Y173.298 E43.10739
G1 X110.213 Y173.012 E43.12321
G1 X109.821 Y172.666 E43.1406
G1 X109.459 Y172.299 E43.15774
G1 X109.043 Y171.818 E43.17889
G1 X108.66 Y171.32 E43.19979
G1 X108.222 Y170.685 E43.22545
G1 X107.827 Y170.034 E43.25077
G1 X107.393 Y169.228 E43.28122
G1 X106.997 Y168.407 E43.31154
G1 X106.568 Y167.425 E43.34718
G1 X106.165 Y166.424 E43.38307
G1 X105.744 Y165.28 E43.42361
G1 X105.356 Y164.125 E43.46414
G1 X104.892 Y162.595 E43.51732
G1 X104.475 Y161.059 E43.57025
G1 X103.927 Y158.826 E43.64673
G1 X103.429 Y156.569 E43.7236
G1 X103.067 Y154.749 E43.78532
G1 X102.746 Y152.923 E43.84698
G1 X102.459 Y151.097 E43.90846
G1 X102.208 Y149.268 E43.96987
G1 X101.944 Y147.101 E44.04247
G1 X101.716 Y144.958 E44.11415
G1 X101.513 Y142.8 E44.18624
G1 X101.334 Y140.64 E44.25833
G1 X101.174 Y138.346 E44.33482
G1 X101.04 Y135.993 E44.4132
G1 X100.934 Y133.554 E44.4944
G1 X100.858 Y131.086 E44.57653
G1 X100.809 Y128.522 E44.66182
G1 X100.788 Y125.96 E44.74704
G1 X100.796 Y123.338 E44.83425
G1 X100.831 Y120.804 E44.91854
G1 X100.898 Y118.033 E45.01073
G1 X100.996 Y115.264 E45.10288
G1 X101.154 Y111.908 E45.21463
G1 X101.342 Y108.67 E45.3225
G1 X101.568 Y105.378 E45.43225
G1 X101.824 Y102.089 E45.54198
G1 X102.156 Y98.259 E45.66984
G0 F6000 X101.758 Y98.225
G1 F1200 X102.123 Y94.394 E45.79784
G1 X102.514 Y90.568 E45.92575
G1 X102.934 Y86.745 E46.05367
G1 X103.603 Y81.079 E46.24343
G1 X104.331 Y75.42 E46.4332
G1 X104.919 Y71.161 E46.5762
G1 X105.542 Y66.912 E46.71904
G1 X106.193 Y62.668 E46.86184
G1 X106.882 Y58.371 E47.00659
G1 X107.885 Y52.376 E47.20875
G1 X108.931 Y46.42 E47.40988
G1 X109.019 Y46.152 E47.41926
G1 X109.178 Y45.919 E47.42865
G1 X109.395 Y45.739 E47.43802
G1 X109.655 Y45.628 E47.44743
G1 X109.916 Y45.593 E47.45618
G1 X120.505 Y45.593 E47.80838
G1 X120.784 Y45.633 E47.81775
G1 X121.041 Y45.749 E47.82713
G1 X121.256 Y45.932 E47.83652
G1 X121.41 Y46.168 E47.84589
G1 X121.505 Y46.567 E47.85953
G1 X121.674 Y53.038 E48.07483
G1 X122.251 Y75.841 E48.83351
G1 X122.242 Y75.922 E48.83622
G1 X122.254 Y75.975 E48.83802
G1 X122.459 Y85.308 E49.14852
G1 X122.57 Y91.852 E49.3662
G1 X122.648 Y98.499 E49.5873
G1 X122.687 Y104.663 E49.79232
G1 X122.691 Y111.146 E50.00794
G1 X122.664 Y117.574 E50.22174
G1 X122.606 Y124.056 E50.43734
G1 X122.517 Y129.763 E50.62718
G1 X122.449 Y132.63 E50.72256
G1 X122.325 Y136.685 E50.8575
G1 X122.155 Y140.65 E50.98949
G1 X121.99 Y143.704 E51.09122
G1 X121.788 Y146.754 E51.19288
G1 X121.578 Y149.422 E51.2819
G1 X121.336 Y152.005 E51.36818
G1 X121.095 Y154.219 E51.44226
G1 X120.819 Y156.43 E51.51637
G1 X120.547 Y158.379 E51.58182
G1 X120.246 Y160.32 E51.64715
G1 X120.039 Y161.535 E51.68814
G1 X119.815 Y162.722 E51.72832
G1 X119.523 Y164.057 E51.77377
G1 X119.19 Y165.378 E51.81908
G1 X118.898 Y166.393 E51.85421
G1 X118.585 Y167.39 E51.88897
G1 X118.241 Y168.397 E51.92436
G1 X117.869 Y169.387 E51.95953
G1 X117.626 Y169.963 E51.98033
G1 X117.339 Y170.576 E52.00284
