;FLAVOR:Marlin
;TIME:2625
;Filament used: 3.00009m
;Layer height: 0.2
;MINX:94.503
;MINY:41.115
;MINZ:0.2
;MAXX:131.499
;MAXY:178.861
;MAXZ:82
;Generated with Cura_SteamEngine 4.6.1
M140 S60
M105
M190 S60
M104 S220
M105
M109 S220
M82 ;absolute extrusion mode
; Ender 3 Custom Start G-code
G92 E0 ; Reset Extruder
G28 ; Home all axes
G1 Z2.0 F3000 ; Move Z Axis up little to prevent scratching of Heat Bed
G1 X0.1 Y20 Z0.3 F5000.0 ; Move to start position
G1 X0.1 Y200.0 Z0.3 F1500.0 E15 ; Draw the first line
G1 X0.4 Y200.0 Z0.3 F5000.0 ; Move to side a little
G1 X0.4 Y20 Z0.3 F1500.0 E30 ; Draw the second line
G92 E0 ; Reset Extruder
G1 Z2.0 F3000 ; Move Z Axis up little to prevent scratching of Heat Bed
G1 X5 Y20 Z0.3 F5000.0 ; Move over to prevent blob squish
G92 E0
G92 E0
G1 F1500 E-6
;LAYER_COUNT:412
;LAYER:0
M107
G0 F6000 X116.12 Y45.2 Z0.2
;TYPE:SKIRT
G1 F1500 E0.04158
G1 F1200 X116.381 Y44.571 E0.06423
G1 X116.803 Y43.843 E0.09221
G1 X116.914 Y43.68 E0.09877
G1 X117.33 Y43.141 E0.12142
G1 X117.806 Y42.654 E0.14407
G1 X118.335 Y42.226 E0.1667
G1 X118.912 Y41.864 E0.18935
G1 X119.526 Y41.571 E0.21198
G1 X120.053 Y41.386 E0.23056
G1 X120.184 Y41.347 E0.23511
G1 X120.847 Y41.191 E0.25776
G1 X121.523 Y41.115 E0.28038
G1 X122.204 Y41.118 E0.30303
G1 X122.88 Y41.2 E0.32568
G1 X123.354 Y41.307 E0.34185
G1 X123.487 Y41.343 E0.34643
G1 X124.133 Y41.56 E0.36909
G1 X124.749 Y41.85 E0.39174
G1 X125.327 Y42.21 E0.41439
G1 X125.858 Y42.636 E0.43703
G1 X126.269 Y43.046 E0.45634
G1 X126.366 Y43.153 E0.46114
G1 X126.793 Y43.684 E0.48381
G1 X127.155 Y44.261 E0.50646
G1 X127.447 Y44.876 E0.5291
G1 X127.664 Y45.521 E0.55174
G1 X127.805 Y46.187 E0.57438
G1 X127.853 Y46.616 E0.58874
G1 X128.07 Y49.522 E0.68566
G1 X128.234 Y52.256 E0.77676
G1 X128.35 Y54.404 E0.8483
G1 X129.455 Y76.309 E1.57779
G1 X129.501 Y77.331 E1.61182
G1 X129.799 Y83.772 E1.82628
G1 X129.798 Y83.862 E1.82927
G1 X129.804 Y83.922 E1.83128
G1 X130.392 Y96.935 E2.26453
G1 X130.722 Y104.599 E2.51968
G1 X130.918 Y109.717 E2.69003
G1 X131.083 Y114.634 E2.85366
G1 X131.167 Y117.539 E2.95032
G1 X131.29 Y122.545 E3.11687
G1 X131.399 Y128.552 E3.3167
G1 X131.475 Y134.54 E3.51587
G1 X131.499 Y138.134 E3.63541
G1 X131.499 Y141.791 E3.75705
G1 X131.465 Y145.094 E3.86691
G1 X131.392 Y148.41 E3.97723
G1 X131.284 Y151.439 E4.07804
G1 X131.181 Y153.523 E4.14743
G1 X131.126 Y154.501 E4.18001
G1 X130.982 Y156.606 E4.25019
G1 X130.9 Y157.608 E4.28363
G1 X130.804 Y158.698 E4.32002
G1 X130.714 Y159.626 E4.35103
G1 X130.531 Y161.296 E4.40691
G1 X130.311 Y163.047 E4.46561
G1 X130.078 Y164.66 E4.51981
G1 X129.842 Y166.047 E4.56661
G1 X129.622 Y167.136 E4.60356
G1 X129.565 Y167.35 E4.61092
G1 X129.545 Y167.481 E4.61533
G1 X129.292 Y168.511 E4.65061
G1 X128.971 Y169.662 E4.69035
G1 X128.727 Y170.453 E4.71788
G1 X128.423 Y171.35 E4.74938
G1 X128.177 Y172.005 E4.77266
G1 X128.083 Y172.239 E4.78104
G1 X127.879 Y172.718 E4.79836
G1 X127.74 Y173.021 E4.80945
G1 X127.512 Y173.481 E4.82652
G1 X127.353 Y173.779 E4.83776
G1 X127.171 Y174.098 E4.84997
G1 X127.006 Y174.37 E4.86055
G1 X126.802 Y174.686 E4.87306
G1 X126.599 Y174.98 E4.88495
G1 X126.392 Y175.261 E4.89655
G1 X126.16 Y175.555 E4.90901
G1 X125.932 Y175.826 E4.92079
G1 X125.64 Y176.148 E4.93525
G1 X125.414 Y176.379 E4.946
G1 X125.056 Y176.715 E4.96233
G1 X124.809 Y176.928 E4.97317
G1 X124.455 Y177.21 E4.98823
G1 X124.274 Y177.343 E4.9957
G1 X123.905 Y177.593 E5.01052
G1 X123.717 Y177.71 E5.01789
G1 X123.206 Y177.993 E5.03732
G1 X122.943 Y178.122 E5.04706
G1 X122.306 Y178.389 E5.07003
G1 X122.109 Y178.458 E5.07697
G1 X121.29 Y178.679 E5.10519
G1 X120.906 Y178.753 E5.11819
G1 X119.921 Y178.857 E5.15114
G1 X119.716 Y178.861 E5.15796
G1 X118.797 Y178.806 E5.18858
G1 X118.405 Y178.751 E5.20174
G1 X117.577 Y178.572 E5.22992
G1 X117.376 Y178.513 E5.23689
G1 X116.789 Y178.306 E5.25759
G1 X116.596 Y178.226 E5.26454
G1 X116.213 Y178.05 E5.27856
G1 X116.018 Y177.952 E5.28582
G1 X115.569 Y177.701 E5.30293
G1 X115.288 Y177.527 E5.31392
G1 X114.837 Y177.218 E5.3321
G1 X114.564 Y177.011 E5.3435
G1 X114.227 Y176.735 E5.35798
G1 X113.969 Y176.507 E5.36944
G1 X113.709 Y176.262 E5.38132
G1 X113.463 Y176.016 E5.39289
G1 X113.23 Y175.769 E5.40418
G1 X112.857 Y175.344 E5.42299
G1 X112.645 Y175.087 E5.43407
G1 X112.435 Y174.816 E5.44547
G1 X112.059 Y174.301 E5.46668
G1 X111.856 Y174.005 E5.47862
G1 X111.53 Y173.495 E5.49875
G1 X111.361 Y173.213 E5.50969
G1 X110.968 Y172.514 E5.53636
G1 X110.823 Y172.239 E5.5467
G1 X110.475 Y171.534 E5.57285
G1 X110.374 Y171.318 E5.58078
G1 X109.908 Y170.26 E5.61923
G1 X109.433 Y169.075 E5.66169
G1 X108.963 Y167.763 E5.70804
G1 X108.508 Y166.348 E5.75748
G1 X108.11 Y164.954 E5.8057
G1 X107.71 Y163.438 E5.85785
G1 X107.233 Y161.449 E5.92588
G1 X106.812 Y159.462 E5.99343
G1 X106.603 Y158.349 E6.0311
G1 X106.404 Y157.199 E6.06991
G1 X106.077 Y155.074 E6.14142
G1 X105.782 Y152.858 E6.21578
G1 X105.516 Y150.56 E6.29272
G1 X105.239 Y147.701 E6.38826
G1 X105.025 Y144.915 E6.48119
G1 X104.858 Y141.973 E6.5792
G1 X104.745 Y139.04 E6.67683
G1 X104.676 Y135.865 E6.78245
G1 X104.661 Y132.714 E6.88726
G1 X104.674 Y131.102 E6.94087
G1 X104.705 Y129.224 E7.00334
G1 X104.807 Y125.775 E7.11811
G1 X104.958 Y122.338 E7.23253
G1 X105.154 Y118.909 E7.34677
G1 X105.426 Y114.951 E7.47872
G1 X105.753 Y110.86 E7.61522
G1 X106.113 Y106.864 E7.74867
G1 X106.509 Y102.866 E7.88229
G1 X106.944 Y98.867 E8.01609
G1 X107.436 Y94.74 E8.15432
G1 X108.065 Y89.897 E8.31675
G1 X108.734 Y85.114 E8.47739
G1 X109.189 Y82.008 E8.5818
G1 X109.687 Y78.759 E8.69112
G1 X110.168 Y75.735 E8.79296
G1 X110.67 Y72.71 E8.89495
G1 X111.041 Y70.554 E8.96771
G1 X111.795 Y66.327 E9.11052
G1 X112.588 Y62.039 E9.25556
G1 X113.389 Y57.82 E9.39839
G1 X114.081 Y54.34 E9.5164
G1 X114.163 Y53.959 E9.52937
G1 X114.715 Y51.365 E9.61757
G1 X115.934 Y45.855 E9.80527
G1 X116.12 Y45.2 E9.82792
G0 F6000 X116.505 Y45.31
G1 F1200 X116.761 Y44.705 E9.84977
G1 X117.134 Y44.069 E9.87429
G1 X117.245 Y43.906 E9.88085
G1 X117.647 Y43.386 E9.90271
G1 X118.109 Y42.919 E9.92456
G1 X118.625 Y42.512 E9.94642
G1 X119.186 Y42.17 E9.96827
G1 X119.784 Y41.899 E9.99011
G1 X120.167 Y41.769 E10.00356
G1 X120.298 Y41.73 E10.0081
G1 X120.938 Y41.582 E10.02995
G1 X121.591 Y41.512 E10.0518
G1 X122.248 Y41.522 E10.07365
G1 X122.899 Y41.611 E10.0955
G1 X123.25 Y41.694 E10.1075
G1 X123.383 Y41.73 E10.11208
G1 X124.005 Y41.939 E10.13391
G1 X124.598 Y42.223 E10.15578
G1 X125.151 Y42.577 E10.17761
G1 X125.658 Y42.996 E10.19949
G1 X125.973 Y43.315 E10.2144
G1 X126.07 Y43.422 E10.2192
G1 X126.481 Y43.935 E10.24107
G1 X126.826 Y44.494 E10.26292
G1 X127.101 Y45.09 E10.28475
G1 X127.302 Y45.716 E10.30662
G1 X127.454 Y46.646 E10.33796
G1 X127.67 Y49.546 E10.43468
G1 X127.834 Y52.28 E10.52578
G1 X127.951 Y54.426 E10.59726
G1 X129.102 Y77.356 E11.36087
G1 X129.404 Y83.94 E11.58009
G1 X129.992 Y96.953 E12.01334
G1 X130.322 Y104.616 E12.26845
G1 X130.518 Y109.732 E12.43874
G1 X130.683 Y114.646 E12.60227
G1 X130.767 Y117.551 E12.69893
G1 X130.89 Y122.555 E12.86541
G1 X130.999 Y128.559 E13.06514
G1 X131.075 Y134.545 E13.26425
G1 X131.099 Y138.137 E13.38372
G1 X131.099 Y141.787 E13.50512
G1 X131.065 Y145.086 E13.61486
G1 X130.993 Y148.396 E13.72497
G1 X130.884 Y151.42 E13.82562
G1 X130.781 Y153.504 E13.89502
G1 X130.727 Y154.474 E13.92733
G1 X130.583 Y156.573 E13.9973
G1 X130.501 Y157.575 E14.03074
G1 X130.41 Y158.611 E14.06533
G1 X130.316 Y159.583 E14.09781
G1 X130.134 Y161.246 E14.15345
G1 X129.915 Y162.99 E14.21192
G1 X129.684 Y164.594 E14.26582
G1 X129.45 Y165.967 E14.31214
G1 X129.23 Y167.056 E14.34909
G1 X129.189 Y167.208 E14.35433
G1 X129.156 Y167.387 E14.36038
G1 X128.907 Y168.404 E14.39521
G1 X128.589 Y169.545 E14.4346
G1 X128.348 Y170.326 E14.46179
G1 X128.048 Y171.21 E14.49284
G1 X127.802 Y171.865 E14.51611
G1 X127.715 Y172.082 E14.52388
G1 X127.511 Y172.561 E14.5412
G1 X127.381 Y172.843 E14.55153
G1 X127.153 Y173.303 E14.5686
G1 X127.005 Y173.581 E14.57908
G1 X126.823 Y173.9 E14.59129
G1 X126.67 Y174.153 E14.60113
G1 X126.466 Y174.469 E14.61364
G1 X126.277 Y174.743 E14.62471
G1 X126.07 Y175.024 E14.63632
G1 X125.854 Y175.297 E14.6479
G1 X125.626 Y175.568 E14.65967
G1 X125.354 Y175.868 E14.67314
G1 X125.128 Y176.099 E14.68389
G1 X124.795 Y176.412 E14.69909
G1 X124.548 Y176.625 E14.70994
G1 X124.219 Y176.888 E14.72395
G1 X124.038 Y177.021 E14.73142
G1 X123.693 Y177.254 E14.74527
G1 X123.505 Y177.371 E14.75263
G1 X123.03 Y177.634 E14.77069
G1 X122.767 Y177.763 E14.78043
G1 X122.174 Y178.011 E14.80181
G1 X121.977 Y178.08 E14.80875
G1 X121.214 Y178.286 E14.83504
G1 X120.83 Y178.36 E14.84805
G1 X119.913 Y178.457 E14.87872
G1 X119.708 Y178.461 E14.88554
G1 X118.853 Y178.41 E14.91402
G1 X118.461 Y178.355 E14.92719
G1 X117.69 Y178.188 E14.95343
G1 X117.489 Y178.129 E14.9604
G1 X116.942 Y177.936 E14.97969
G1 X116.749 Y177.856 E14.98664
G1 X116.392 Y177.693 E14.99969
G1 X116.197 Y177.595 E15.00695
G1 X115.779 Y177.361 E15.02288
G1 X115.498 Y177.187 E15.03387
G1 X115.078 Y176.899 E15.05081
G1 X114.805 Y176.692 E15.06221
G1 X114.492 Y176.435 E15.07568
G1 X114.234 Y176.207 E15.08713
G1 X113.992 Y175.979 E15.09819
G1 X113.746 Y175.733 E15.10976
G1 X113.529 Y175.504 E15.12025
G1 X113.165 Y175.089 E15.13861
G1 X112.953 Y174.832 E15.14969
G1 X112.758 Y174.58 E15.16029
G1 X112.382 Y174.065 E15.1815
G1 X112.193 Y173.789 E15.19263
G1 X111.867 Y173.279 E15.21276
G1 X111.71 Y173.017 E15.22292
G1 X111.317 Y172.318 E15.24959
G1 X111.182 Y172.062 E15.25921
G1 X110.74 Y171.156 E15.29274
G1 X110.279 Y170.11 E15.33076
G1 X109.809 Y168.939 E15.37273
G1 X109.343 Y167.64 E15.41863
G1 X108.893 Y166.238 E15.4676
G1 X108.497 Y164.852 E15.51555
G1 X108.099 Y163.345 E15.56739
G1 X107.624 Y161.366 E15.63508
G1 X107.205 Y159.388 E15.70233
G1 X106.997 Y158.281 E15.73979
G1 X106.799 Y157.138 E15.77837
G1 X106.474 Y155.021 E15.84961
G1 X106.179 Y152.812 E15.92373
G1 X105.914 Y150.521 E16.00044
G1 X105.638 Y147.67 E16.09571
G1 X105.425 Y144.892 E16.18838
G1 X105.258 Y141.957 E16.28615
G1 X105.145 Y139.031 E16.38355
G1 X105.076 Y135.863 E16.48894
G1 X105.061 Y132.717 E16.59358
G1 X105.074 Y131.105 E16.64719
G1 X105.104 Y129.236 E16.70936
G1 X105.206 Y125.793 E16.82393
G1 X105.358 Y122.361 E16.93819
G1 X105.553 Y118.936 E17.05229
G1 X105.825 Y114.983 E17.18408
G1 X106.152 Y110.896 E17.32045
G1 X106.507 Y106.951 E17.45219
G1 X106.907 Y102.91 E17.58725
G1 X107.341 Y98.915 E17.72091
G1 X107.833 Y94.791 E17.85904
G1 X108.461 Y89.952 E18.02134
G1 X109.13 Y85.169 E18.18197
G1 X109.585 Y82.066 E18.28628
G1 X110.082 Y78.82 E18.3955
G1 X110.563 Y75.798 E18.49728
G1 X111.065 Y72.775 E18.5992
G1 X111.435 Y70.622 E18.67186
G1 X112.189 Y66.397 E18.8146
G1 X112.981 Y62.112 E18.95954
G1 X113.782 Y57.894 E19.10234
G1 X114.472 Y54.424 E19.22001
G1 X114.552 Y54.054 E19.2326
G1 X115.106 Y51.448 E19.32121
G1 X116.324 Y45.942 E19.50877
G1 X116.505 Y45.31 E19.53063
G0 F6000 X116.89 Y45.421
G1 F1200 X117.141 Y44.84 E19.55168
G1 X117.464 Y44.294 E19.57278
G1 X117.575 Y44.131 E19.57934
G1 X117.963 Y43.632 E19.60037
G1 X118.411 Y43.186 E19.62139
G1 X118.912 Y42.8 E19.64243
G1 X119.457 Y42.48 E19.66345
G1 X120.281 Y42.153 E19.69293
G1 X120.412 Y42.114 E19.69748
G1 X121.028 Y41.972 E19.71851
G1 X121.657 Y41.909 E19.73953
G1 X122.289 Y41.926 E19.76056
G1 X123.145 Y42.08 E19.78949
G1 X123.278 Y42.116 E19.79407
G1 X123.877 Y42.319 E19.81511
G1 X124.445 Y42.596 E19.83612
G1 X124.974 Y42.943 E19.85717
G1 X125.454 Y43.354 E19.87818
G1 X125.773 Y43.691 E19.89362
G1 X126.168 Y44.185 E19.91465
G1 X126.496 Y44.725 E19.93567
G1 X126.754 Y45.302 E19.95669
G1 X126.937 Y45.907 E19.97771
G1 X127.055 Y46.676 E20.00359
G1 X127.271 Y49.57 E20.10011
G1 X127.435 Y52.304 E20.19121
G1 X127.552 Y54.448 E20.26263
G1 X128.656 Y76.349 E20.99198
G1 X128.702 Y77.368 E21.02591
G1 X129 Y83.809 E21.24036
G1 X128.998 Y83.9 E21.24339
G1 X129.005 Y83.958 E21.24534
G1 X129.593 Y96.971 E21.67859
G1 X129.922 Y104.633 E21.93366
G1 X130.118 Y109.748 E22.10392
G1 X130.283 Y114.657 E22.26728
G1 X130.367 Y117.562 E22.36394
G1 X130.49 Y122.565 E22.53039
G1 X130.599 Y128.567 E22.73005
G1 X130.675 Y134.55 E22.92906
G1 X130.699 Y138.139 E23.04844
G1 X130.699 Y141.783 E23.16964
G1 X130.665 Y145.077 E23.2792
G1 X130.593 Y148.382 E23.38915
G1 X130.485 Y151.4 E23.4896
G1 X130.382 Y153.484 E23.559
G1 X130.327 Y154.447 E23.59108
G1 X130.184 Y156.541 E23.66089
G1 X130.102 Y157.543 E23.69432
G1 X130.012 Y158.576 E23.72881
G1 X129.919 Y159.54 E23.76102
G1 X129.737 Y161.197 E23.81647
G1 X129.519 Y162.933 E23.87466
G1 X129.289 Y164.527 E23.92823
G1 X129.058 Y165.888 E23.97414
G1 X128.838 Y166.977 E24.01109
G1 X128.786 Y167.17 E24.01774
G1 X128.767 Y167.293 E24.02188
G1 X128.521 Y168.297 E24.05626
G1 X128.206 Y169.428 E24.09531
G1 X127.968 Y170.199 E24.12215
G1 X127.674 Y171.069 E24.15269
G1 X127.428 Y171.724 E24.17596
G1 X127.347 Y171.925 E24.18317
G1 X127.143 Y172.404 E24.20049
G1 X127.023 Y172.665 E24.21004
G1 X126.795 Y173.125 E24.22712
G1 X126.658 Y173.383 E24.23683
G1 X126.476 Y173.702 E24.24905
G1 X126.334 Y173.936 E24.25815
G1 X126.13 Y174.252 E24.27066
G1 X125.955 Y174.506 E24.28092
G1 X125.748 Y174.787 E24.29253
G1 X125.548 Y175.04 E24.30326
G1 X125.32 Y175.311 E24.31504
G1 X125.068 Y175.589 E24.32752
G1 X124.842 Y175.82 E24.33826
G1 X124.533 Y176.11 E24.35236
G1 X124.286 Y176.323 E24.36321
G1 X123.982 Y176.565 E24.37613
G1 X123.801 Y176.698 E24.3836
G1 X123.482 Y176.914 E24.39641
G1 X123.294 Y177.031 E24.40378
G1 X122.854 Y177.275 E24.42051
G1 X122.591 Y177.404 E24.43026
G1 X122.042 Y177.634 E24.45005
G1 X121.845 Y177.703 E24.457
G1 X121.138 Y177.894 E24.48135
G1 X120.754 Y177.968 E24.49436
G1 X119.906 Y178.057 E24.52272
G1 X119.701 Y178.061 E24.52954
G1 X118.908 Y178.014 E24.55596
G1 X118.516 Y177.959 E24.56913
G1 X117.803 Y177.805 E24.59339
G1 X117.602 Y177.746 E24.60036
G1 X117.095 Y177.567 E24.61824
G1 X116.902 Y177.487 E24.62519
G1 X116.572 Y177.336 E24.63726
G1 X116.377 Y177.238 E24.64452
G1 X115.99 Y177.021 E24.65927
G1 X115.709 Y176.847 E24.67027
G1 X115.32 Y176.58 E24.68596
G1 X115.047 Y176.373 E24.69735
G1 X114.757 Y176.136 E24.70981
G1 X114.499 Y175.908 E24.72126
G1 X114.274 Y175.697 E24.73152
G1 X114.028 Y175.451 E24.74309
G1 X113.828 Y175.238 E24.75281
G1 X113.474 Y174.835 E24.77065
G1 X113.262 Y174.578 E24.78173
G1 X113.081 Y174.344 E24.79157
G1 X112.705 Y173.829 E24.81278
G1 X112.53 Y173.574 E24.82307
G1 X112.204 Y173.064 E24.8432
G1 X112.059 Y172.821 E24.85261
G1 X111.666 Y172.122 E24.87928
G1 X111.54 Y171.885 E24.88821
G1 X111.105 Y170.994 E24.92119
G1 X110.65 Y169.96 E24.95876
G1 X110.185 Y168.803 E25.00023
G1 X109.724 Y167.517 E25.04567
G1 X109.277 Y166.128 E25.0942
G1 X108.884 Y164.75 E25.14186
G1 X108.488 Y163.251 E25.19343
G1 X108.016 Y161.283 E25.26074
G1 X107.598 Y159.314 E25.32769
G1 X107.391 Y158.212 E25.36499
G1 X107.194 Y157.077 E25.4033
G1 X106.87 Y154.967 E25.4743
G1 X106.576 Y152.766 E25.54816
G1 X106.313 Y150.482 E25.62463
G1 X106.037 Y147.639 E25.71963
G1 X105.824 Y144.869 E25.81203
G1 X105.658 Y141.942 E25.90954
G1 X105.545 Y139.023 E26.0067
G1 X105.476 Y135.861 E26.11189
G1 X105.461 Y132.721 E26.21633
G1 X105.474 Y131.109 E26.26995
G1 X105.504 Y129.248 E26.33185
G1 X105.606 Y125.81 E26.44625
G1 X105.757 Y122.383 E26.56034
G1 X105.952 Y118.964 E26.67425
G1 X106.224 Y115.015 E26.8059
G1 X106.55 Y110.932 E26.94213
G1 X106.905 Y106.987 E27.07388
G1 X107.299 Y103.001 E27.2071
G1 X107.738 Y98.962 E27.34223
G1 X108.23 Y94.843 E27.4802
G1 X108.857 Y90.007 E27.64239
G1 X109.526 Y85.224 E27.80302
G1 X109.981 Y82.124 E27.90723
G1 X110.478 Y78.88 E28.01639
G1 X110.958 Y75.861 E28.11806
