;FLAVOR:Marlin
;TIME:7867
;Filament used: 10.7426m
;Layer height: 0.2
;MINX:92.509
;MINY:40.793
;MINZ:0.2
;MAXX:124.412
;MAXY:179.201
;MAXZ:187
;Generated with Cura_SteamEngine 4.6.1
M140 S60
M105
M190 S60
M104 S220
M105
M109 S220
M82 ;absolute extrusion mode
; Ender 3 Custom Start G-code
G92 E0 ; Reset Extruder
G28 ; Home all axes
G1 Z2.0 F3000 ; Move Z Axis up little to prevent scratching of Heat Bed
G1 X0.1 Y20 Z0.3 F5000.0 ; Move to start position
G1 X0.1 Y200.0 Z0.3 F1500.0 E15 ; Draw the first line
G1 X0.4 Y200.0 Z0.3 F5000.0 ; Move to side a little
G1 X0.4 Y20 Z0.3 F1500.0 E30 ; Draw the second line
G92 E0 ; Reset Extruder
G1 Z2.0 F3000 ; Move Z Axis up little to prevent scratching of Heat Bed
G1 X5 Y20 Z0.3 F5000.0 ; Move over to prevent blob squish
G92 E0
G92 E0
G1 F1500 E-6
;LAYER_COUNT:935
;LAYER:0
M107
G0 F6000 X105.018 Y97.142 Z0.2
;TYPE:SKIRT
G1 F1500 E0.04158
G1 F1200 X105.001 Y98.537 E0.08798
G1 X104.96 Y105.923 E0.33364
G1 X104.962 Y107.572 E0.38849
G1 X111.318 Y107.572 E0.59989
G1 X111.061 Y104.062 E0.71694
G1 X110.774 Y100.597 E0.83258
G1 X110.462 Y97.173 E0.94694
G1 X110.459 Y97.142 E0.94797
G1 X105.018 Y97.142 E1.12894
G0 F6000 X104.623 Y96.742
G1 F1200 X104.601 Y98.535 E1.18858
G1 X104.56 Y105.921 E1.43425
G1 X104.562 Y107.972 E1.50246
G1 X111.744 Y107.972 E1.74134
G1 X111.714 Y107.508 E1.7568
G1 X111.46 Y104.033 E1.87269
G1 X111.172 Y100.564 E1.98846
G1 X110.821 Y96.742 E2.11612
G1 X104.623 Y96.742 E2.32227
G0 F6000 X104.228 Y96.342
G1 F1200 X104.198 Y98.5 E2.39405
G1 X104.16 Y105.919 E2.64081
G1 X104.162 Y108.372 E2.7224
G1 X112.17 Y108.372 E2.98874
G1 X112.11 Y107.431 E3.0201
G1 X111.859 Y104.003 E3.13443
G1 X111.571 Y100.531 E3.2503
G1 X111.263 Y97.145 E3.36339
G1 X111.183 Y96.342 E3.39023
G1 X104.228 Y96.342 E3.62155
G0 F6000 X103.833 Y95.942
G1 F1200 X103.801 Y98.531 E3.70767
G1 X103.76 Y105.917 E3.95333
G1 X103.763 Y108.772 E4.04829
G1 X112.596 Y108.772 E4.34207
G1 X112.509 Y107.406 E4.3876
G1 X112.258 Y103.974 E4.50205
G1 X111.97 Y100.498 E4.61806
G1 X111.657 Y97.064 E4.73275
G1 X111.545 Y95.942 E4.77025
G1 X103.833 Y95.942 E5.02676
G1 F1500 E-0.97324
G0 F6000 X103.398 Y98.492
G1 F1500 E5.06833
G1 F1200 X103.36 Y105.914 E5.31519
G1 X103.363 Y109.172 E5.42355
G1 X113.022 Y109.172 E5.74481
G1 X112.908 Y107.38 E5.80453
G1 X112.657 Y103.945 E5.91909
G1 X112.368 Y100.465 E6.03523
G1 X112.055 Y97.028 E6.15002
G1 X111.907 Y95.542 E6.19969
G1 X103.438 Y95.542 E6.48137
G1 X103.398 Y98.492 E6.5795
G0 F6000 X103.001 Y98.526
G1 F1200 X102.96 Y105.912 E6.82516
G1 X102.963 Y109.572 E6.94689
G1 X113.449 Y109.572 E7.29566
G1 X113.31 Y107.391 E7.36834
G1 X113.056 Y103.916 E7.48423
G1 X112.767 Y100.432 E7.60051
G1 X112.454 Y96.992 E7.7154
G1 X112.269 Y95.142 E7.77723
G1 X103.043 Y95.142 E8.08409
G1 X103.001 Y98.526 E8.19665
G0 F6000 X102.597 Y98.482
G1 F1200 X102.56 Y105.91 E8.44371
G1 X102.564 Y109.972 E8.57881
G1 X113.875 Y109.972 E8.95502
G1 X113.707 Y107.33 E9.04307
G1 X113.455 Y103.887 E9.15789
G1 X113.166 Y100.399 E9.2743
G1 X112.852 Y96.955 E9.38932
G1 X112.631 Y94.742 E9.46329
G1 X102.648 Y94.742 E9.79533
G1 X102.597 Y98.482 E9.91973
G0 F6000 X102.201 Y98.522
G1 F1200 X102.16 Y105.908 E10.1654
G1 X102.164 Y110.372 E10.31387
G1 X114.301 Y110.372 E10.71755
G1 X114.106 Y107.304 E10.8198
G1 X113.854 Y103.858 E10.93472
G1 X113.564 Y100.366 E11.05126
G1 X113.25 Y96.919 E11.16638
G1 X112.993 Y94.342 E11.25252
G1 X102.252 Y94.342 E11.60977
G1 X102.201 Y98.522 E11.74881
G0 F6000 X101.801 Y98.519
G1 F1200 X101.76 Y105.905 E11.99447
G1 X101.765 Y110.772 E12.15635
G1 X114.727 Y110.772 E12.58746
G1 X114.505 Y107.279 E12.70388
G1 X114.253 Y103.829 E12.81893
G1 X113.963 Y100.333 E12.93561
G1 X113.649 Y96.883 E13.05083
G1 X113.354 Y93.942 E13.14914
G1 X101.857 Y93.942 E13.53153
G1 X101.801 Y98.519 E13.68377
G0 F6000 X101.402 Y98.414
G1 F1200 X101.396 Y98.472 E13.68571
G1 X101.36 Y105.903 E13.93287
G1 X101.365 Y111.172 E14.10812
G1 X115.149 Y111.172 E14.56658
G1 X115.13 Y110.811 E14.5786
G1 X114.904 Y107.253 E14.69718
G1 X114.652 Y103.799 E14.81236
G1 X114.363 Y100.317 E14.92857
G1 X114.047 Y96.846 E15.0445
G1 X113.716 Y93.542 E15.15494
G1 X101.462 Y93.542 E15.56251
G1 X101.402 Y98.414 E15.72456
G0 F6000 X101.002 Y98.409
G1 F1200 X100.994 Y98.472 E15.72668
G1 X100.96 Y105.901 E15.97377
G1 X100.965 Y111.572 E16.16239
G1 X115.57 Y111.572 E16.64815
G1 X115.528 Y110.766 E16.67499
G1 X115.304 Y107.228 E16.7929
G1 X115.051 Y103.77 E16.90822
G1 X114.76 Y100.267 E17.02514
G1 X114.445 Y96.81 E17.14059
G1 X114.078 Y93.142 E17.2632
G1 X101.067 Y93.142 E17.69595
G1 X101.002 Y98.409 E17.87114
G0 F6000 X100.601 Y98.513
G1 F1200 X100.56 Y105.899 E18.11681
G1 X100.566 Y111.972 E18.31879
G1 X115.992 Y111.972 E18.83187
G1 X115.928 Y110.745 E18.87273
G1 X115.703 Y107.203 E18.99078
G1 X115.45 Y103.741 E19.10623
G1 X115.159 Y100.234 E19.22327
G1 X114.844 Y96.774 E19.33883
G1 X114.44 Y92.742 E19.47361
G1 X100.672 Y92.742 E19.93153
G1 X100.601 Y98.513 E20.12349
G0 F6000 X100.201 Y98.511
G1 F1200 X100.16 Y105.897 E20.36915
G1 X100.166 Y112.372 E20.58451
G1 X116.413 Y112.372 E21.12489
G1 X116.327 Y110.724 E21.17978
G1 X116.102 Y107.177 E21.29799
G1 X115.85 Y103.722 E21.41321
G1 X115.557 Y100.201 E21.53072
G1 X115.242 Y96.738 E21.64638
G1 X114.802 Y92.342 E21.79332
G1 X100.277 Y92.342 E22.27642
G1 X100.201 Y98.511 E22.48162
G0 F6000 X99.802 Y98.394
G1 F1200 X99.789 Y98.459 E22.48382
G1 X99.801 Y98.508 E22.4855
G1 X99.76 Y105.894 E22.73117
G1 X99.766 Y112.772 E22.95993
G1 X116.835 Y112.772 E23.52765
G1 X116.727 Y110.703 E23.59655
G1 X116.501 Y107.152 E23.7149
G1 X116.248 Y103.683 E23.83059
G1 X115.956 Y100.168 E23.9479
G1 X115.64 Y96.701 E24.06369
G1 X115.164 Y91.942 E24.22276
G1 X99.882 Y91.942 E24.73105
G1 X99.802 Y98.394 E24.94566
G0 F6000 X99.402 Y98.389
G1 F1200 X99.378 Y98.46 E24.94815
G1 X99.401 Y98.506 E24.94986
G1 X99.36 Y105.892 E25.19552
G1 X99.367 Y113.172 E25.43766
G1 X117.256 Y113.172 E26.03265
G1 X117.126 Y110.682 E26.11558
G1 X116.9 Y107.127 E26.23406
G1 X116.647 Y103.654 E26.34987
G1 X116.355 Y100.135 E26.46732
G1 X116.039 Y96.665 E26.58321
G1 X115.526 Y91.542 E26.75445
G1 X99.487 Y91.542 E27.28791
G1 X99.402 Y98.389 E27.51566
G0 F6000 X98.153 Y98.403
G1 F1200 X98.232 Y91.72 E27.73796
G1 X98.343 Y85.247 E27.95328
G1 X98.546 Y75.994 E28.26111
G1 X98.566 Y75.937 E28.26312
G1 X98.549 Y75.862 E28.26568
G1 X99.132 Y52.829 E29.032
G1 X99.295 Y46.588 E29.23965
G1 X99.337 Y46.47 E29.24382
G1 X99.495 Y46.393 E29.24966
G1 X110.084 Y46.393 E29.60185
G1 X110.203 Y46.432 E29.60602
G1 X110.281 Y46.558 E29.61095
G1 X111.336 Y52.562 E29.8137
G1 X112.345 Y58.605 E30.01747
G1 X113.024 Y62.843 E30.16023
G1 X113.675 Y67.082 E30.30287
G1 X114.296 Y71.324 E30.44546
G1 X114.882 Y75.575 E30.58819
G1 X115.609 Y81.225 E30.77766
G1 X116.277 Y86.886 E30.96725
G1 X116.696 Y90.703 E31.09497
G1 X117.087 Y94.524 E31.22272
G1 X117.45 Y98.347 E31.35044
G1 X117.781 Y102.173 E31.47817
G1 X118.035 Y105.46 E31.58782
G1 X118.259 Y108.69 E31.69551
G1 X118.45 Y111.98 E31.80512
G1 X118.603 Y115.247 E31.9139
G1 X118.701 Y118.013 E32.00596
G1 X118.769 Y120.777 E32.09792
G1 X118.804 Y123.393 E32.18493
G1 X118.812 Y125.925 E32.26915
G1 X118.792 Y128.485 E32.3543
G1 X118.743 Y131.041 E32.43933
G1 X118.668 Y133.504 E32.52128
G1 X118.557 Y136.025 E32.60521
G1 X118.431 Y138.287 E32.68056
G1 X118.272 Y140.577 E32.75691
G1 X118.094 Y142.732 E32.82883
G1 X117.891 Y144.886 E32.90079
G1 X117.659 Y147.05 E32.97318
G1 X117.4 Y149.18 E33.04455
G1 X117.15 Y151.001 E33.10568
G1 X116.868 Y152.82 E33.1669
G1 X116.548 Y154.636 E33.22823
G1 X116.189 Y156.448 E33.28967
G1 X115.694 Y158.697 E33.36627
G1 X115.149 Y160.921 E33.44242
G1 X114.733 Y162.456 E33.49532
G1 X114.273 Y163.977 E33.54817
G1 X113.89 Y165.119 E33.58823
G1 X113.473 Y166.253 E33.62842
G1 X113.076 Y167.243 E33.6639
G1 X112.654 Y168.212 E33.69905
G1 X112.263 Y169.022 E33.72897
G1 X111.84 Y169.809 E33.75868
G1 X111.458 Y170.44 E33.78322
G1 X111.034 Y171.061 E33.80823
G1 X110.67 Y171.538 E33.82818
G1 X110.273 Y172 E33.84844
G1 X109.929 Y172.353 E33.86484
G1 X109.565 Y172.679 E33.88109
G1 X109.176 Y172.975 E33.89735
G1 X108.761 Y173.228 E33.91351
G1 X108.457 Y173.372 E33.9247
G1 X108.144 Y173.484 E33.93576
G1 X107.825 Y173.562 E33.94668
G1 X107.492 Y173.601 E33.95783
G1 X107.168 Y173.598 E33.96861
G1 X106.867 Y173.56 E33.9787
G1 X106.575 Y173.488 E33.9887
G1 X106.286 Y173.384 E33.99892
G1 X106.008 Y173.254 E34.00912
G1 X105.647 Y173.035 E34.02317
G1 X105.294 Y172.77 E34.03785
G1 X104.97 Y172.48 E34.05231
G1 X104.668 Y172.164 E34.06685
G1 X104.335 Y171.764 E34.08416
G1 X104.028 Y171.338 E34.10163
G1 X103.68 Y170.781 E34.12347
G1 X103.375 Y170.211 E34.14497
G1 X103.119 Y169.666 E34.165
G1 X102.889 Y169.122 E34.18464
G1 X102.523 Y168.154 E34.21906
G1 X102.186 Y167.169 E34.25369
G1 X101.878 Y166.19 E34.28782
G1 X101.593 Y165.201 E34.32206
G1 X101.263 Y163.907 E34.36647
G1 X100.979 Y162.607 E34.41073
G1 X100.751 Y161.404 E34.45145
G1 X100.549 Y160.229 E34.49111
G1 X100.249 Y158.301 E34.55601
G1 X99.978 Y156.363 E34.62109
G1 X99.704 Y154.164 E34.6948
G1 X99.463 Y151.962 E34.76847
G1 X99.215 Y149.31 E34.85706
G1 X99.013 Y146.732 E34.94307
G1 X98.811 Y143.692 E35.0444
G1 X98.645 Y140.646 E35.14586
G1 X98.471 Y136.524 E35.28308
G1 X98.351 Y132.612 E35.41326
G1 X98.283 Y129.745 E35.50864
G1 X98.305 Y129.671 E35.51121
G1 X98.281 Y129.624 E35.51297
G1 X98.193 Y123.944 E35.70191
G1 X98.136 Y117.519 E35.91561
G1 X98.109 Y111.043 E36.13101
G1 X98.114 Y104.535 E36.34746
G1 X98.153 Y98.403 E36.55142
G0 F6000 X97.764 Y98.441
G1 F1200 X97.832 Y91.715 E36.77514
G1 X97.943 Y85.24 E36.99053
G1 X98.146 Y75.984 E37.29846
G1 X98.162 Y75.908 E37.30104
G1 X98.149 Y75.852 E37.30295
G1 X98.732 Y52.819 E38.06928
G1 X98.895 Y46.578 E38.27693
G1 X98.94 Y46.364 E38.2842
G1 X99.059 Y46.181 E38.29146
G1 X99.235 Y46.052 E38.29872
G1 X99.495 Y45.993 E38.30759
G1 X110.084 Y45.993 E38.65978
G1 X110.299 Y46.033 E38.66705
G1 X110.485 Y46.146 E38.67429
G1 X110.618 Y46.319 E38.68155
G1 X110.675 Y46.489 E38.68751
G1 X111.73 Y52.493 E38.89026
G1 X112.74 Y58.539 E39.09414
G1 X113.419 Y62.78 E39.23699
G1 X114.07 Y67.021 E39.3797
G1 X114.692 Y71.266 E39.5224
G1 X115.278 Y75.52 E39.66522
G1 X116.006 Y81.174 E39.85483
G1 X116.674 Y86.839 E40.04455
G1 X117.093 Y90.66 E40.1724
G1 X117.485 Y94.483 E40.30022
G1 X117.848 Y98.309 E40.42805
G1 X118.18 Y102.138 E40.55588
G1 X118.434 Y105.429 E40.66566
G1 X118.658 Y108.663 E40.77348
G1 X118.849 Y111.957 E40.88323
G1 X119.002 Y115.228 E40.99214
G1 X119.101 Y117.999 E41.08436
G1 X119.169 Y120.767 E41.17645
G1 X119.204 Y123.388 E41.26364
G1 X119.212 Y125.924 E41.34798
G1 X119.192 Y128.488 E41.43327
G1 X119.143 Y131.049 E41.51846
G1 X119.068 Y133.516 E41.60055
G1 X118.956 Y136.042 E41.68465
G1 X118.83 Y138.309 E41.76017
G1 X118.671 Y140.605 E41.83671
G1 X118.493 Y142.765 E41.9088
G1 X118.289 Y144.923 E41.9809
G1 X118.057 Y147.093 E42.05348
G1 X117.797 Y149.229 E42.12505
G1 X117.546 Y151.055 E42.18635
G1 X117.263 Y152.881 E42.24781
G1 X116.942 Y154.705 E42.30941
G1 X116.582 Y156.526 E42.37115
G1 X116.085 Y158.783 E42.44802
G1 X115.538 Y161.016 E42.52448
G1 X115.119 Y162.561 E42.57772
G1 X114.656 Y164.093 E42.63096
G1 X114.269 Y165.246 E42.67141
G1 X113.848 Y166.391 E42.71198
G1 X113.447 Y167.392 E42.74785
G1 X113.021 Y168.371 E42.78336
G1 X112.623 Y169.196 E42.81382
G1 X112.192 Y169.998 E42.84411
G1 X111.8 Y170.647 E42.86932
G1 X111.364 Y171.286 E42.89505
G1 X110.988 Y171.781 E42.91573
G1 X110.576 Y172.261 E42.93677
G1 X110.215 Y172.632 E42.95399
G1 X109.832 Y172.977 E42.97113
G1 X109.367 Y173.328 E42.99051
G1 X108.912 Y173.6 E43.00814
G1 X108.573 Y173.756 E43.02055
G1 X108.217 Y173.879 E43.03308
G1 X107.844 Y173.964 E43.0458
G1 X107.462 Y174.002 E43.05857
G1 X107.094 Y173.993 E43.07081
G1 X106.746 Y173.944 E43.0825
G1 X106.419 Y173.858 E43.09375
G1 X106.097 Y173.738 E43.10518
G1 X105.782 Y173.585 E43.11682
G1 X105.39 Y173.343 E43.13215
G1 X105.013 Y173.056 E43.14791
G1 X104.703 Y172.777 E43.16178
G1 X104.379 Y172.441 E43.1773
G1 X104.027 Y172.019 E43.19558
G1 X103.703 Y171.572 E43.21394
G1 X103.341 Y170.992 E43.23668
G1 X103.022 Y170.4 E43.25905
G1 X102.757 Y169.835 E43.2798
G1 X102.52 Y169.278 E43.29994
G1 X102.149 Y168.295 E43.33488
G1 X101.807 Y167.298 E43.36994
G1 X101.497 Y166.31 E43.40438
G1 X101.209 Y165.312 E43.43893
G1 X100.876 Y164.006 E43.48376
G1 X100.588 Y162.692 E43.5285
G1 X100.358 Y161.479 E43.56956
G1 X100.155 Y160.296 E43.60948
G1 X99.854 Y158.362 E43.67458
G1 X99.582 Y156.418 E43.73987
G1 X99.307 Y154.213 E43.81378
G1 X99.066 Y152.005 E43.88765
G1 X98.817 Y149.347 E43.97644
G1 X98.614 Y146.763 E44.06265
G1 X98.412 Y143.719 E44.16412
G1 X98.246 Y140.668 E44.26575
G1 X98.072 Y136.541 E44.40313
G1 X97.951 Y132.624 E44.53348
G1 X97.883 Y129.754 E44.62896
G1 X97.894 Y129.684 E44.63132
G1 X97.881 Y129.63 E44.63316
G1 X97.793 Y123.95 E44.8221
G1 X97.736 Y117.522 E45.03591
G1 X97.709 Y111.044 E45.25137
G1 X97.714 Y104.535 E45.46786
G1 X97.752 Y98.501 E45.66855
G1 X97.764 Y98.441 E45.67059
G0 F6000 X97.353 Y98.393
G1 F1200 X97.432 Y91.71 E45.89288
G1 X97.543 Y85.233 E46.10834
G1 X97.746 Y75.975 E46.41634
G1 X97.754 Y75.924 E46.41805
G1 X97.749 Y75.842 E46.42079
G1 X98.332 Y52.809 E47.18711
G1 X98.495 Y46.568 E47.39476
G1 X98.542 Y46.289 E47.40417
G1 X98.665 Y46.035 E47.41356
G1 X98.854 Y45.826 E47.42293
G1 X99.093 Y45.677 E47.4323
G1 X99.495 Y45.593 E47.44596
G1 X110.084 Y45.593 E47.79815
G1 X110.363 Y45.633 E47.80752
G1 X110.62 Y45.749 E47.8169
G1 X110.835 Y45.932 E47.82629
G1 X110.989 Y46.168 E47.83566
G1 X111.069 Y46.42 E47.84446
G1 X112.124 Y52.424 E48.04721
G1 X113.134 Y58.473 E48.25119
G1 X113.814 Y62.717 E48.39414
G1 X114.465 Y66.96 E48.53692
G1 X115.087 Y71.208 E48.67971
G1 X115.675 Y75.465 E48.82264
G1 X116.403 Y81.123 E49.01238
G1 X117.071 Y86.792 E49.20224
G1 X117.491 Y90.616 E49.33019
G1 X117.883 Y94.442 E49.45811
G1 X118.247 Y98.271 E49.58604
G1 X118.578 Y102.104 E49.714
G1 X118.833 Y105.398 E49.82388
G1 X119.057 Y108.635 E49.9318
G1 X119.248 Y111.934 E50.04171
G1 X119.402 Y115.209 E50.15076
G1 X119.5 Y117.985 E50.24315
G1 X119.569 Y120.757 E50.33537
G1 X119.604 Y123.383 E50.42272
G1 X119.612 Y125.923 E50.5072
G1 X119.592 Y128.491 E50.59262
G1 X119.543 Y131.056 E50.67795
G1 X119.468 Y133.528 E50.7602
G1 X119.356 Y136.06 E50.8445
G1 X119.229 Y138.332 E50.92018
G1 X119.07 Y140.632 E50.99687
G1 X118.892 Y142.798 E51.06915
G1 X118.688 Y144.961 E51.14141
G1 X118.454 Y147.136 E51.21417
G1 X118.194 Y149.277 E51.2859
G1 X117.943 Y151.11 E51.34744
G1 X117.658 Y152.943 E51.40914
G1 X117.336 Y154.774 E51.47097
G1 X116.974 Y156.603 E51.53298
G1 X116.476 Y158.869 E51.61015
G1 X115.926 Y161.111 E51.68693
G1 X115.505 Y162.666 E51.74051
G1 X115.039 Y164.208 E51.79409
G1 X114.648 Y165.374 E51.83499
G1 X114.224 Y166.529 E51.87591
G1 X113.818 Y167.541 E51.91218
G1 X113.388 Y168.531 E51.94808
G1 X112.983 Y169.37 E51.97907
G1 X112.519 Y170.232 E52.01163
G1 X112.113 Y170.9 E52.03763
G1 X111.663 Y171.556 E52.06408
G1 X111.27 Y172.068 E52.08555
G1 X110.836 Y172.569 E52.1076
G1 X110.453 Y172.958 E52.12575
G1 X110.035 Y173.328 E52.14432
G1 X109.658 Y173.613 E52.16004
G1 X109.575 Y173.669 E52.16337
G1 X109.177 Y173.911 E52.17886
G1 X109.082 Y173.962 E52.18245
G1 X108.707 Y174.133 E52.19616
G1 X108.412 Y174.238 E52.20657
G1 X108.311 Y174.268 E52.21008
G1 X108.012 Y174.34 E52.22031
G1 X107.888 Y174.362 E52.22449
G1 X107.58 Y174.396 E52.2348
G1 X107.457 Y174.402 E52.2389
G1 X107.158 Y174.398 E52.24884
G1 X107.043 Y174.39 E52.25268
G1 X106.765 Y174.354 E52.262
G1 X106.648 Y174.332 E52.26596
