;FLAVOR:Marlin
;TIME:2625
;Filament used: 3.00024m
;Layer height: 0.2
;MINX:88.502
;MINY:41.118
;MINZ:0.2
;MAXX:125.498
;MAXY:178.861
;MAXZ:82
;Generated with Cura_SteamEngine 4.6.1
M140 S60
M105
M190 S60
M104 S220
M105
M109 S220
M82 ;absolute extrusion mode
; Ender 3 Custom Start G-code
G92 E0 ; Reset Extruder
G28 ; Home all axes
G1 Z2.0 F3000 ; Move Z Axis up little to prevent scratching of Heat Bed
G1 X0.1 Y20 Z0.3 F5000.0 ; Move to start position
G1 X0.1 Y200.0 Z0.3 F1500.0 E15 ; Draw the first line
G1 X0.4 Y200.0 Z0.3 F5000.0 ; Move to side a little
G1 X0.4 Y20 Z0.3 F1500.0 E30 ; Draw the second line
G92 E0 ; Reset Extruder
G1 Z2.0 F3000 ; Move Z Axis up little to prevent scratching of Heat Bed
G1 X5 Y20 Z0.3 F5000.0 ; Move over to prevent blob squish
G92 E0
G92 E0
G1 F1500 E-6
;LAYER_COUNT:412
;LAYER:0
M107
G0 F6000 X92.776 Y44.397 Z0.2
;TYPE:SKIRT
G1 F1500 E0.04158
G1 F1200 X93.117 Y43.808 E0.06421
G1 X93.525 Y43.262 E0.08688
G1 X93.994 Y42.769 E0.10951
G1 X94.524 Y42.329 E0.13242
G1 X94.637 Y42.246 E0.13709
G1 X95.208 Y41.876 E0.15972
G1 X95.819 Y41.576 E0.18236
G1 X96.461 Y41.349 E0.20501
G1 X97.125 Y41.199 E0.22765
G1 X97.665 Y41.135 E0.24573
G1 X97.808 Y41.125 E0.2505
G1 X98.489 Y41.118 E0.27315
G1 X99.166 Y41.19 E0.2958
G1 X99.83 Y41.341 E0.31845
G1 X100.472 Y41.569 E0.3411
G1 X101.095 Y41.878 E0.36423
G1 X101.219 Y41.949 E0.36899
G1 X101.789 Y42.321 E0.39163
G1 X102.311 Y42.758 E0.41427
G1 X102.779 Y43.253 E0.43693
G1 X103.185 Y43.799 E0.45956
G1 X103.464 Y44.27 E0.47776
G1 X103.528 Y44.391 E0.48232
G1 X103.81 Y45.011 E0.50497
G1 X104.066 Y45.858 E0.5344
G1 X104.664 Y48.578 E0.62703
G1 X105.286 Y51.366 E0.72204
G1 X105.938 Y54.431 E0.82626
G1 X106.6 Y57.766 E0.93935
G1 X107.422 Y62.095 E1.0859
G1 X108.212 Y66.37 E1.2305
G1 X108.972 Y70.629 E1.37439
G1 X109.346 Y72.807 E1.44789
G1 X109.846 Y75.83 E1.5498
G1 X110.328 Y78.858 E1.65178
G1 X110.824 Y82.107 E1.7611
G1 X111.279 Y85.211 E1.86544
G1 X111.961 Y90.091 E2.02933
G1 X112.605 Y95.074 E2.19644
G1 X113.078 Y99.066 E2.33014
G1 X113.511 Y103.062 E2.46383
G1 X113.905 Y107.059 E2.59741
G1 X114.274 Y111.201 E2.73572
G1 X114.589 Y115.159 E2.86778
G1 X114.859 Y119.121 E2.99986
G1 X115.053 Y122.558 E3.11436
G1 X115.202 Y126.008 E3.22922
G1 X115.299 Y129.444 E3.34354
G1 X115.326 Y131.106 E3.39883
G1 X115.339 Y132.936 E3.4597
G1 X115.32 Y136.115 E3.56543
G1 X115.246 Y139.286 E3.67093
G1 X115.128 Y142.224 E3.76873
G1 X114.962 Y145.104 E3.86467
G1 X114.738 Y147.97 E3.96029
G1 X114.456 Y150.81 E4.05521
G1 X114.196 Y153.032 E4.12962
G1 X113.895 Y155.265 E4.20456
G1 X113.565 Y157.388 E4.27602
G1 X113.367 Y158.51 E4.31392
G1 X113.145 Y159.666 E4.35307
G1 X112.716 Y161.674 E4.42136
G1 X112.243 Y163.624 E4.4881
G1 X111.866 Y165.05 E4.53716
G1 X111.418 Y166.589 E4.59047
G1 X110.983 Y167.93 E4.63736
G1 X110.465 Y169.343 E4.68741
G1 X110.037 Y170.395 E4.72519
G1 X109.539 Y171.51 E4.7658
G1 X109.183 Y172.229 E4.79249
G1 X109.053 Y172.475 E4.80174
G1 X108.673 Y173.158 E4.82774
G1 X108.493 Y173.461 E4.83946
G1 X108.155 Y173.99 E4.86034
G1 X107.964 Y174.269 E4.87159
G1 X107.591 Y174.784 E4.89274
G1 X107.356 Y175.087 E4.90549
G1 X107.014 Y175.496 E4.92322
G1 X106.792 Y175.747 E4.93437
G1 X106.564 Y175.989 E4.94543
G1 X106.312 Y176.243 E4.95733
G1 X106.036 Y176.504 E4.96996
G1 X105.778 Y176.732 E4.98141
G1 X105.449 Y177.001 E4.99555
G1 X105.177 Y177.208 E5.00692
G1 X104.733 Y177.515 E5.02487
G1 X104.449 Y177.692 E5.036
G1 X103.975 Y177.958 E5.05408
G1 X103.781 Y178.055 E5.06129
G1 X103.369 Y178.241 E5.07633
G1 X103.172 Y178.321 E5.0834
G1 X102.649 Y178.505 E5.10184
G1 X102.448 Y178.565 E5.10882
G1 X101.595 Y178.751 E5.13785
G1 X101.203 Y178.806 E5.15102
G1 X100.524 Y178.861 E5.17368
G1 X99.984 Y178.847 E5.19164
G1 X99.62 Y178.821 E5.20378
G1 X98.709 Y178.683 E5.23443
G1 X98.483 Y178.63 E5.24215
G1 X97.898 Y178.46 E5.26241
G1 X97.7 Y178.391 E5.26938
G1 X97.127 Y178.156 E5.28998
G1 X96.939 Y178.067 E5.2969
G1 X96.535 Y177.856 E5.31206
G1 X96.352 Y177.751 E5.31908
G1 X95.971 Y177.512 E5.33404
G1 X95.795 Y177.392 E5.34112
G1 X95.383 Y177.084 E5.35823
G1 X95.177 Y176.915 E5.36709
G1 X94.809 Y176.585 E5.38353
G1 X94.46 Y176.245 E5.39974
G1 X94.069 Y175.825 E5.41882
G1 X93.841 Y175.554 E5.4306
G1 X93.609 Y175.26 E5.44306
G1 X93.402 Y174.979 E5.45467
G1 X93.183 Y174.659 E5.46756
G1 X92.945 Y174.286 E5.48228
G1 X92.765 Y173.984 E5.49397
G1 X92.586 Y173.662 E5.50623
G1 X92.438 Y173.379 E5.51685
G1 X92.214 Y172.918 E5.5339
G1 X92.095 Y172.655 E5.5435
G1 X91.832 Y172.026 E5.56617
G1 X91.507 Y171.153 E5.59716
G1 X91.238 Y170.341 E5.62561
G1 X90.957 Y169.414 E5.65782
G1 X90.663 Y168.337 E5.69496
G1 X90.457 Y167.493 E5.72385
G1 X90.431 Y167.352 E5.72862
G1 X90.381 Y167.146 E5.73567
G1 X90.121 Y165.852 E5.77957
G1 X89.902 Y164.527 E5.82424
G1 X89.674 Y162.942 E5.8775
G1 X89.456 Y161.197 E5.93599
G1 X89.28 Y159.557 E5.99085
G1 X89.191 Y158.633 E6.02172
G1 X89.012 Y156.525 E6.09209
G1 X88.872 Y154.44 E6.16159
G1 X88.818 Y153.502 E6.19284
G1 X88.779 Y152.649 E6.22124
G1 X88.713 Y151.358 E6.26424
G1 X88.606 Y148.333 E6.36491
G1 X88.534 Y145.026 E6.47493
G1 X88.502 Y141.788 E6.58263
G1 X88.502 Y138.137 E6.70406
G1 X88.525 Y134.577 E6.82247
G1 X88.601 Y128.584 E7.02181
G1 X88.71 Y122.582 E7.22147
G1 X88.832 Y117.568 E7.38829
G1 X88.922 Y114.502 E7.49031
G1 X89.082 Y109.743 E7.64868
G1 X89.276 Y104.629 E7.8189
G1 X89.607 Y96.935 E8.07504
G1 X90.202 Y83.773 E8.51326
G1 X90.544 Y76.335 E8.76091
G1 X90.654 Y74.069 E8.83636
G1 X91.657 Y54.272 E9.49566
G1 X91.782 Y51.996 E9.57147
G1 X91.959 Y49.1 E9.66797
G1 X92.123 Y46.734 E9.74686
G1 X92.21 Y46.059 E9.76949
G1 X92.458 Y45.154 E9.8007
G1 X92.506 Y45.022 E9.80537
G1 X92.776 Y44.397 E9.82802
G0 F6000 X93.144 Y44.556
G1 F1200 X93.477 Y43.99 E9.84986
G1 X93.876 Y43.468 E9.87171
G1 X94.335 Y42.998 E9.89356
G1 X94.76 Y42.652 E9.91179
G1 X94.873 Y42.569 E9.91645
G1 X95.425 Y42.213 E9.9383
G1 X96.017 Y41.927 E9.96017
G1 X96.638 Y41.714 E9.982
G1 X97.281 Y41.579 E10.00386
G1 X97.693 Y41.534 E10.01764
G1 X97.836 Y41.524 E10.02241
G1 X98.493 Y41.518 E10.04426
G1 X99.146 Y41.592 E10.06612
G1 X99.785 Y41.745 E10.08797
G1 X100.401 Y41.974 E10.10983
G1 X100.896 Y42.225 E10.12829
G1 X101.02 Y42.296 E10.13304
G1 X101.569 Y42.656 E10.15488
G1 X102.071 Y43.081 E10.17676
G1 X102.517 Y43.563 E10.1986
G1 X102.901 Y44.096 E10.22045
G1 X103.11 Y44.457 E10.23432
G1 X103.174 Y44.578 E10.23887
G1 X103.446 Y45.177 E10.26075
G1 X103.675 Y45.943 E10.28734
G1 X104.273 Y48.665 E10.38004
G1 X104.895 Y51.449 E10.47492
G1 X105.546 Y54.509 E10.57897
G1 X106.208 Y57.844 E10.69206
G1 X107.029 Y62.17 E10.83851
G1 X107.819 Y66.443 E10.98304
G1 X108.578 Y70.699 E11.12683
G1 X108.951 Y72.874 E11.20022
G1 X109.451 Y75.895 E11.30207
G1 X109.933 Y78.921 E11.40398
G1 X110.429 Y82.168 E11.51323
G1 X110.883 Y85.269 E11.61747
G1 X111.565 Y90.142 E11.78113
G1 X112.207 Y95.121 E11.9481
G1 X112.681 Y99.109 E12.08168
G1 X113.113 Y103.101 E12.21522
G1 X113.507 Y107.095 E12.34871
G1 X113.875 Y111.232 E12.48685
G1 X114.189 Y115.186 E12.61878
G1 X114.459 Y119.143 E12.75069
G1 X114.653 Y122.575 E12.86502
G1 X114.802 Y126.019 E12.97968
G1 X114.899 Y129.451 E13.09387
G1 X114.925 Y131.062 E13.14746
G1 X114.939 Y132.934 E13.20973
G1 X114.921 Y136.106 E13.31523
G1 X114.847 Y139.27 E13.42049
G1 X114.729 Y142.201 E13.51806
G1 X114.563 Y145.073 E13.61374
G1 X114.34 Y147.93 E13.70905
G1 X114.059 Y150.764 E13.80377
G1 X113.8 Y152.979 E13.87795
G1 X113.5 Y155.203 E13.95259
G1 X113.171 Y157.318 E14.02378
G1 X112.974 Y158.435 E14.0615
G1 X112.754 Y159.583 E14.10038
G1 X112.327 Y161.58 E14.1683
G1 X111.856 Y163.522 E14.23477
G1 X111.482 Y164.938 E14.28348
G1 X111.037 Y166.467 E14.33644
G1 X110.607 Y167.793 E14.38281
G1 X110.094 Y169.193 E14.4324
G1 X109.671 Y170.233 E14.46974
G1 X109.18 Y171.332 E14.50978
G1 X108.824 Y172.051 E14.53646
G1 X108.704 Y172.28 E14.54506
G1 X108.324 Y172.963 E14.57106
G1 X108.155 Y173.245 E14.58199
G1 X107.817 Y173.774 E14.60287
G1 X107.64 Y174.035 E14.61336
G1 X107.267 Y174.55 E14.63451
G1 X107.049 Y174.831 E14.64634
G1 X106.714 Y175.231 E14.66369
G1 X106.492 Y175.482 E14.67484
G1 X106.28 Y175.707 E14.68512
G1 X106.028 Y175.961 E14.69702
G1 X105.771 Y176.204 E14.70878
G1 X105.513 Y176.432 E14.72023
G1 X105.207 Y176.683 E14.7334
G1 X104.935 Y176.89 E14.74477
G1 X104.521 Y177.176 E14.7615
G1 X104.237 Y177.353 E14.77263
G1 X103.796 Y177.6 E14.78944
G1 X103.602 Y177.697 E14.79666
G1 X103.219 Y177.87 E14.81064
G1 X103.022 Y177.95 E14.81771
G1 X102.535 Y178.121 E14.83488
G1 X102.334 Y178.181 E14.84185
G1 X101.539 Y178.355 E14.86892
G1 X101.147 Y178.41 E14.88209
G1 X100.492 Y178.461 E14.90394
G1 X100.012 Y178.448 E14.91991
G1 X99.648 Y178.422 E14.93205
G1 X98.8 Y178.293 E14.96057
G1 X98.574 Y178.24 E14.9683
G1 X98.03 Y178.082 E14.98714
G1 X97.832 Y178.013 E14.99411
G1 X97.298 Y177.795 E15.01329
G1 X97.11 Y177.706 E15.02021
G1 X96.734 Y177.509 E15.03433
G1 X96.551 Y177.404 E15.04135
G1 X96.196 Y177.182 E15.05527
G1 X96.02 Y177.062 E15.06236
G1 X95.637 Y176.775 E15.07828
G1 X95.431 Y176.606 E15.08714
G1 X95.088 Y176.299 E15.10245
G1 X94.739 Y175.959 E15.11866
G1 X94.375 Y175.567 E15.13645
G1 X94.147 Y175.296 E15.14823
G1 X93.931 Y175.023 E15.15981
G1 X93.724 Y174.742 E15.17141
G1 X93.52 Y174.444 E15.18343
G1 X93.282 Y174.071 E15.19814
G1 X93.114 Y173.79 E15.20903
G1 X92.935 Y173.468 E15.22128
G1 X92.798 Y173.204 E15.23118
G1 X92.574 Y172.743 E15.24822
G1 X92.463 Y172.498 E15.25717
G1 X92.207 Y171.885 E15.27926
G1 X91.886 Y171.026 E15.30976
G1 X91.62 Y170.225 E15.33784
G1 X91.343 Y169.307 E15.36973
G1 X91.052 Y168.242 E15.40645
G1 X90.846 Y167.398 E15.43535
G1 X90.808 Y167.191 E15.44235
G1 X90.773 Y167.066 E15.44666
G1 X90.515 Y165.786 E15.49009
G1 X90.297 Y164.47 E15.53446
G1 X90.071 Y162.893 E15.58745
G1 X89.854 Y161.154 E15.64573
G1 X89.678 Y159.518 E15.70046
G1 X89.59 Y158.599 E15.73117
G1 X89.411 Y156.498 E15.8013
G1 X89.271 Y154.417 E15.87067
G1 X89.218 Y153.484 E15.90175
G1 X89.181 Y152.664 E15.92905
G1 X89.112 Y151.343 E15.97305
G1 X89.006 Y148.324 E16.07352
G1 X88.934 Y145.022 E16.18338
G1 X88.902 Y141.784 E16.29108
G1 X88.902 Y138.139 E16.41231
G1 X88.925 Y134.579 E16.53072
G1 X89.001 Y128.589 E16.72996
G1 X89.11 Y122.589 E16.92956
G1 X89.232 Y117.578 E17.09627
G1 X89.322 Y114.516 E17.19816
G1 X89.482 Y109.757 E17.35653
G1 X89.676 Y104.644 E17.52671
G1 X90.007 Y96.952 E17.78279
G1 X90.594 Y83.941 E18.21598
G1 X90.604 Y83.849 E18.21905
G1 X90.602 Y83.791 E18.22098
G1 X91.053 Y74.089 E18.54402
G1 X92.057 Y54.293 E19.20329
G1 X92.181 Y52.018 E19.27907
G1 X92.358 Y49.124 E19.3755
G1 X92.522 Y46.762 E19.45425
G1 X92.607 Y46.11 E19.47612
G1 X92.834 Y45.291 E19.50439
G1 X92.882 Y45.159 E19.50906
G1 X93.144 Y44.556 E19.53093
G0 F6000 X93.511 Y44.716
G1 F1200 X93.835 Y44.173 E19.55196
G1 X94.225 Y43.676 E19.57297
G1 X94.675 Y43.232 E19.59399
G1 X94.997 Y42.974 E19.60772
G1 X95.11 Y42.891 E19.61238
G1 X95.642 Y42.55 E19.6334
G1 X96.213 Y42.279 E19.65442
G1 X96.814 Y42.081 E19.67547
G1 X97.721 Y41.933 E19.70603
G1 X97.864 Y41.923 E19.7108
G1 X98.496 Y41.919 E19.73182
G1 X99.124 Y41.995 E19.75286
G1 X99.737 Y42.149 E19.77388
G1 X100.326 Y42.379 E19.79491
G1 X100.697 Y42.572 E19.80882
G1 X100.821 Y42.643 E19.81358
G1 X101.349 Y42.991 E19.83461
G1 X101.829 Y43.403 E19.85565
G1 X102.252 Y43.872 E19.87665
G1 X102.757 Y44.644 E19.90734
G1 X102.821 Y44.765 E19.91189
G1 X103.08 Y45.342 E19.93292
G1 X103.284 Y46.029 E19.95676
G1 X103.883 Y48.752 E20.04949
G1 X104.493 Y51.485 E20.14263
G1 X105.153 Y54.586 E20.24808
G1 X105.815 Y57.921 E20.36117
G1 X106.636 Y62.244 E20.50752
G1 X107.426 Y66.515 E20.65198
G1 X108.184 Y70.769 E20.7957
G1 X108.557 Y72.942 E20.86903
G1 X109.057 Y75.96 E20.97078
G1 X109.538 Y78.983 E21.07259
G1 X110.034 Y82.228 E21.18177
G1 X110.487 Y85.327 E21.28594
G1 X111.168 Y90.194 E21.4494
G1 X111.81 Y95.168 E21.6162
G1 X112.283 Y99.152 E21.74964
G1 X112.71 Y103.092 E21.88145
G1 X113.104 Y107.083 E22.01484
G1 X113.472 Y111.217 E22.15288
G1 X113.79 Y115.213 E22.28621
G1 X114.06 Y119.166 E22.41799
G1 X114.253 Y122.592 E22.53212
G1 X114.402 Y126.03 E22.64658
G1 X114.499 Y129.457 E22.76061
G1 X114.525 Y131.068 E22.8142
G1 X114.539 Y132.932 E22.87619
G1 X114.521 Y136.096 E22.98143
G1 X114.447 Y139.254 E23.0865
G1 X114.33 Y142.178 E23.18383
G1 X114.164 Y145.042 E23.27924
G1 X113.942 Y147.891 E23.37429
G1 X113.661 Y150.717 E23.46875
G1 X113.404 Y152.925 E23.54268
G1 X113.105 Y155.142 E23.61708
G1 X112.777 Y157.249 E23.68801
G1 X112.581 Y158.36 E23.72553
G1 X112.363 Y159.499 E23.7641
G1 X111.938 Y161.486 E23.83168
G1 X111.469 Y163.421 E23.89791
G1 X111.098 Y164.827 E23.94627
G1 X110.656 Y166.345 E23.99886
G1 X110.231 Y167.656 E24.04469
G1 X109.723 Y169.044 E24.09385
G1 X109.306 Y170.072 E24.13075
G1 X108.915 Y170.957 E24.16293
G1 X108.822 Y171.155 E24.17021
G1 X108.466 Y171.874 E24.19689
G1 X108.354 Y172.086 E24.20487
G1 X107.974 Y172.769 E24.23086
G1 X107.818 Y173.03 E24.24098
G1 X107.48 Y173.559 E24.26186
G1 X107.316 Y173.8 E24.27155
G1 X106.943 Y174.315 E24.2927
G1 X106.741 Y174.576 E24.30368
G1 X106.414 Y174.966 E24.32061
G1 X106.192 Y175.217 E24.33175
G1 X105.996 Y175.426 E24.34128
G1 X105.744 Y175.68 E24.35318
G1 X105.506 Y175.905 E24.36407
G1 X105.248 Y176.133 E24.37553
G1 X104.965 Y176.365 E24.3877
G1 X104.693 Y176.572 E24.39907
G1 X104.31 Y176.836 E24.41454
G1 X104.026 Y177.013 E24.42567
G1 X103.617 Y177.242 E24.44126
G1 X103.423 Y177.339 E24.44847
G1 X103.068 Y177.5 E24.46144
G1 X102.871 Y177.58 E24.46851
G1 X102.42 Y177.738 E24.4844
G1 X102.219 Y177.798 E24.49138
G1 X101.484 Y177.959 E24.51641
G1 X101.092 Y178.014 E24.52957
G1 X100.461 Y178.062 E24.55062
G1 X100.041 Y178.049 E24.5646
G1 X99.677 Y178.023 E24.57673
G1 X98.891 Y177.904 E24.60317
G1 X98.665 Y177.851 E24.61089
G1 X98.162 Y177.705 E24.62831
G1 X97.964 Y177.636 E24.63529
G1 X97.47 Y177.433 E24.65305
G1 X97.282 Y177.344 E24.65997
G1 X96.933 Y177.162 E24.67306
G1 X96.75 Y177.057 E24.68008
G1 X96.421 Y176.851 E24.69299
G1 X96.245 Y176.731 E24.70007
G1 X95.891 Y176.466 E24.71478
G1 X95.685 Y176.297 E24.72364
G1 X95.367 Y176.012 E24.73785
G1 X95.018 Y175.672 E24.75405
G1 X94.681 Y175.31 E24.7705
G1 X94.453 Y175.039 E24.78228
G1 X94.253 Y174.786 E24.79301
G1 X94.046 Y174.505 E24.80462
G1 X93.857 Y174.228 E24.81577
G1 X93.619 Y173.855 E24.83049
G1 X93.464 Y173.595 E24.84055
G1 X93.285 Y173.273 E24.85281
G1 X93.158 Y173.029 E24.86196
G1 X92.934 Y172.568 E24.879
G1 X92.831 Y172.342 E24.88726
G1 X92.581 Y171.744 E24.90882
G1 X92.266 Y170.899 E24.93882
G1 X92.003 Y170.108 E24.96654
G1 X91.729 Y169.201 E24.99805
G1 X91.441 Y168.148 E25.03436
G1 X91.235 Y167.304 E25.06326
G1 X91.208 Y167.152 E25.06839
G1 X91.165 Y166.986 E25.0741
G1 X90.91 Y165.72 E25.11705
G1 X90.693 Y164.413 E25.16112
G1 X90.468 Y162.843 E25.21387
G1 X90.252 Y161.111 E25.27192
G1 X90.076 Y159.48 E25.32648
G1 X89.988 Y158.565 E25.35706
G1 X89.81 Y156.471 E25.42695
G1 X89.67 Y154.395 E25.49616
G1 X89.617 Y153.465 E25.52714
G1 X89.578 Y152.612 E25.55554
G1 X89.512 Y151.329 E25.59827
G1 X89.406 Y148.316 E25.69855
G1 X89.334 Y145.018 E25.80826
G1 X89.302 Y141.78 E25.91597
G1 X89.302 Y138.142 E26.03697
G1 X89.325 Y134.582 E26.15537
G1 X89.401 Y128.594 E26.35455
G1 X89.51 Y122.597 E26.55405
G1 X89.631 Y117.588 E26.72069
G1 X89.722 Y114.529 E26.82248
G1 X89.882 Y109.77 E26.98086
G1 X90.076 Y104.66 E27.15094
G1 X90.407 Y96.969 E27.40698
G1 X91.001 Y83.809 E27.84513
G1 X91.343 Y76.371 E28.09278
G1 X91.453 Y74.108 E28.16814
G1 X92.456 Y54.313 E28.82736
G1 X92.58 Y52.04 E28.90308
G1 X92.757 Y49.148 E28.99945
G1 X92.921 Y46.79 E29.07806
