;FLAVOR:Marlin
;TIME:34621
;Filament used: 29.5638m
;Layer height: 0.2
;MINX:17.5
;MINY:34
;MINZ:0.2
;MAXX:217.5
;MAXY:201
;MAXZ:25
;Generated with Cura_SteamEngine 4.6.2
M140 S50
M105
M190 S50
M104 S200
M105
M109 S200
M82 ;absolute extrusion mode
; Ender 3 Custom Start G-code
G92 E0 ; Reset Extruder
G28 ; Home all axes
G1 Z2.0 F3000 ; Move Z Axis up little to prevent scratching of Heat Bed
G1 X0.1 Y20 Z0.3 F5000.0 ; Move to start position
G1 X0.1 Y200.0 Z0.3 F1500.0 E15 ; Draw the first line
G1 X0.4 Y200.0 Z0.3 F5000.0 ; Move to side a little
G1 X0.4 Y20 Z0.3 F1500.0 E30 ; Draw the second line
G92 E0 ; Reset Extruder
G1 Z2.0 F3000 ; Move Z Axis up little to prevent scratching of Heat Bed
G1 X5 Y20 Z0.3 F5000.0 ; Move over to prevent blob squish
G92 E0
G92 E0
G1 F2700 E-5
;LAYER_COUNT:125
;LAYER:0
M107
G0 F6000 X206.637 Y34.811 Z0.2
;TYPE:SKIRT
G1 F2700 E0
G1 F1200 X207.539 Y34.864 E0.03005
G1 X208.432 Y34.996 E0.06008
G1 X209.31 Y35.207 E0.09011
G1 X210.166 Y35.495 E0.12015
G1 X210.993 Y35.857 E0.15018
G1 X211.785 Y36.292 E0.18023
G1 X212.536 Y36.794 E0.21027
G1 X213.239 Y37.361 E0.24031
G1 X213.889 Y37.988 E0.27035
G1 X214.481 Y38.67 E0.30039
G1 X215.011 Y39.401 E0.33042
G1 X215.473 Y40.177 E0.36046
G1 X215.866 Y40.99 E0.39049
G1 X216.184 Y41.835 E0.42052
G1 X216.427 Y42.705 E0.45056
G1 X216.592 Y43.593 E0.4806
G1 X216.687 Y44.722 E0.51829
G1 X216.7 Y45.329 E0.53848
G1 X216.7 Y189.264 E5.32578
G1 X216.69 Y190.117 E5.35415
G1 X216.639 Y191.019 E5.3842
G1 X216.508 Y191.913 E5.41425
G1 X216.299 Y192.791 E5.44427
G1 X216.013 Y193.648 E5.47432
G1 X215.652 Y194.476 E5.50436
G1 X215.22 Y195.268 E5.53437
G1 X214.719 Y196.02 E5.56442
G1 X214.153 Y196.724 E5.59447
G1 X213.528 Y197.375 E5.62448
G1 X212.847 Y197.969 E5.65454
G1 X212.116 Y198.5 E5.68459
G1 X211.342 Y198.964 E5.7146
G1 X210.529 Y199.358 E5.74465
G1 X209.685 Y199.678 E5.77467
G1 X208.815 Y199.923 E5.80474
G1 X207.928 Y200.089 E5.83475
G1 X206.777 Y200.187 E5.87317
G1 X206.17 Y200.2 E5.89336
G1 X62.207 Y200.2 E10.68159
G1 X61.377 Y200.19 E10.7092
G1 X60.476 Y200.139 E10.73922
G1 X59.582 Y200.007 E10.76927
G1 X58.704 Y199.798 E10.79929
G1 X57.847 Y199.511 E10.82935
G1 X57.02 Y199.15 E10.85936
G1 X56.227 Y198.717 E10.88942
G1 X55.476 Y198.216 E10.91944
G1 X54.772 Y197.65 E10.94949
G1 X54.121 Y197.024 E10.97953
G1 X53.528 Y196.343 E11.00956
G1 X52.998 Y195.612 E11.03959
G1 X52.534 Y194.837 E11.06963
G1 X52.14 Y194.024 E11.09968
G1 X51.82 Y193.18 E11.1297
G1 X51.576 Y192.31 E11.15976
G1 X51.41 Y191.422 E11.1898
G1 X51.325 Y190.567 E11.21838
G1 X51.279 Y189.742 E11.24586
G1 X51.224 Y188.469 E11.28824
G1 X51.047 Y185.981 E11.3712
G1 X50.791 Y183.417 E11.45691
G1 X50.47 Y180.919 E11.54067
G1 X50.076 Y178.414 E11.62501
G1 X49.606 Y175.89 E11.71041
G1 X49.077 Y173.444 E11.79364
G1 X48.468 Y170.963 E11.87861
G1 X47.788 Y168.497 E11.96369
G1 X47.053 Y166.098 E12.04714
G1 X46.228 Y163.656 E12.13287
G1 X45.352 Y161.284 E12.21697
G1 X44.421 Y158.972 E12.29987
G1 X43.378 Y156.576 E12.38679
G1 X42.327 Y154.336 E12.46908
G1 X41.165 Y152.032 E12.55491
G1 X39.95 Y149.784 E12.6399
G1 X38.693 Y147.607 E12.72351
G1 X37.371 Y145.462 E12.80731
G1 X35.956 Y143.302 E12.8932
G1 X34.517 Y141.238 E12.97688
G1 X33.009 Y139.199 E13.06123
G1 X31.441 Y137.199 E13.14576
G1 X29.818 Y135.248 E13.23017
G1 X28.138 Y133.339 E13.31475
G1 X26.39 Y131.462 E13.40006
G1 X24.568 Y129.615 E13.48635
G1 X24.282 Y129.334 E13.49968
G1 X23.871 Y128.906 E13.51942
G1 X23.479 Y128.466 E13.53902
G1 X23.007 Y127.913 E13.5632
G1 X22.608 Y127.434 E13.58394
G1 X21.954 Y126.558 E13.6203
G1 X21.751 Y126.253 E13.63248
G1 X21.55 Y125.938 E13.64491
G1 X21.163 Y125.307 E13.66953
G1 X20.842 Y124.768 E13.69039
G1 X20.3 Y123.726 E13.72946
G1 X20.053 Y123.165 E13.74985
G1 X19.814 Y122.589 E13.77059
G1 X19.529 Y121.877 E13.7961
G1 X19.148 Y120.733 E13.8362
G1 X19.019 Y120.243 E13.85305
G1 X18.84 Y119.503 E13.87838
G1 X18.684 Y118.81 E13.902
G1 X18.496 Y117.682 E13.94004
G1 X18.435 Y117.088 E13.9599
G1 X18.378 Y116.362 E13.98412
G1 X18.332 Y115.657 E14.00762
G1 X18.311 Y115.159 E14.0242
G1 X18.301 Y114.44 E14.04811
G1 X18.3 Y55.706 E16.00161
G1 X18.301 Y55.561 E16.00644
G1 X18.311 Y54.856 E16.02989
G1 X18.329 Y54.382 E16.04566
G1 X18.412 Y53.183 E16.08564
G1 X18.476 Y52.497 E16.10855
G1 X18.649 Y51.349 E16.14717
G1 X18.778 Y50.757 E16.16732
G1 X18.939 Y50.082 E16.1904
G1 X19.109 Y49.412 E16.21339
G1 X19.456 Y48.311 E16.25178
G1 X19.681 Y47.73 E16.27251
G1 X19.958 Y47.062 E16.29656
G1 X20.231 Y46.43 E16.31946
G1 X20.728 Y45.434 E16.35648
G1 X20.894 Y45.142 E16.36765
G1 X21.059 Y44.863 E16.37843
G1 X21.387 Y44.327 E16.39933
G1 X21.783 Y43.698 E16.42405
G1 X22.471 Y42.734 E16.46344
G1 X22.863 Y42.254 E16.48406
G1 X23.317 Y41.724 E16.50727
G1 X23.775 Y41.204 E16.53032
G1 X24.516 Y40.446 E16.56557
G1 X24.759 Y40.222 E16.57656
G1 X25.043 Y39.97 E16.58919
G1 X25.592 Y39.501 E16.61321
G1 X26.073 Y39.101 E16.63402
G1 X26.95 Y38.448 E16.67038
G1 X27.254 Y38.246 E16.68252
G1 X27.556 Y38.053 E16.69444
G1 X28.161 Y37.682 E16.71805
G1 X28.73 Y37.343 E16.74008
G1 X29.774 Y36.8 E16.77922
G1 X30.335 Y36.553 E16.7996
G1 X30.906 Y36.316 E16.82017
G1 X31.617 Y36.031 E16.84564
G1 X32.775 Y35.646 E16.88623
G1 X33.257 Y35.519 E16.90281
G1 X33.997 Y35.34 E16.92813
G1 X34.69 Y35.184 E16.95176
G1 X35.818 Y34.996 E16.98979
G1 X36.412 Y34.935 E17.00965
G1 X37.138 Y34.878 E17.03387
G1 X37.843 Y34.832 E17.05737
G1 X38.316 Y34.812 E17.07312
G1 X38.973 Y34.801 E17.09497
G1 X39.66 Y34.8 E17.11782
G1 X205.793 Y34.8 E22.64343
G1 X205.939 Y34.801 E22.64829
G1 X206.637 Y34.811 E22.6715
G0 F6000 X206.643 Y34.411
G1 F1200 X207.562 Y34.464 E22.70212
G1 X208.473 Y34.597 E22.73274
G1 X209.369 Y34.808 E22.76336
G1 X210.243 Y35.096 E22.79396
G1 X211.09 Y35.459 E22.82461
G1 X211.901 Y35.894 E22.85522
G1 X212.671 Y36.398 E22.88583
G1 X213.395 Y36.967 E22.91646
G1 X214.067 Y37.597 E22.9471
G1 X214.682 Y38.282 E22.97771
G1 X215.235 Y39.018 E23.00833
G1 X215.722 Y39.799 E23.03895
G1 X216.139 Y40.62 E23.06957
G1 X216.484 Y41.474 E23.10021
G1 X216.753 Y42.354 E23.13081
G1 X216.945 Y43.255 E23.16145
G1 X217.058 Y44.168 E23.19205
G1 X217.087 Y44.711 E23.21014
G1 X217.1 Y45.329 E23.2307
G1 X217.1 Y189.264 E28.01799
G1 X217.09 Y190.122 E28.04653
G1 X217.039 Y191.041 E28.07715
G1 X216.908 Y191.953 E28.10779
G1 X216.698 Y192.849 E28.1384
G1 X216.412 Y193.724 E28.16902
G1 X216.051 Y194.571 E28.19964
G1 X215.617 Y195.383 E28.23026
G1 X215.115 Y196.155 E28.26089
G1 X214.547 Y196.88 E28.29152
G1 X213.919 Y197.553 E28.32214
G1 X213.235 Y198.169 E28.35276
G1 X212.5 Y198.723 E28.38337
G1 X211.72 Y199.212 E28.41399
G1 X210.9 Y199.631 E28.44462
G1 X210.047 Y199.977 E28.47523
G1 X209.167 Y200.248 E28.50586
G1 X208.267 Y200.441 E28.53647
G1 X207.353 Y200.556 E28.56711
G1 X206.788 Y200.587 E28.58593
G1 X206.17 Y200.6 E28.60649
G1 X62.207 Y200.6 E33.39472
G1 X61.372 Y200.59 E33.42249
G1 X60.453 Y200.538 E33.45311
G1 X59.542 Y200.407 E33.48372
G1 X58.646 Y200.197 E33.51433
G1 X57.771 Y199.91 E33.54496
G1 X56.924 Y199.548 E33.57559
G1 X56.112 Y199.114 E33.60622
G1 X55.341 Y198.612 E33.63682
G1 X54.616 Y198.044 E33.66745
G1 X53.943 Y197.415 E33.69809
G1 X53.328 Y196.731 E33.72868
G1 X52.774 Y195.996 E33.75929
G1 X52.286 Y195.215 E33.78992
G1 X51.867 Y194.395 E33.82055
G1 X51.521 Y193.542 E33.85117
G1 X51.251 Y192.662 E33.88178
G1 X51.058 Y191.761 E33.91243
G1 X50.926 Y190.59 E33.95163
G1 X50.88 Y189.759 E33.97931
G1 X50.826 Y188.513 E34.02079
G1 X50.648 Y186.016 E34.10405
G1 X50.394 Y183.471 E34.18912
G1 X50.072 Y180.96 E34.27332
G1 X49.681 Y178.477 E34.35692
G1 X49.216 Y175.983 E34.4413
G1 X48.69 Y173.545 E34.52425
G1 X48.074 Y171.036 E34.61018
G1 X47.413 Y168.639 E34.69288
G1 X46.657 Y166.174 E34.77864
G1 X45.861 Y163.818 E34.86135
G1 X44.988 Y161.454 E34.94517
G1 X44.029 Y159.07 E35.03063
G1 X43.027 Y156.769 E35.11411
G1 X41.966 Y154.507 E35.19721
G1 X40.814 Y152.223 E35.28229
G1 X39.61 Y149.995 E35.36652
G1 X38.349 Y147.811 E35.4504
G1 X37.028 Y145.67 E35.53407
G1 X35.636 Y143.544 E35.61859
G1 X34.182 Y141.459 E35.70314
G1 X32.688 Y139.438 E35.78673
G1 X31.117 Y137.435 E35.87139
G1 X29.512 Y135.504 E35.95491
G1 X27.844 Y133.61 E36.03885
G1 X26.113 Y131.751 E36.12333
G1 X24.239 Y129.851 E36.2121
G1 X24.002 Y129.619 E36.22313
G1 X23.575 Y129.174 E36.24364
G1 X23.175 Y128.726 E36.26361
G1 X22.699 Y128.169 E36.28798
G1 X22.3 Y127.69 E36.30872
G1 X21.621 Y126.779 E36.34651
G1 X21.418 Y126.474 E36.35869
G1 X21.209 Y126.148 E36.37157
G1 X20.82 Y125.512 E36.39637
G1 X20.499 Y124.973 E36.41724
G1 X19.935 Y123.89 E36.45785
G1 X19.683 Y123.318 E36.47864
G1 X19.443 Y122.738 E36.49952
G1 X19.158 Y122.026 E36.52502
G1 X18.762 Y120.837 E36.56671
G1 X18.631 Y120.338 E36.58386
G1 X18.45 Y119.591 E36.60943
G1 X18.294 Y118.898 E36.63305
G1 X18.098 Y117.725 E36.67261
G1 X18.036 Y117.12 E36.69284
G1 X17.978 Y116.388 E36.71726
G1 X17.932 Y115.683 E36.74076
G1 X17.911 Y115.165 E36.758
G1 X17.901 Y114.44 E36.78212
G1 X17.9 Y55.706 E38.73562
G1 X17.901 Y55.556 E38.74061
G1 X17.911 Y54.851 E38.76406
G1 X17.93 Y54.358 E38.78047
G1 X18.014 Y53.145 E38.82091
G1 X18.078 Y52.459 E38.84382
G1 X18.258 Y51.267 E38.88392
G1 X18.388 Y50.664 E38.90444
G1 X18.552 Y49.984 E38.9277
G1 X18.722 Y49.314 E38.95069
G1 X19.082 Y48.17 E38.99058
G1 X19.311 Y47.578 E39.01169
G1 X19.591 Y46.904 E39.03597
G1 X19.864 Y46.272 E39.05887
G1 X20.38 Y45.236 E39.09736
G1 X20.546 Y44.944 E39.10853
G1 X20.717 Y44.654 E39.11973
G1 X21.049 Y44.114 E39.14081
G1 X21.445 Y43.485 E39.16553
G1 X22.16 Y42.483 E39.20648
G1 X22.559 Y41.994 E39.22747
G1 X23.016 Y41.46 E39.25084
G1 X23.474 Y40.94 E39.27389
G1 X24.245 Y40.152 E39.31056
G1 X24.488 Y39.928 E39.32155
G1 X24.783 Y39.666 E39.33467
G1 X25.336 Y39.194 E39.35886
G1 X25.817 Y38.794 E39.37966
G1 X26.729 Y38.115 E39.41748
G1 X27.033 Y37.913 E39.42962
G1 X27.347 Y37.712 E39.44202
G1 X27.957 Y37.339 E39.4658
G1 X28.526 Y37 E39.48783
G1 X29.61 Y36.435 E39.52849
G1 X30.182 Y36.183 E39.54928
G1 X30.757 Y35.945 E39.56997
G1 X31.468 Y35.66 E39.59545
G1 X32.671 Y35.259 E39.63763
G1 X33.162 Y35.131 E39.6545
G1 X33.909 Y34.95 E39.68007
G1 X34.602 Y34.794 E39.70369
G1 X35.775 Y34.598 E39.74325
G1 X36.38 Y34.536 E39.76348
G1 X37.112 Y34.478 E39.7879
G1 X37.817 Y34.432 E39.8114
G1 X38.309 Y34.412 E39.82778
G1 X38.973 Y34.401 E39.84986
G1 X39.66 Y34.4 E39.87271
G1 X205.793 Y34.4 E45.39832
G1 X205.945 Y34.401 E45.40338
G1 X206.643 Y34.411 E45.42659
G0 F6000 X206.649 Y34.011
G1 F1200 X207.585 Y34.065 E45.45778
G1 X208.513 Y34.197 E45.48895
G1 X209.427 Y34.409 E45.52016
G1 X210.319 Y34.698 E45.55135
G1 X211.184 Y35.061 E45.58255
G1 X212.014 Y35.497 E45.61373
G1 X212.805 Y36.002 E45.64494
G1 X213.549 Y36.573 E45.67614
G1 X214.242 Y37.205 E45.70733
G1 X214.879 Y37.893 E45.73852
G1 X215.454 Y38.634 E45.76971
G1 X215.965 Y39.42 E45.80089
G1 X216.407 Y40.248 E45.83211
G1 X216.776 Y41.11 E45.8633
G1 X217.071 Y42 E45.89448
G1 X217.289 Y42.912 E45.92567
G1 X217.429 Y43.84 E45.95688
G1 X217.487 Y44.7 E45.98555
G1 X217.5 Y45.329 E46.00648
G1 X217.5 Y189.264 E50.79378
G1 X217.49 Y190.127 E50.82248
G1 X217.439 Y191.064 E50.85369
G1 X217.307 Y191.992 E50.88487
G1 X217.098 Y192.906 E50.91605
G1 X216.811 Y193.799 E50.94725
G1 X216.449 Y194.665 E50.97847
G1 X216.015 Y195.496 E51.00965
G1 X215.511 Y196.287 E51.04085
G1 X214.942 Y197.032 E51.07203
G1 X214.311 Y197.727 E51.10325
G1 X213.624 Y198.365 E51.13443
G1 X212.885 Y198.942 E51.16561
G1 X212.099 Y199.454 E51.19681
G1 X211.273 Y199.897 E51.22799
G1 X210.411 Y200.269 E51.25921
G1 X209.522 Y200.565 E51.29038
G1 X208.61 Y200.785 E51.32158
G1 X207.683 Y200.926 E51.35277
G1 X206.799 Y200.987 E51.38224
G1 X206.17 Y201 E51.40317
G1 X62.207 Y201 E56.19139
G1 X61.367 Y200.99 E56.21934
G1 X60.431 Y200.938 E56.25051
G1 X59.502 Y200.806 E56.28172
G1 X58.588 Y200.596 E56.31292
G1 X57.695 Y200.309 E56.34411
G1 X56.83 Y199.946 E56.37531
G1 X55.999 Y199.512 E56.4065
G1 X55.208 Y199.008 E56.43769
G1 X54.463 Y198.438 E56.46889
G1 X53.769 Y197.807 E56.50009
G1 X53.132 Y197.12 E56.53125
G1 X52.555 Y196.38 E56.56246
G1 X52.043 Y195.594 E56.59366
G1 X51.6 Y194.767 E56.62486
G1 X51.229 Y193.906 E56.65604
G1 X50.933 Y193.016 E56.68724
G1 X50.714 Y192.104 E56.71844
G1 X50.573 Y191.177 E56.74962
G1 X50.527 Y190.613 E56.76844
G1 X50.48 Y189.776 E56.79633
G1 X50.426 Y188.525 E56.83797
G1 X50.249 Y186.045 E56.92067
G1 X49.995 Y183.494 E57.00593
G1 X49.679 Y181.037 E57.08833
G1 X49.286 Y178.541 E57.17237
G1 X48.826 Y176.069 E57.256
G1 X48.298 Y173.627 E57.3391
G1 X47.692 Y171.155 E57.42375
G1 X47.021 Y168.724 E57.50763
G1 X46.282 Y166.314 E57.59147
G1 X45.494 Y163.98 E57.6734
G1 X44.606 Y161.576 E57.75864
G1 X43.662 Y159.231 E57.84272
G1 X42.669 Y156.949 E57.92549
G1 X41.59 Y154.65 E58.00996
G1 X40.448 Y152.386 E58.0943
G1 X39.27 Y150.206 E58.17671
G1 X38.005 Y148.016 E58.26083
G1 X36.687 Y145.877 E58.3444
G1 X35.317 Y143.786 E58.42754
G1 X33.865 Y141.704 E58.51197
G1 X32.367 Y139.677 E58.5958
G1 X30.81 Y137.693 E58.67968
G1 X29.204 Y135.761 E58.76324
G1 X27.534 Y133.863 E58.84733
G1 X25.835 Y132.039 E58.93023
G1 X23.722 Y129.904 E59.03014
G1 X23.278 Y129.443 E59.05143
G1 X23.076 Y129.22 E59.06144
G1 X22.871 Y128.986 E59.07178
G1 X22.392 Y128.425 E59.09632
G1 X21.993 Y127.946 E59.11705
G1 X21.288 Y127.001 E59.15627
G1 X21.085 Y126.696 E59.16845
G1 X20.868 Y126.357 E59.18184
G1 X20.476 Y125.716 E59.20683
G1 X20.155 Y125.177 E59.2277
G1 X19.571 Y124.053 E59.26983
G1 X19.314 Y123.472 E59.29096
G1 X19.072 Y122.887 E59.31201
G1 X18.787 Y122.175 E59.33752
G1 X18.376 Y120.941 E59.38078
G1 X18.242 Y120.433 E59.39825
G1 X18.06 Y119.679 E59.42405
G1 X17.904 Y118.986 E59.44768
G1 X17.701 Y117.769 E59.48872
G1 X17.638 Y117.152 E59.50934
G1 X17.579 Y116.414 E59.53397
G1 X17.533 Y115.709 E59.55747
G1 X17.511 Y115.172 E59.57534
G1 X17.501 Y114.44 E59.59969
G1 X17.5 Y55.706 E61.55319
G1 X17.501 Y55.55 E61.55838
G1 X17.511 Y54.845 E61.58183
G1 X17.53 Y54.334 E61.59884
G1 X17.616 Y53.108 E61.63972
G1 X17.68 Y52.422 E61.66263
G1 X17.867 Y51.185 E61.70424
G1 X17.999 Y50.571 E61.72513
G1 X18.164 Y49.886 E61.74856
G1 X18.334 Y49.216 E61.77156
G1 X18.708 Y48.028 E61.81298
G1 X18.941 Y47.425 E61.83448
G1 X19.224 Y46.745 E61.85898
G1 X19.497 Y46.113 E61.88188
G1 X20.032 Y45.039 E61.92178
G1 X20.198 Y44.747 E61.93296
G1 X20.376 Y44.445 E61.94462
G1 X20.71 Y43.9 E61.96588
G1 X21.106 Y43.271 E61.9906
G1 X21.848 Y42.232 E62.03306
G1 X22.254 Y41.735 E62.05441
G1 X22.716 Y41.196 E62.07802
G1 X23.174 Y40.676 E62.10107
G1 X23.973 Y39.858 E62.1391
G1 X24.216 Y39.634 E62.15009
G1 X24.523 Y39.362 E62.16373
G1 X25.081 Y38.886 E62.18813
G1 X25.562 Y38.486 E62.20893
G1 X26.507 Y37.782 E62.24813
G1 X26.811 Y37.58 E62.26027
G1 X27.137 Y37.372 E62.27313
G1 X27.752 Y36.995 E62.29712
G1 X28.321 Y36.656 E62.31915
G1 X29.447 Y36.071 E62.36135
G1 X30.028 Y35.814 E62.38248
G1 X30.608 Y35.574 E62.40336
G1 X31.319 Y35.289 E62.42884
G1 X32.568 Y34.873 E62.47262
G1 X33.067 Y34.742 E62.48978
G1 X33.821 Y34.56 E62.51558
G1 X34.514 Y34.404 E62.53921
G1 X35.731 Y34.201 E62.58024
G1 X36.348 Y34.138 E62.60087
G1 X37.086 Y34.079 E62.6255
G1 X37.791 Y34.033 E62.64899
G1 X38.301 Y34.012 E62.66597
G1 X38.972 Y34.001 E62.68829
G1 X39.659 Y34 E62.71114
G1 X205.793 Y34 E68.23678
G1 X205.951 Y34.001 E68.24204
G1 X206.649 Y34.011 E68.26525
G1 F2700 E63.26525
;MESH:electric-cable-desk-support.STL
G0 F6000 X185.736 Y61.682
G0 X186.399 Y60.383
G0 X188.883 Y62.617
G0 X189.946 Y63.863
G0 X190.803 Y65.26
G0 X191.431 Y66.774
G0 X191.812 Y68.368
G0 X191.939 Y69.983
G0 X191.939 Y170.017
G0 X191.812 Y171.632
G0 X191.431 Y173.226
