;FLAVOR:Marlin
;TIME:1875
;Filament used: 1.22679m
;Layer height: 0.2
;MINX:36.501
;MINY:99
;MINZ:0.2
;MAXX:198.499
;MAXY:135.999
;MAXZ:4
;Generated with Cura_SteamEngine 4.6.2
M140 S50
M105
M190 S50
M104 S200
M105
M109 S200
M82 ;absolute extrusion mode
; Ender 3 Custom Start G-code
G92 E0 ; Reset Extruder
G28 ; Home all axes
G1 Z2.0 F3000 ; Move Z Axis up little to prevent scratching of Heat Bed
G1 X0.1 Y20 Z0.3 F5000.0 ; Move to start position
G1 X0.1 Y200.0 Z0.3 F1500.0 E15 ; Draw the first line
G1 X0.4 Y200.0 Z0.3 F5000.0 ; Move to side a little
G1 X0.4 Y20 Z0.3 F1500.0 E30 ; Draw the second line
G92 E0 ; Reset Extruder
G1 Z2.0 F3000 ; Move Z Axis up little to prevent scratching of Heat Bed
G1 X5 Y20 Z0.3 F5000.0 ; Move over to prevent blob squish
G92 E0
G92 E0
G1 F2700 E-5
;LAYER_COUNT:20
;LAYER:0
M107
G0 F6000 X186.142 Y99.811 Z0.2
;TYPE:SKIRT
G1 F2700 E0
G1 F1200 X186.787 Y99.841 E0.02148
G1 X187.019 Y99.859 E0.02922
G1 X187.915 Y99.968 E0.05924
G1 X188.54 Y100.093 E0.08044
G1 X188.755 Y100.143 E0.08778
G1 X189.625 Y100.386 E0.11782
G1 X190.29 Y100.63 E0.14138
G1 X190.521 Y100.724 E0.14968
G1 X191.341 Y101.101 E0.17969
G1 X191.995 Y101.469 E0.20465
G1 X192.175 Y101.579 E0.21167
G1 X192.924 Y102.083 E0.2417
G1 X193.304 Y102.378 E0.2577
G1 X193.494 Y102.533 E0.26585
G1 X194.168 Y103.135 E0.29591
G1 X194.786 Y103.793 E0.32593
G1 X195.357 Y104.524 E0.35678
G1 X195.648 Y104.933 E0.37348
G1 X196.139 Y105.691 E0.40352
G1 X196.56 Y106.49 E0.43356
G1 X196.781 Y106.991 E0.45177
G1 X196.861 Y107.187 E0.45881
G1 X197.165 Y108.038 E0.48887
G1 X197.324 Y108.615 E0.50877
G1 X197.373 Y108.815 E0.51562
G1 X197.549 Y109.701 E0.54567
G1 X197.621 Y110.281 E0.5651
G1 X197.644 Y110.524 E0.57322
G1 X197.688 Y111.312 E0.59947
G1 X197.699 Y112.073 E0.62479
G1 X197.699 Y122.927 E0.98579
G1 X197.689 Y123.648 E1.00977
G1 X197.657 Y124.328 E1.03242
G1 X197.639 Y124.551 E1.03986
G1 X197.526 Y125.447 E1.06989
G1 X197.409 Y126.031 E1.0897
G1 X197.362 Y126.234 E1.09664
G1 X197.12 Y127.104 E1.12667
G1 X196.898 Y127.714 E1.14826
G1 X196.801 Y127.957 E1.15696
G1 X196.43 Y128.781 E1.18702
G1 X196.041 Y129.479 E1.2136
G1 X195.929 Y129.663 E1.22076
G1 X195.426 Y130.413 E1.2508
G1 X195.052 Y130.89 E1.27096
G1 X194.897 Y131.076 E1.27901
G1 X194.289 Y131.743 E1.30903
G1 X193.624 Y132.354 E1.33906
G1 X192.997 Y132.841 E1.36547
G1 X192.589 Y133.133 E1.38216
G1 X191.832 Y133.625 E1.41219
G1 X191.035 Y134.049 E1.44221
G1 X190.491 Y134.288 E1.46197
G1 X190.294 Y134.368 E1.46905
G1 X189.443 Y134.671 E1.49909
G1 X188.836 Y134.836 E1.52001
G1 X188.636 Y134.884 E1.52685
G1 X187.75 Y135.056 E1.55687
G1 X187.172 Y135.125 E1.57623
G1 X186.917 Y135.148 E1.58475
G1 X186.164 Y135.188 E1.60983
G1 X185.383 Y135.199 E1.63581
G1 X183.534 Y135.199 E1.69731
G1 X182.862 Y135.19 E1.71966
G1 X182.152 Y135.156 E1.7433
G1 X181.912 Y135.136 E1.75131
G1 X181.44 Y135.085 E1.7671
G1 X178.967 Y134.762 E1.85005
G1 X176.442 Y134.502 E1.93448
G1 X173.885 Y134.312 E2.01976
G1 X171.352 Y134.195 E2.1041
G1 X168.817 Y134.15 E2.18842
G1 X166.287 Y134.176 E2.27258
G1 X163.755 Y134.275 E2.35686
G1 X161.217 Y134.446 E2.44146
G1 X158.671 Y134.689 E2.52653
G1 X155.446 Y135.097 E2.63465
G1 X154.779 Y135.16 E2.65693
G1 X154.53 Y135.175 E2.66523
G1 X154.031 Y135.192 E2.68183
G1 X153.384 Y135.199 E2.70335
G1 X149.521 Y135.199 E2.83184
G1 X148.879 Y135.19 E2.85319
G1 X148.255 Y135.162 E2.87397
G1 X148.003 Y135.143 E2.88237
G1 X147.106 Y135.035 E2.91242
G1 X146.449 Y134.904 E2.9347
G1 X146.235 Y134.854 E2.94201
G1 X145.521 Y134.66 E2.96662
G1 X144.302 Y134.28 E3.00909
G1 X141.797 Y133.536 E3.096
G1 X139.355 Y132.887 E3.18004
G1 X136.875 Y132.302 E3.26479
G1 X134.397 Y131.791 E3.34895
G1 X131.889 Y131.347 E3.43366
G1 X129.375 Y130.975 E3.51819
G1 X126.855 Y130.675 E3.60259
G1 X124.329 Y130.446 E3.68695
G1 X121.805 Y130.29 E3.77106
G1 X119.266 Y130.203 E3.85556
G1 X116.698 Y130.19 E3.94097
G1 X114.206 Y130.246 E4.02388
G1 X111.63 Y130.378 E4.10967
G1 X109.113 Y130.578 E4.19365
G1 X106.572 Y130.853 E4.27865
G1 X104.078 Y131.194 E4.36238
G1 X101.556 Y131.611 E4.4474
G1 X99.054 Y132.1 E4.53219
G1 X96.62 Y132.646 E4.61516
G1 X94.153 Y133.272 E4.69981
G1 X91.697 Y133.972 E4.78475
G1 X90.779 Y134.264 E4.81679
G1 X89.423 Y134.676 E4.86393
G1 X88.816 Y134.841 E4.88485
G1 X88.614 Y134.889 E4.89175
G1 X87.727 Y135.058 E4.92179
G1 X87.212 Y135.12 E4.93904
G1 X86.957 Y135.144 E4.94756
G1 X86.165 Y135.188 E4.97394
G1 X85.384 Y135.199 E4.99992
G1 X81.521 Y135.199 E5.1284
G1 X80.878 Y135.19 E5.14979
G1 X80.245 Y135.161 E5.17087
G1 X79.983 Y135.141 E5.17961
G1 X79.44 Y135.085 E5.19776
G1 X76.967 Y134.762 E5.28071
G1 X74.442 Y134.502 E5.36514
G1 X71.885 Y134.312 E5.45042
G1 X69.352 Y134.195 E5.53476
G1 X66.817 Y134.15 E5.61909
G1 X64.287 Y134.176 E5.70324
G1 X61.755 Y134.275 E5.78752
G1 X59.217 Y134.446 E5.87212
G1 X56.671 Y134.689 E5.95719
G1 X53.446 Y135.097 E6.06531
G1 X52.779 Y135.16 E6.08759
G1 X52.53 Y135.175 E6.09589
G1 X52.03 Y135.192 E6.11253
G1 X51.383 Y135.199 E6.13405
G1 X49.534 Y135.199 E6.19555
G1 X48.863 Y135.19 E6.21786
G1 X48.157 Y135.156 E6.24137
G1 X47.928 Y135.137 E6.24902
G1 X47.032 Y135.023 E6.27906
G1 X46.471 Y134.909 E6.2981
G1 X46.255 Y134.859 E6.30547
G1 X45.385 Y134.617 E6.33551
G1 X44.738 Y134.381 E6.35841
G1 X44.51 Y134.289 E6.36659
G1 X43.689 Y133.914 E6.39661
G1 X42.989 Y133.522 E6.42329
G1 X42.805 Y133.409 E6.43048
G1 X42.057 Y132.903 E6.46051
G1 X41.691 Y132.617 E6.47596
G1 X41.5 Y132.461 E6.48416
G1 X40.826 Y131.859 E6.51422
G1 X40.209 Y131.2 E6.54425
G1 X39.638 Y130.47 E6.57507
G1 X39.348 Y130.062 E6.59172
G1 X38.858 Y129.304 E6.62174
G1 X38.437 Y128.505 E6.65178
G1 X38.212 Y127.991 E6.67044
G1 X38.132 Y127.794 E6.67751
G1 X37.829 Y126.943 E6.70756
G1 X37.655 Y126.301 E6.72968
G1 X37.608 Y126.102 E6.73648
G1 X37.44 Y125.214 E6.76654
G1 X37.38 Y124.709 E6.78346
G1 X37.356 Y124.453 E6.79201
G1 X37.312 Y123.662 E6.81836
G1 X37.301 Y122.867 E6.8448
G1 X37.301 Y112.061 E7.20421
G1 X37.312 Y111.313 E7.22909
G1 X37.387 Y110.22 E7.26553
G1 X37.421 Y109.943 E7.27481
G1 X37.571 Y109.053 E7.30483
G1 X37.759 Y108.308 E7.33039
G1 X37.819 Y108.104 E7.33746
G1 X38.112 Y107.25 E7.36749
G1 X38.331 Y106.735 E7.3861
G1 X38.429 Y106.521 E7.39393
G1 X38.841 Y105.717 E7.42398
G1 X39.297 Y104.991 E7.45249
G1 X39.442 Y104.78 E7.46101
G1 X39.986 Y104.059 E7.49105
G1 X40.473 Y103.511 E7.51543
G1 X40.623 Y103.354 E7.52266
G1 X41.275 Y102.729 E7.5527
G1 X42.251 Y101.973 E7.59376
G1 X42.6 Y101.735 E7.60781
G1 X43.368 Y101.26 E7.63784
G1 X44.509 Y100.712 E7.67994
G1 X44.706 Y100.632 E7.68701
G1 X45.557 Y100.329 E7.71706
G1 X46.164 Y100.164 E7.73798
G1 X46.364 Y100.116 E7.74482
G1 X47.25 Y99.944 E7.77484
G1 X47.828 Y99.875 E7.7942
G1 X48.083 Y99.852 E7.80272
G1 X48.833 Y99.812 E7.8277
G1 X49.615 Y99.801 E7.85371
G1 X182.574 Y99.8 E12.27594
G1 X185.436 Y99.801 E12.37113
G1 X186.142 Y99.811 E12.39462
G0 F6000 X186.148 Y99.411
G1 F1200 X186.818 Y99.442 E12.41693
G1 X187.05 Y99.46 E12.42467
G1 X187.964 Y99.571 E12.45529
G1 X188.631 Y99.704 E12.47791
G1 X188.846 Y99.754 E12.48525
G1 X189.733 Y100.001 E12.51588
G1 X190.44 Y100.26 E12.54092
G1 X190.671 Y100.354 E12.54921
G1 X191.508 Y100.737 E12.57983
G1 X192.203 Y101.127 E12.60633
G1 X192.383 Y101.237 E12.61335
G1 X193.147 Y101.751 E12.64398
G1 X193.557 Y102.068 E12.66121
G1 X193.747 Y102.223 E12.66937
G1 X194.434 Y102.836 E12.69999
G1 X195.066 Y103.506 E12.73063
G1 X195.683 Y104.292 E12.76386
G1 X195.974 Y104.701 E12.78056
G1 X196.475 Y105.473 E12.81117
G1 X196.906 Y106.287 E12.8418
G1 X197.151 Y106.84 E12.86192
G1 X197.231 Y107.036 E12.86896
G1 X197.542 Y107.903 E12.8996
G1 X197.713 Y108.52 E12.92089
G1 X197.762 Y108.72 E12.92774
G1 X197.942 Y109.622 E12.95833
G1 X198.019 Y110.243 E12.97915
G1 X198.042 Y110.486 E12.98726
G1 X198.087 Y111.305 E13.01454
G1 X198.099 Y112.073 E13.04009
G1 X198.099 Y122.933 E13.4013
G1 X198.089 Y123.654 E13.42528
G1 X198.056 Y124.36 E13.44879
G1 X198.038 Y124.583 E13.45623
G1 X197.924 Y125.496 E13.48683
G1 X197.799 Y126.121 E13.50803
G1 X197.752 Y126.324 E13.51496
G1 X197.505 Y127.211 E13.54558
G1 X197.27 Y127.863 E13.56864
G1 X197.173 Y128.106 E13.57734
G1 X196.795 Y128.945 E13.60794
G1 X196.383 Y129.687 E13.63617
G1 X196.271 Y129.871 E13.64334
G1 X195.758 Y130.636 E13.67397
G1 X195.359 Y131.146 E13.69551
G1 X195.204 Y131.332 E13.70356
G1 X194.585 Y132.013 E13.73417
G1 X193.908 Y132.638 E13.76482
G1 X193.23 Y133.166 E13.7934
G1 X192.822 Y133.458 E13.81009
G1 X192.051 Y133.961 E13.8407
G1 X191.239 Y134.395 E13.87133
G1 X190.641 Y134.659 E13.89307
G1 X190.444 Y134.739 E13.90014
G1 X189.577 Y135.048 E13.93075
G1 X188.93 Y135.225 E13.95306
G1 X188.73 Y135.273 E13.9599
G1 X187.826 Y135.449 E13.99054
G1 X187.208 Y135.523 E14.01124
G1 X186.953 Y135.546 E14.01975
G1 X186.171 Y135.588 E14.0458
G1 X185.383 Y135.599 E14.07201
G1 X183.529 Y135.599 E14.13368
G1 X182.857 Y135.59 E14.15603
G1 X182.119 Y135.554 E14.1806
G1 X181.879 Y135.534 E14.18861
G1 X181.388 Y135.482 E14.20504
G1 X178.91 Y135.159 E14.28815
G1 X176.407 Y134.901 E14.37184
G1 X173.871 Y134.712 E14.45642
G1 X171.327 Y134.595 E14.54113
G1 X168.814 Y134.551 E14.62472
G1 X166.306 Y134.576 E14.70814
G1 X163.763 Y134.675 E14.79279
G1 X161.246 Y134.845 E14.8767
G1 X158.726 Y135.085 E14.96089
G1 X155.496 Y135.494 E15.06918
G1 X154.803 Y135.559 E15.09233
G1 X154.554 Y135.574 E15.10063
G1 X154.036 Y135.592 E15.11786
G1 X153.384 Y135.599 E15.13955
G1 X149.515 Y135.599 E15.26823
G1 X148.873 Y135.59 E15.28959
G1 X148.225 Y135.561 E15.31116
G1 X147.973 Y135.542 E15.31957
G1 X147.059 Y135.433 E15.35018
G1 X146.358 Y135.294 E15.37395
G1 X146.144 Y135.244 E15.38126
G1 X145.402 Y135.042 E15.40684
G1 X144.134 Y134.647 E15.45101
G1 X141.718 Y133.93 E15.53483
G1 X139.266 Y133.278 E15.61922
G1 X136.775 Y132.69 E15.70435
G1 X134.317 Y132.183 E15.78782
G1 X131.832 Y131.744 E15.87176
G1 X129.305 Y131.369 E15.95672
G1 X126.839 Y131.075 E16.03932
G1 X124.304 Y130.846 E16.12398
G1 X121.767 Y130.689 E16.20852
G1 X119.25 Y130.603 E16.29229
G1 X116.704 Y130.59 E16.37697
G1 X114.202 Y130.646 E16.46021
G1 X111.679 Y130.776 E16.54423
G1 X109.155 Y130.976 E16.62845
G1 X106.602 Y131.252 E16.71385
G1 X104.121 Y131.591 E16.79714
G1 X101.666 Y131.998 E16.87991
G1 X99.147 Y132.49 E16.96527
G1 X96.692 Y133.041 E17.04896
G1 X94.232 Y133.665 E17.13337
G1 X91.821 Y134.352 E17.21675
G1 X90.896 Y134.647 E17.24904
G1 X89.54 Y135.059 E17.29618
G1 X88.909 Y135.23 E17.31792
G1 X88.707 Y135.278 E17.32483
G1 X87.802 Y135.452 E17.35548
G1 X87.249 Y135.518 E17.374
G1 X86.994 Y135.542 E17.38252
G1 X86.172 Y135.588 E17.40991
G1 X85.384 Y135.599 E17.43612
G1 X81.516 Y135.599 E17.56477
G1 X80.873 Y135.59 E17.58616
G1 X80.214 Y135.56 E17.6081
G1 X79.952 Y135.54 E17.61684
G1 X79.388 Y135.482 E17.63569
G1 X76.91 Y135.159 E17.71881
G1 X74.407 Y134.901 E17.8025
G1 X71.871 Y134.712 E17.88708
G1 X69.327 Y134.595 E17.97179
G1 X66.814 Y134.551 E18.05538
G1 X64.306 Y134.576 E18.1388
G1 X61.763 Y134.675 E18.22345
G1 X59.246 Y134.845 E18.30735
G1 X56.726 Y135.085 E18.39155
G1 X53.496 Y135.494 E18.49984
G1 X52.803 Y135.559 E18.52299
G1 X52.554 Y135.574 E18.53128
G1 X52.035 Y135.592 E18.54856
G1 X51.383 Y135.599 E18.57024
G1 X49.529 Y135.599 E18.63191
G1 X48.858 Y135.59 E18.65423
G1 X48.124 Y135.555 E18.67867
G1 X47.895 Y135.536 E18.68631
G1 X46.981 Y135.42 E18.71695
G1 X46.381 Y135.299 E18.73731
G1 X46.165 Y135.249 E18.74469
G1 X45.277 Y135.003 E18.77533
G1 X44.589 Y134.752 E18.79969
G1 X44.361 Y134.66 E18.80787
G1 X43.523 Y134.279 E18.83849
G1 X42.78 Y133.863 E18.86681
G1 X42.596 Y133.75 E18.87399
G1 X41.833 Y133.234 E18.90463
G1 X41.438 Y132.927 E18.92127
G1 X41.247 Y132.771 E18.92947
G1 X40.56 Y132.158 E18.96009
G1 X39.928 Y131.488 E18.99073
G1 X39.312 Y130.702 E19.02394
G1 X39.022 Y130.294 E19.04059
G1 X38.522 Y129.521 E19.07121
G1 X38.091 Y128.708 E19.10181
G1 X37.841 Y128.141 E19.12242
G1 X37.761 Y127.944 E19.1295
G1 X37.452 Y127.077 E19.16011
G1 X37.266 Y126.392 E19.18372
G1 X37.219 Y126.193 E19.19052
G1 X37.046 Y125.289 E19.22113
G1 X36.981 Y124.746 E19.23932
G1 X36.957 Y124.49 E19.24787
G1 X36.912 Y123.668 E19.27525
G1 X36.901 Y122.867 E19.3019
G1 X36.901 Y112.055 E19.66151
G1 X36.912 Y111.307 E19.68639
G1 X36.99 Y110.172 E19.72423
G1 X37.024 Y109.895 E19.73351
G1 X37.176 Y108.987 E19.76413
G1 X37.376 Y108.195 E19.7913
G1 X37.436 Y107.991 E19.79837
G1 X37.734 Y107.12 E19.82899
G1 X37.967 Y106.569 E19.84889
G1 X38.065 Y106.355 E19.85671
G1 X38.485 Y105.535 E19.88736
G1 X38.967 Y104.765 E19.91757
G1 X39.112 Y104.554 E19.92609
G1 X39.666 Y103.818 E19.95673
G1 X40.184 Y103.234 E19.98269
G1 X40.334 Y103.077 E19.98991
G1 X40.998 Y102.44 E20.02052
G1 X42.026 Y101.643 E20.06378
G1 X42.375 Y101.405 E20.07783
G1 X43.157 Y100.919 E20.10845
G1 X44.359 Y100.341 E20.15281
G1 X44.556 Y100.261 E20.15988
G1 X45.423 Y99.952 E20.1905
G1 X46.07 Y99.775 E20.21281
G1 X46.27 Y99.727 E20.21965
G1 X47.174 Y99.551 E20.25028
G1 X47.792 Y99.477 E20.27098
G1 X48.047 Y99.454 E20.2795
G1 X48.827 Y99.412 E20.30548
G1 X49.615 Y99.401 E20.33169
G1 X182.574 Y99.4 E24.75392
G1 X185.442 Y99.401 E24.84931
G1 X186.148 Y99.411 E24.8728
G0 F6000 X186.154 Y99.011
G1 F1200 X186.849 Y99.043 E24.89594
G1 X187.081 Y99.061 E24.90368
G1 X188.012 Y99.173 E24.93487
G1 X188.722 Y99.314 E24.95894
G1 X188.937 Y99.364 E24.96628
G1 X189.84 Y99.615 E24.99746
G1 X190.591 Y99.889 E25.02405
G1 X190.822 Y99.983 E25.03234
G1 X191.675 Y100.373 E25.06354
G1 X192.412 Y100.786 E25.09164
G1 X192.592 Y100.896 E25.09865
G1 X193.371 Y101.419 E25.12986
G1 X193.809 Y101.758 E25.14828
G1 X193.999 Y101.913 E25.15644
G1 X194.7 Y102.537 E25.18765
G1 X195.345 Y103.218 E25.21885
G1 X196.009 Y104.06 E25.25451
G1 X196.3 Y104.469 E25.27121
G1 X196.811 Y105.256 E25.30242
G1 X197.252 Y106.083 E25.33359
G1 X197.521 Y106.689 E25.35564
G1 X197.601 Y106.885 E25.36268
G1 X197.918 Y107.768 E25.39389
G1 X198.101 Y108.424 E25.41654
G1 X198.15 Y108.624 E25.42339
G1 X198.334 Y109.544 E25.45459
G1 X198.417 Y110.205 E25.47675
G1 X198.44 Y110.448 E25.48487
G1 X198.487 Y111.298 E25.51318
G1 X198.499 Y112.073 E25.53896
G1 X198.499 Y122.939 E25.90037
G1 X198.489 Y123.66 E25.92435
G1 X198.454 Y124.392 E25.94872
G1 X198.436 Y124.615 E25.95617
G1 X198.321 Y125.546 E25.98737
G1 X198.189 Y126.211 E26.00992
G1 X198.142 Y126.414 E26.01685
G1 X197.891 Y127.318 E26.04805
G1 X197.641 Y128.011 E26.07255
G1 X197.544 Y128.254 E26.08126
G1 X197.16 Y129.109 E26.11243
G1 X196.724 Y129.895 E26.14233
G1 X196.612 Y130.079 E26.14949
G1 X196.091 Y130.859 E26.18069
G1 X195.666 Y131.402 E26.20362
G1 X195.511 Y131.588 E26.21168
G1 X194.881 Y132.282 E26.24285
G1 X194.193 Y132.92 E26.27406
G1 X193.463 Y133.491 E26.30488
G1 X193.055 Y133.783 E26.32157
G1 X192.27 Y134.296 E26.35276
G1 X191.444 Y134.74 E26.38395
G1 X190.792 Y135.03 E26.40768
G1 X190.595 Y135.11 E26.41476
G1 X189.712 Y135.425 E26.44594
G1 X189.023 Y135.614 E26.4697
G1 X188.823 Y135.662 E26.47654
G1 X187.903 Y135.842 E26.50772
G1 X187.244 Y135.922 E26.5298
G1 X186.989 Y135.945 E26.53832
G1 X186.177 Y135.988 E26.56536
G1 X185.383 Y135.999 E26.59177
G1 X183.524 Y135.999 E26.6536
G1 X182.852 Y135.99 E26.67596
G1 X182.085 Y135.953 E26.7015
G1 X181.845 Y135.933 E26.70951
G1 X181.336 Y135.879 E26.72653
G1 X178.853 Y135.555 E26.80982
G1 X176.372 Y135.299 E26.89277
G1 X173.821 Y135.11 E26.97785
G1 X171.339 Y134.995 E27.06049
G1 X168.811 Y134.951 E27.14459
G1 X166.326 Y134.976 E27.22724
G1 X163.77 Y135.076 E27.31232
G1 X161.274 Y135.244 E27.39552
G1 X158.784 Y135.481 E27.47872
G1 X155.547 Y135.891 E27.58724
G1 X154.827 Y135.958 E27.61129
G1 X154.578 Y135.973 E27.61959
