;FLAVOR:Marlin
;TIME:5497
;Filament used: 3.74562m
;Layer height: 0.2
;MINX:101.489
;MINY:81.998
;MINZ:0.2
;MAXX:166.489
;MAXY:158.245
;MAXZ:20
;Generated with Cura_SteamEngine 4.6.2
M140 S50
M105
M190 S50
M104 S200
M105
M109 S200
M82 ;absolute extrusion mode
; Ender 3 Custom Start G-code
G92 E0 ; Reset Extruder
G28 ; Home all axes
G1 Z2.0 F3000 ; Move Z Axis up little to prevent scratching of Heat Bed
G1 X0.1 Y20 Z0.3 F5000.0 ; Move to start position
G1 X0.1 Y200.0 Z0.3 F1500.0 E15 ; Draw the first line
G1 X0.4 Y200.0 Z0.3 F5000.0 ; Move to side a little
G1 X0.4 Y20 Z0.3 F1500.0 E30 ; Draw the second line
G92 E0 ; Reset Extruder
G1 Z2.0 F3000 ; Move Z Axis up little to prevent scratching of Heat Bed
G1 X5 Y20 Z0.3 F5000.0 ; Move over to prevent blob squish
G92 E0
G92 E0
G1 F2700 E-5
;LAYER_COUNT:100
;LAYER:0
M107
G0 F6000 X152.915 Y82.809 Z0.2
;TYPE:SKIRT
G1 F2700 E0
G1 F1200 X153.817 Y82.862 E0.03005
G1 X154.71 Y82.994 E0.06008
G1 X155.588 Y83.205 E0.09011
G1 X156.444 Y83.493 E0.12015
G1 X157.271 Y83.855 E0.15018
G1 X158.063 Y84.29 E0.18023
G1 X158.814 Y84.792 E0.21027
G1 X159.517 Y85.359 E0.24031
G1 X160.167 Y85.986 E0.27035
G1 X160.759 Y86.668 E0.30039
G1 X161.289 Y87.399 E0.33042
G1 X161.751 Y88.175 E0.36046
G1 X162.144 Y88.988 E0.39049
G1 X162.462 Y89.833 E0.42052
G1 X162.705 Y90.703 E0.45056
G1 X162.87 Y91.591 E0.4806
G1 X162.965 Y92.721 E0.51832
G1 X162.978 Y93.322 E0.53832
G1 X162.979 Y94.947 E0.59236
G1 X162.986 Y96.439 E0.64199
G1 X163.06 Y99.018 E0.7278
G1 X163.204 Y101.525 E0.81132
G1 X163.421 Y104.063 E0.89604
G1 X163.712 Y106.609 E0.98128
G1 X164.064 Y109.072 E1.06403
G1 X164.5 Y111.61 E1.14968
G1 X165.012 Y114.154 E1.23599
G1 X165.429 Y116.005 E1.2991
G1 X165.589 Y116.894 E1.32914
G1 X165.674 Y117.936 E1.36391
G1 X165.689 Y118.575 E1.38517
G1 X165.688 Y146.635 E2.31845
G1 X165.679 Y147.362 E2.34263
G1 X165.628 Y148.264 E2.37268
G1 X165.497 Y149.158 E2.40273
G1 X165.288 Y150.036 E2.43275
G1 X165.002 Y150.893 E2.4628
G1 X164.641 Y151.721 E2.49284
G1 X164.209 Y152.513 E2.52285
G1 X163.708 Y153.265 E2.5529
G1 X163.142 Y153.969 E2.58295
G1 X162.517 Y154.62 E2.61296
G1 X161.836 Y155.214 E2.64302
G1 X161.105 Y155.745 E2.67307
G1 X160.331 Y156.209 E2.70308
G1 X159.518 Y156.603 E2.73313
G1 X158.674 Y156.923 E2.76315
G1 X157.804 Y157.168 E2.79322
G1 X156.917 Y157.334 E2.82323
G1 X155.766 Y157.432 E2.86165
G1 X155.159 Y157.445 E2.88184
G1 X113.064 Y157.444 E4.28193
G1 X112.366 Y157.435 E4.30515
G1 X111.465 Y157.384 E4.33516
G1 X110.571 Y157.252 E4.36522
G1 X109.693 Y157.043 E4.39524
G1 X108.836 Y156.756 E4.4253
G1 X108.009 Y156.395 E4.45531
G1 X107.216 Y155.962 E4.48536
G1 X106.465 Y155.461 E4.51539
G1 X105.761 Y154.895 E4.54543
G1 X105.11 Y154.269 E4.57547
G1 X104.517 Y153.588 E4.60551
G1 X103.987 Y152.857 E4.63554
G1 X103.523 Y152.082 E4.66558
G1 X103.129 Y151.269 E4.69563
G1 X102.809 Y150.425 E4.72565
G1 X102.565 Y149.555 E4.7557
G1 X102.399 Y148.667 E4.78575
G1 X102.302 Y147.512 E4.8243
G1 X102.289 Y146.903 E4.84456
G1 X102.29 Y118.806 E5.77907
G1 X102.3 Y118.109 E5.80225
G1 X102.353 Y117.207 E5.83231
G1 X102.511 Y116.188 E5.8666
G1 X102.54 Y116.047 E5.87139
G1 X103.067 Y113.418 E5.96057
G1 X103.499 Y110.895 E6.04571
G1 X103.853 Y108.403 E6.12943
G1 X104.139 Y105.878 E6.21394
G1 X104.354 Y103.353 E6.29823
G1 X104.495 Y100.848 E6.38168
G1 X104.578 Y96.898 E6.51308
G1 X104.579 Y93.519 E6.62547
G1 X104.589 Y92.854 E6.64759
G1 X104.643 Y91.952 E6.67765
G1 X104.776 Y91.059 E6.70767
G1 X104.987 Y90.181 E6.73771
G1 X105.276 Y89.325 E6.76776
G1 X105.639 Y88.498 E6.7978
G1 X106.073 Y87.707 E6.82781
G1 X106.576 Y86.956 E6.85787
G1 X107.144 Y86.254 E6.8879
G1 X107.771 Y85.604 E6.91794
G1 X108.453 Y85.012 E6.94798
G1 X109.185 Y84.483 E6.97802
G1 X109.961 Y84.021 E7.00805
G1 X110.775 Y83.63 E7.03809
G1 X111.62 Y83.311 E7.06813
G1 X112.49 Y83.069 E7.09817
G1 X113.378 Y82.905 E7.1282
G1 X114.501 Y82.811 E7.16568
G1 X115.11 Y82.798 E7.18594
G1 X119.807 Y82.799 E7.34216
G1 X152.217 Y82.799 E8.42013
G1 X152.915 Y82.809 E8.44334
G0 F6000 X152.921 Y82.409
G1 F1200 X153.84 Y82.462 E8.47396
G1 X154.751 Y82.595 E8.50458
G1 X155.647 Y82.806 E8.5352
G1 X156.521 Y83.094 E8.56581
G1 X157.368 Y83.457 E8.59645
G1 X158.179 Y83.892 E8.62706
G1 X158.949 Y84.396 E8.65767
G1 X159.673 Y84.965 E8.6883
G1 X160.345 Y85.595 E8.71894
G1 X160.96 Y86.28 E8.74955
G1 X161.513 Y87.016 E8.78017
G1 X162 Y87.797 E8.81079
G1 X162.417 Y88.618 E8.84141
G1 X162.762 Y89.472 E8.87205
G1 X163.031 Y90.352 E8.90265
G1 X163.223 Y91.253 E8.93329
G1 X163.336 Y92.166 E8.96389
G1 X163.365 Y92.71 E8.98201
G1 X163.378 Y93.322 E9.00237
G1 X163.379 Y94.945 E9.05635
G1 X163.386 Y96.427 E9.10564
G1 X163.46 Y98.983 E9.19069
G1 X163.606 Y101.539 E9.27584
G1 X163.816 Y103.995 E9.35783
G1 X164.111 Y106.574 E9.44417
G1 X164.461 Y109.025 E9.52651
G1 X164.891 Y111.529 E9.61102
G1 X165.403 Y114.074 E9.69736
G1 X165.819 Y115.917 E9.7602
G1 X165.983 Y116.823 E9.79082
G1 X166.074 Y117.924 E9.82757
G1 X166.089 Y118.575 E9.84923
G1 X166.088 Y146.64 E10.78267
G1 X166.079 Y147.367 E10.80685
G1 X166.028 Y148.286 E10.83747
G1 X165.897 Y149.198 E10.86811
G1 X165.687 Y150.094 E10.89872
G1 X165.401 Y150.969 E10.92934
G1 X165.04 Y151.816 E10.95996
G1 X164.606 Y152.628 E10.99058
G1 X164.104 Y153.4 E11.02121
G1 X163.536 Y154.125 E11.05184
G1 X162.908 Y154.798 E11.08246
G1 X162.224 Y155.414 E11.11308
G1 X161.489 Y155.968 E11.14369
G1 X160.709 Y156.457 E11.17431
G1 X159.889 Y156.876 E11.20494
G1 X159.036 Y157.222 E11.23555
G1 X158.156 Y157.493 E11.26618
G1 X157.256 Y157.686 E11.29679
G1 X156.342 Y157.801 E11.32743
G1 X155.777 Y157.832 E11.34625
G1 X155.159 Y157.845 E11.36681
G1 X113.059 Y157.844 E12.76706
G1 X112.361 Y157.835 E12.79028
G1 X111.442 Y157.783 E12.8209
G1 X110.531 Y157.652 E12.85151
G1 X109.635 Y157.442 E12.88212
G1 X108.76 Y157.155 E12.91274
G1 X107.913 Y156.793 E12.94338
G1 X107.101 Y156.359 E12.974
G1 X106.33 Y155.857 E13.0046
G1 X105.605 Y155.289 E13.03524
G1 X104.932 Y154.66 E13.06587
G1 X104.317 Y153.976 E13.09647
G1 X103.763 Y153.241 E13.12708
G1 X103.275 Y152.46 E13.15771
G1 X102.856 Y151.64 E13.18834
G1 X102.51 Y150.787 E13.21895
G1 X102.24 Y149.907 E13.24957
G1 X102.047 Y149.006 E13.28022
G1 X101.933 Y148.093 E13.31082
G1 X101.902 Y147.522 E13.32984
G1 X101.889 Y146.903 E13.35043
G1 X101.89 Y118.8 E14.28514
G1 X101.9 Y118.103 E14.30833
G1 X101.953 Y117.184 E14.33894
G1 X102.119 Y116.107 E14.37519
G1 X102.161 Y115.904 E14.38208
G1 X102.675 Y113.338 E14.46912
G1 X103.102 Y110.844 E14.55328
G1 X103.453 Y108.373 E14.63629
G1 X103.74 Y105.836 E14.72121
G1 X103.957 Y103.298 E14.80593
G1 X104.095 Y100.845 E14.88765
G1 X104.178 Y96.889 E15.01925
G1 X104.179 Y93.513 E15.13154
G1 X104.189 Y92.848 E15.15366
G1 X104.243 Y91.929 E15.18428
G1 X104.376 Y91.018 E15.2149
G1 X104.588 Y90.122 E15.24553
G1 X104.877 Y89.247 E15.27617
G1 X105.241 Y88.402 E15.30678
G1 X105.676 Y87.591 E15.33738
G1 X106.181 Y86.82 E15.36804
G1 X106.75 Y86.097 E15.39864
G1 X107.38 Y85.425 E15.42928
G1 X108.066 Y84.811 E15.4599
G1 X108.802 Y84.259 E15.4905
G1 X109.584 Y83.772 E15.52114
G1 X110.405 Y83.356 E15.55175
G1 X111.259 Y83.012 E15.58237
G1 X112.139 Y82.743 E15.61298
G1 X113.04 Y82.552 E15.64361
G1 X113.954 Y82.44 E15.67424
G1 X114.49 Y82.411 E15.69209
G1 X115.11 Y82.398 E15.71272
G1 X119.807 Y82.399 E15.86894
G1 X152.223 Y82.399 E16.9471
G1 X152.921 Y82.409 E16.97032
G0 F6000 X152.927 Y82.009
G1 F1200 X153.863 Y82.063 E17.0015
G1 X154.791 Y82.195 E17.03268
G1 X155.705 Y82.407 E17.06389
G1 X156.597 Y82.696 E17.09507
G1 X157.462 Y83.059 E17.12627
G1 X158.292 Y83.495 E17.15746
G1 X159.083 Y84 E17.18867
G1 X159.827 Y84.571 E17.21986
G1 X160.52 Y85.203 E17.25106
G1 X161.157 Y85.891 E17.28224
G1 X161.732 Y86.632 E17.31344
G1 X162.243 Y87.418 E17.34462
G1 X162.685 Y88.246 E17.37584
G1 X163.054 Y89.108 E17.40702
G1 X163.349 Y89.998 E17.43821
G1 X163.567 Y90.91 E17.4694
G1 X163.707 Y91.838 E17.50061
G1 X163.765 Y92.699 E17.52931
G1 X163.778 Y93.321 E17.55001
G1 X163.779 Y94.944 E17.60399
G1 X163.786 Y96.454 E17.65421
G1 X163.858 Y98.949 E17.73723
G1 X164.003 Y101.483 E17.82165
G1 X164.218 Y103.987 E17.90524
G1 X164.505 Y106.504 E17.9895
G1 X164.858 Y108.972 E18.07242
G1 X165.284 Y111.453 E18.15614
G1 X165.787 Y113.952 E18.24093
G1 X166.21 Y115.829 E18.30492
G1 X166.377 Y116.752 E18.33612
G1 X166.474 Y117.912 E18.37484
G1 X166.484 Y118.239 E18.38572
G1 X166.489 Y118.575 E18.39689
G1 X166.488 Y146.645 E19.33051
G1 X166.479 Y147.372 E19.35469
G1 X166.428 Y148.309 E19.3859
G1 X166.296 Y149.237 E19.41707
G1 X166.087 Y150.151 E19.44826
G1 X165.8 Y151.044 E19.47946
G1 X165.438 Y151.91 E19.51067
G1 X165.004 Y152.741 E19.54186
G1 X164.5 Y153.532 E19.57305
G1 X163.931 Y154.277 E19.60423
G1 X163.3 Y154.972 E19.63545
G1 X162.613 Y155.61 E19.66664
G1 X161.874 Y156.187 E19.69782
G1 X161.088 Y156.699 E19.72902
G1 X160.262 Y157.142 E19.76019
G1 X159.4 Y157.514 E19.79142
G1 X158.511 Y157.81 E19.82258
G1 X157.599 Y158.03 E19.85379
G1 X156.672 Y158.171 E19.88497
G1 X155.788 Y158.232 E19.91445
G1 X155.159 Y158.245 E19.93537
G1 X113.054 Y158.244 E21.33579
G1 X112.356 Y158.235 E21.35901
G1 X111.42 Y158.183 E21.39019
G1 X110.491 Y158.051 E21.4214
G1 X109.577 Y157.841 E21.45259
G1 X108.684 Y157.554 E21.48379
G1 X107.819 Y157.191 E21.51499
G1 X106.988 Y156.757 E21.54617
G1 X106.197 Y156.253 E21.57736
G1 X105.452 Y155.683 E21.60856
G1 X104.758 Y155.052 E21.63976
G1 X104.121 Y154.365 E21.67092
G1 X103.544 Y153.625 E21.70213
G1 X103.032 Y152.839 E21.73333
G1 X102.589 Y152.012 E21.76453
G1 X102.218 Y151.151 E21.79572
G1 X101.922 Y150.261 E21.82691
G1 X101.703 Y149.349 E21.85811
G1 X101.562 Y148.422 E21.88929
G1 X101.502 Y147.533 E21.91893
G1 X101.489 Y146.903 E21.93989
G1 X101.49 Y118.794 E22.8748
G1 X101.5 Y118.097 E22.89798
G1 X101.554 Y117.161 E22.92917
G1 X101.727 Y116.026 E22.96735
G1 X101.769 Y115.823 E22.97425
G1 X102.277 Y113.291 E23.06014
G1 X102.709 Y110.762 E23.14547
G1 X103.059 Y108.304 E23.22805
G1 X103.343 Y105.793 E23.3121
G1 X103.555 Y103.309 E23.39502
G1 X103.695 Y100.815 E23.4781
G1 X103.778 Y96.881 E23.60897
G1 X103.779 Y93.507 E23.72119
G1 X103.789 Y92.842 E23.74331
G1 X103.843 Y91.905 E23.77453
G1 X103.977 Y90.977 E23.80572
G1 X104.189 Y90.063 E23.83692
G1 X104.478 Y89.171 E23.86811
G1 X104.843 Y88.307 E23.8993
G1 X105.279 Y87.477 E23.93049
G1 X105.785 Y86.687 E23.96169
G1 X106.356 Y85.943 E23.99288
G1 X106.988 Y85.25 E24.02408
G1 X107.677 Y84.614 E24.05527
G1 X108.418 Y84.039 E24.08646
G1 X109.205 Y83.529 E24.11765
G1 X110.033 Y83.088 E24.14885
G1 X110.895 Y82.719 E24.18004
G1 X111.786 Y82.425 E24.21125
G1 X112.698 Y82.207 E24.24244
G1 X113.625 Y82.069 E24.27361
G1 X114.479 Y82.011 E24.30208
G1 X115.11 Y81.998 E24.32307
G1 X119.807 Y81.999 E24.47929
G1 X152.229 Y81.999 E25.55765
G1 X152.927 Y82.009 E25.58087
G1 F2700 E20.58087
G0 F6000 X129.345 Y101.168
G0 X128.762 Y101.196
G1 F2700 E25.58087
G1 F1200 X128.546 Y101.509 E25.59352
G1 X128.439 Y101.673 E25.60003
G1 X128.259 Y101.965 E25.61144
G1 X128.005 Y102.454 E25.62977
G1 X127.863 Y102.838 E25.64338
G1 X127.704 Y103.353 E25.66131
G1 X127.572 Y103.945 E25.68149
G1 X127.518 Y104.329 E25.69438
G1 X127.485 Y105.027 E25.71762
G1 X127.503 Y105.432 E25.73111
G1 X127.556 Y105.92 E25.74743
G1 X127.635 Y106.37 E25.76263
G1 X127.84 Y107.099 E25.78782
G1 X127.994 Y107.492 E25.80186
G1 X128.322 Y108.139 E25.82598
G1 X128.576 Y108.54 E25.84177
G1 X128.952 Y109.038 E25.86253
G1 X129.203 Y109.319 E25.87506
G1 X129.535 Y109.648 E25.8906
G1 X129.846 Y109.92 E25.90434
G1 X130.286 Y110.252 E25.92268
G1 X130.525 Y110.394 E25.93192
G1 X130.931 Y110.616 E25.94731
G1 X131.534 Y110.881 E25.96922
G1 X131.95 Y111.022 E25.98383
G1 X132.539 Y111.17 E26.00403
G1 X132.931 Y111.236 E26.01725
G1 X133.562 Y111.289 E26.03831
G1 X134.003 Y111.289 E26.05298
G1 X134.685 Y111.227 E26.07576
G1 X135.129 Y111.146 E26.09077
G1 X135.857 Y110.937 E26.11596
G1 X136.21 Y110.796 E26.1286
G1 X136.448 Y110.691 E26.13725
G1 X136.772 Y110.535 E26.14922
G1 X137.25 Y110.26 E26.16756
G1 X137.499 Y110.078 E26.17782
G1 X137.91 Y109.749 E26.19533
G1 X138.431 Y109.242 E26.2195
G1 X138.679 Y108.95 E26.23225
G1 X138.986 Y108.534 E26.24944
G1 X139.217 Y108.172 E26.26373
G1 X139.562 Y107.49 E26.28915
G1 X139.724 Y107.068 E26.30418
G1 X139.902 Y106.455 E26.32541
G1 X139.986 Y106.037 E26.33959
G1 X140.058 Y105.417 E26.36035
G1 X140.074 Y104.946 E26.37603
G1 X140.014 Y104.135 E26.40307
G1 X139.946 Y103.762 E26.41568
G1 X139.87 Y103.428 E26.42708
G1 X139.777 Y103.093 E26.43864
G1 X139.538 Y102.46 E26.46115
G1 X139.327 Y102.022 E26.47732
G1 X139.053 Y101.544 E26.49564
G1 X138.871 Y101.297 E26.50584
G1 X138.603 Y100.962 E26.52011
G1 X138.31 Y100.636 E26.53469
G1 X138.007 Y100.336 E26.54887
G1 X137.402 Y99.849 E26.57471
G1 X137.02 Y99.601 E26.58985
G1 X136.429 Y99.287 E26.61211
G1 X136.088 Y99.143 E26.62442
G1 X135.603 Y98.976 E26.64149
G1 X135.219 Y98.872 E26.65472
G1 X134.629 Y98.761 E26.67468
G1 X134.169 Y98.712 E26.69007
G1 X133.618 Y98.694 E26.70841
G1 X133.334 Y98.716 E26.71788
G1 X132.906 Y98.765 E26.73221
G1 X132.391 Y98.86 E26.74963
G1 X131.979 Y98.966 E26.76378
G1 X131.312 Y99.206 E26.78735
G1 X130.941 Y99.38 E26.80098
G1 X130.439 Y99.664 E26.82017
G1 X130.099 Y99.892 E26.83378
G1 X129.61 Y100.281 E26.85457
G1 X129.285 Y100.587 E26.86941
G1 X128.762 Y101.196 E26.89611
G0 F6000 X129.092 Y101.423
G1 F1200 X128.78 Y101.883 E26.9146
G1 X128.6 Y102.175 E26.92601
G1 X128.361 Y102.638 E26.94334
G1 X128.245 Y102.956 E26.9546
G1 X128.086 Y103.471 E26.97252
G1 X127.968 Y104.001 E26.99058
G1 X127.914 Y104.385 E27.00348
G1 X127.884 Y105.009 E27.02426
G1 X127.902 Y105.414 E27.03774
G1 X127.95 Y105.851 E27.05236
G1 X128.029 Y106.301 E27.06756
G1 X128.212 Y106.953 E27.09008
G1 X128.366 Y107.346 E27.10412
G1 X128.66 Y107.925 E27.12572
G1 X128.914 Y108.326 E27.14151
G1 X129.25 Y108.772 E27.16008
G1 X129.501 Y109.053 E27.17261
G1 X129.799 Y109.347 E27.18654
G1 X130.11 Y109.619 E27.20028
G1 X130.717 Y110.043 E27.2249
G1 X131.123 Y110.265 E27.24029
G1 X131.663 Y110.502 E27.25991
G1 X132.079 Y110.643 E27.27452
G1 X132.605 Y110.776 E27.29256
G1 X132.997 Y110.842 E27.30578
G1 X133.562 Y110.889 E27.32464
G1 X134.003 Y110.889 E27.33931
G1 X134.613 Y110.834 E27.35968
G1 X135.057 Y110.753 E27.37469
G1 X135.708 Y110.565 E27.39723
G1 X136.061 Y110.424 E27.40987
G1 X136.275 Y110.33 E27.41765
G1 X136.599 Y110.174 E27.42961
G1 X137.249 Y109.765 E27.45515
G1 X137.66 Y109.436 E27.47266
G1 X138.126 Y108.983 E27.49427
G1 X138.374 Y108.691 E27.50702
G1 X138.649 Y108.319 E27.5224
G1 X138.88 Y107.957 E27.53669
G1 X139.188 Y107.347 E27.55941
G1 X139.35 Y106.925 E27.57445
G1 X139.509 Y106.376 E27.59346
G1 X139.593 Y105.958 E27.60764
G1 X139.658 Y105.403 E27.62623
G1 X139.674 Y104.932 E27.6419
G1 X139.621 Y104.207 E27.66608
G1 X139.553 Y103.834 E27.67869
G1 X139.484 Y103.535 E27.68889
G1 X139.391 Y103.2 E27.70046
G1 X139.178 Y102.633 E27.7206
G1 X138.967 Y102.195 E27.73677
G1 X138.559 Y101.547 E27.76224
G1 X138.291 Y101.212 E27.77651
G1 X138.028 Y100.92 E27.78958
G1 X137.725 Y100.62 E27.80376
G1 X137.184 Y100.184 E27.82687
G1 X136.802 Y99.936 E27.84202
G1 X136.274 Y99.656 E27.8619
G1 X135.933 Y99.512 E27.87421
G1 X135.499 Y99.362 E27.88948
G1 X135.115 Y99.258 E27.90272
G1 X134.586 Y99.159 E27.92062
G1 X134.126 Y99.11 E27.936
G1 X133.379 Y99.113 E27.96085
G1 X132.951 Y99.162 E27.97518
G1 X132.491 Y99.247 E27.99073
G1 X132.079 Y99.353 E28.00488
G1 X131.482 Y99.568 E28.02599
G1 X131.111 Y99.742 E28.03962
G1 X130.661 Y99.996 E28.0568
G1 X130.321 Y100.224 E28.07042
G1 X129.884 Y100.573 E28.08902
G1 X129.559 Y100.879 E28.10387
